(Exported by FreeCAD)
(Post Processor: grbl_post)
(Output Time:2022-04-10 16:37:46.720818)
(Begin preamble)
G17 G90
G21
(Begin operation: Fixture)
(Path: Fixture)
G54
(Finish operation: Fixture)
(Begin operation: 3mm_Endmill_3022)
(Path: 3mm_Endmill_3022)
(3mm_Endmill_3022)
(Begin toolchange)
( M6 T4.0 )
M3 S8000.0
(Finish operation: 3mm_Endmill_3022)
(Begin operation: Adaptive)
(Path: Adaptive)
(Adaptive)
(Helix to depth: 4.500000)
G0 Z11.000
G0 X73.145 Y-13.146 Z11.000
G0 X73.145 Y-13.146 Z9.000
G1 X73.145 Y-13.146 Z5.000 F360.000
G1 X73.145 Y-13.146 Z5.000 F360.000
G1 X73.191 Y-12.920 Z4.980 F360.000
G1 X73.192 Y-12.689 Z4.959 F360.000
G1 X73.148 Y-12.463 Z4.939 F360.000
G1 X73.060 Y-12.249 Z4.918 F360.000
G1 X72.932 Y-12.057 Z4.898 F360.000
G1 X72.770 Y-11.893 Z4.878 F360.000
G1 X72.578 Y-11.764 Z4.857 F360.000
G1 X72.365 Y-11.675 Z4.837 F360.000
G1 X72.139 Y-11.630 Z4.816 F360.000
G1 X71.908 Y-11.629 Z4.796 F360.000
G1 X71.682 Y-11.673 Z4.776 F360.000
G1 X71.468 Y-11.761 Z4.755 F360.000
G1 X71.276 Y-11.888 Z4.735 F360.000
G1 X71.112 Y-12.051 Z4.714 F360.000
G1 X70.983 Y-12.243 Z4.694 F360.000
G1 X70.894 Y-12.456 Z4.674 F360.000
G1 X70.849 Y-12.682 Z4.653 F360.000
G1 X70.848 Y-12.913 Z4.633 F360.000
G1 X70.892 Y-13.139 Z4.612 F360.000
G1 X70.980 Y-13.353 Z4.592 F360.000
G1 X71.108 Y-13.545 Z4.572 F360.000
G1 X71.270 Y-13.709 Z4.551 F360.000
G1 X71.462 Y-13.837 Z4.531 F360.000
G1 X71.675 Y-13.926 Z4.511 F360.000
G1 X71.901 Y-13.972 Z4.500 F600.000
G1 X72.132 Y-13.973 Z4.500 F600.000
G1 X72.358 Y-13.928 Z4.500 F600.000
G1 X72.572 Y-13.841 Z4.500 F600.000
G1 X72.764 Y-13.713 Z4.500 F600.000
G1 X72.928 Y-13.550 Z4.500 F600.000
G1 X73.056 Y-13.359 Z4.500 F600.000
G1 X73.145 Y-13.146 Z4.500 F600.000
G1 X73.191 Y-12.920 Z4.500 F600.000
G1 X73.192 Y-12.689 Z4.500 F600.000
G1 X73.148 Y-12.463 Z4.500 F600.000
G1 X73.060 Y-12.249 Z4.500 F600.000
G1 X72.932 Y-12.057 Z4.500 F600.000
G1 X72.770 Y-11.893 Z4.500 F600.000
G1 X72.578 Y-11.764 Z4.500 F600.000
G1 X72.365 Y-11.675 Z4.500 F600.000
G1 X72.139 Y-11.630 Z4.500 F600.000
G1 X71.908 Y-11.629 Z4.500 F600.000
G1 X71.682 Y-11.673 Z4.500 F600.000
G1 X71.468 Y-11.761 Z4.500 F600.000
G1 X71.276 Y-11.888 Z4.500 F600.000
G1 X71.112 Y-12.051 Z4.500 F600.000
G1 X70.983 Y-12.243 Z4.500 F600.000
G1 X70.894 Y-12.456 Z4.500 F600.000
G1 X70.849 Y-12.682 Z4.500 F600.000
G1 X70.848 Y-12.913 Z4.500 F600.000
G1 X70.892 Y-13.139 Z4.500 F600.000
G1 X70.980 Y-13.353 Z4.500 F600.000
G1 X71.108 Y-13.545 Z4.500 F600.000
G1 X71.270 Y-13.709 Z4.500 F600.000
G1 X71.462 Y-13.837 Z4.500 F600.000
G1 X71.675 Y-13.926 Z4.500 F600.000
(Adaptive - depth: 4.500000)
G1 X72.020 Y-13.988 F600.000
G1 X72.064 Y-14.032 F600.000
G1 X72.179 Y-14.072 F600.000
G1 X72.359 Y-14.088 F600.000
G1 X72.538 Y-14.064 F600.000
G1 X72.904 Y-13.920 F600.000
G1 X73.084 Y-13.777 F600.000
G1 X73.175 Y-13.673 F600.000
G1 X73.263 Y-13.554 F600.000
G1 X73.367 Y-13.367 F600.000
G1 X73.450 Y-13.131 F600.000
G1 X73.486 Y-12.912 F600.000
G1 X73.494 Y-12.721 F600.000
G1 X73.470 Y-12.506 F600.000
G1 X73.414 Y-12.303 F600.000
G1 X73.335 Y-12.112 F600.000
G1 X73.215 Y-11.916 F600.000
G1 X73.076 Y-11.749 F600.000
G1 X72.916 Y-11.602 F600.000
G1 X72.733 Y-11.478 F600.000
G1 X72.538 Y-11.382 F600.000
G1 X72.331 Y-11.319 F600.000
G1 X72.116 Y-11.291 F600.000
G1 X71.920 Y-11.291 F600.000
G1 X71.713 Y-11.319 F600.000
G1 X71.498 Y-11.378 F600.000
G1 X71.283 Y-11.474 F600.000
G1 X71.092 Y-11.594 F600.000
G1 X70.924 Y-11.749 F600.000
G1 X70.801 Y-11.896 F600.000
G1 X70.685 Y-12.072 F600.000
G1 X70.590 Y-12.295 F600.000
G1 X70.530 Y-12.502 F600.000
G1 X70.498 Y-12.721 F600.000
G1 X70.502 Y-12.940 F600.000
G1 X70.534 Y-13.155 F600.000
G1 X70.598 Y-13.367 F600.000
G1 X70.693 Y-13.566 F600.000
G1 X70.821 Y-13.745 F600.000
G1 X70.956 Y-13.888 F600.000
G1 X71.120 Y-14.024 F600.000
G1 X71.307 Y-14.147 F600.000
G1 X71.546 Y-14.271 F600.000
G1 X71.825 Y-14.371 F600.000
G1 X72.183 Y-14.410 F600.000
G1 X72.363 Y-14.406 F600.000
G1 X72.749 Y-14.335 F600.000
G1 X73.060 Y-14.187 F600.000
G1 X73.191 Y-14.088 F600.000
G1 X73.299 Y-13.988 F600.000
G1 X73.426 Y-13.849 F600.000
G1 X73.598 Y-13.602 F600.000
G1 X73.721 Y-13.355 F600.000
G1 X73.789 Y-13.116 F600.000
G1 X73.817 Y-12.924 F600.000
G1 X73.821 Y-12.717 F600.000
G1 X73.797 Y-12.478 F600.000
G1 X73.741 Y-12.227 F600.000
G1 X73.653 Y-11.988 F600.000
G1 X73.530 Y-11.773 F600.000
G1 X73.402 Y-11.602 F600.000
G1 X73.239 Y-11.426 F600.000
G1 X73.040 Y-11.263 F600.000
G1 X72.817 Y-11.131 F600.000
G1 X72.614 Y-11.040 F600.000
G1 X72.378 Y-10.968 F600.000
G1 X72.139 Y-10.932 F600.000
G1 X71.908 Y-10.928 F600.000
G1 X71.669 Y-10.956 F600.000
G1 X71.438 Y-11.012 F600.000
G1 X71.219 Y-11.100 F600.000
G1 X71.012 Y-11.215 F600.000
G1 X70.817 Y-11.351 F600.000
G1 X70.614 Y-11.542 F600.000
G1 X70.454 Y-11.733 F600.000
G1 X70.327 Y-11.952 F600.000
G1 X70.243 Y-12.143 F600.000
G1 X70.175 Y-12.367 F600.000
G1 X70.131 Y-12.622 F600.000
G1 X70.120 Y-12.880 F600.000
G1 X70.147 Y-13.127 F600.000
G1 X70.199 Y-13.351 F600.000
G1 X70.287 Y-13.578 F600.000
G1 X70.402 Y-13.789 F600.000
G1 X70.542 Y-13.980 F600.000
G1 X70.705 Y-14.155 F600.000
G1 X70.884 Y-14.315 F600.000
G1 X71.124 Y-14.482 F600.000
G1 X71.390 Y-14.622 F600.000
G1 X71.649 Y-14.705 F600.000
G1 X71.857 Y-14.753 F600.000
G1 X72.112 Y-14.781 F600.000
G1 X72.386 Y-14.777 F600.000
G1 X72.649 Y-14.741 F600.000
G1 X72.904 Y-14.661 F600.000
G1 X73.100 Y-14.574 F600.000
G1 X73.311 Y-14.446 F600.000
G1 X73.498 Y-14.291 F600.000
G1 X73.661 Y-14.120 F600.000
G1 X73.809 Y-13.928 F600.000
G1 X73.952 Y-13.693 F600.000
G1 X74.068 Y-13.434 F600.000
G1 X74.135 Y-13.175 F600.000
G1 X74.171 Y-12.948 F600.000
G1 X74.179 Y-12.693 F600.000
G1 X74.159 Y-12.446 F600.000
G1 X74.104 Y-12.171 F600.000
G1 X74.020 Y-11.920 F600.000
G1 X73.908 Y-11.681 F600.000
G1 X73.765 Y-11.454 F600.000
G1 X73.598 Y-11.247 F600.000
G1 X73.406 Y-11.060 F600.000
G1 X73.191 Y-10.896 F600.000
G1 X72.964 Y-10.761 F600.000
G1 X72.717 Y-10.661 F600.000
G1 X72.494 Y-10.598 F600.000
G1 X72.243 Y-10.558 F600.000
G1 X71.996 Y-10.542 F600.000
G1 X71.697 Y-10.558 F600.000
G1 X71.410 Y-10.610 F600.000
G1 X71.147 Y-10.701 F600.000
G1 X70.944 Y-10.793 F600.000
G1 X70.721 Y-10.924 F600.000
G1 X70.486 Y-11.104 F600.000
G1 X70.287 Y-11.299 F600.000
G1 X70.116 Y-11.518 F600.000
G1 X69.992 Y-11.721 F600.000
G1 X69.880 Y-11.956 F600.000
G1 X69.797 Y-12.219 F600.000
G1 X69.745 Y-12.470 F600.000
G1 X69.717 Y-12.733 F600.000
G1 X69.729 Y-13.028 F600.000
G1 X69.769 Y-13.299 F600.000
G1 X69.853 Y-13.562 F600.000
G1 X69.940 Y-13.769 F600.000
G1 X70.064 Y-13.996 F600.000
G1 X70.239 Y-14.239 F600.000
G1 X70.438 Y-14.462 F600.000
G1 X70.649 Y-14.653 F600.000
G1 X70.892 Y-14.817 F600.000
G1 X71.112 Y-14.932 F600.000
G1 X71.367 Y-15.032 F600.000
G1 X71.629 Y-15.112 F600.000
G1 X71.948 Y-15.167 F600.000
G1 X72.235 Y-15.183 F600.000
G1 X72.526 Y-15.155 F600.000
G1 X72.765 Y-15.112 F600.000
G1 X73.024 Y-15.028 F600.000
G1 X73.263 Y-14.916 F600.000
G1 X73.482 Y-14.781 F600.000
G1 X73.697 Y-14.622 F600.000
G1 X73.912 Y-14.410 F600.000
G1 X74.088 Y-14.199 F600.000
G1 X74.243 Y-13.964 F600.000
G1 X74.371 Y-13.705 F600.000
G1 X74.470 Y-13.438 F600.000
G1 X74.538 Y-13.163 F600.000
G1 X74.570 Y-12.880 F600.000
G1 X74.570 Y-12.629 F600.000
G1 X74.546 Y-12.359 F600.000
G1 X74.486 Y-12.064 F600.000
G1 X74.394 Y-11.777 F600.000
G1 X74.275 Y-11.510 F600.000
G1 X74.116 Y-11.259 F600.000
G1 X73.964 Y-11.060 F600.000
G1 X73.777 Y-10.857 F600.000
G1 X73.538 Y-10.653 F600.000
G1 X73.279 Y-10.474 F600.000
G1 X73.008 Y-10.339 F600.000
G1 X72.773 Y-10.247 F600.000
G1 X72.498 Y-10.175 F600.000
G1 X72.219 Y-10.131 F600.000
G1 X71.924 Y-10.120 F600.000
G1 X71.637 Y-10.139 F600.000
G1 X71.355 Y-10.191 F600.000
G1 X71.076 Y-10.275 F600.000
G1 X70.809 Y-10.386 F600.000
G1 X70.558 Y-10.526 F600.000
G1 X70.323 Y-10.693 F600.000
G1 X70.108 Y-10.884 F600.000
G1 X69.912 Y-11.092 F600.000
G1 X69.721 Y-11.347 F600.000
G1 X69.570 Y-11.602 F600.000
G1 X69.454 Y-11.876 F600.000
G1 X69.382 Y-12.116 F600.000
G1 X69.327 Y-12.390 F600.000
G1 X69.291 Y-12.697 F600.000
G1 X69.303 Y-13.036 F600.000
G1 X69.335 Y-13.295 F600.000
G1 X69.402 Y-13.586 F600.000
G1 X69.502 Y-13.865 F600.000
G1 X69.625 Y-14.120 F600.000
G1 X69.781 Y-14.367 F600.000
G1 X69.964 Y-14.594 F600.000
G1 X70.167 Y-14.801 F600.000
G1 X70.390 Y-14.992 F600.000
G1 X70.661 Y-15.175 F600.000
G1 X70.928 Y-15.319 F600.000
G1 X71.211 Y-15.438 F600.000
G1 X71.510 Y-15.526 F600.000
G1 X71.813 Y-15.582 F600.000
G1 X72.120 Y-15.610 F600.000
G1 X72.426 Y-15.594 F600.000
G1 X72.685 Y-15.554 F600.000
G1 X72.968 Y-15.478 F600.000
G1 X73.235 Y-15.378 F600.000
G1 X73.522 Y-15.235 F600.000
G1 X73.777 Y-15.072 F600.000
G1 X74.016 Y-14.884 F600.000
G1 X74.239 Y-14.665 F600.000
G1 X74.426 Y-14.426 F600.000
G1 X74.570 Y-14.203 F600.000
G1 X74.709 Y-13.944 F600.000
G1 X74.833 Y-13.622 F600.000
G1 X74.912 Y-13.335 F600.000
G1 X74.964 Y-13.032 F600.000
G1 X74.984 Y-12.717 F600.000
G1 X74.972 Y-12.410 F600.000
G1 X74.928 Y-12.100 F600.000
G1 X74.853 Y-11.797 F600.000
G1 X74.737 Y-11.510 F600.000
G1 X74.618 Y-11.271 F600.000
G1 X74.458 Y-11.024 F600.000
G1 X74.283 Y-10.793 F600.000
G1 X74.040 Y-10.526 F600.000
G1 X73.769 Y-10.287 F600.000
G1 X73.490 Y-10.108 F600.000
G1 X73.271 Y-9.988 F600.000
G1 X72.988 Y-9.873 F600.000
G1 X72.709 Y-9.785 F600.000
G1 X72.371 Y-9.717 F600.000
G1 X72.060 Y-9.689 F600.000
G1 X71.749 Y-9.689 F600.000
G1 X71.430 Y-9.725 F600.000
G1 X71.120 Y-9.789 F600.000
G1 X70.821 Y-9.892 F600.000
G1 X70.578 Y-10.004 F600.000
G1 X70.315 Y-10.147 F600.000
G1 X70.028 Y-10.359 F600.000
G1 X69.801 Y-10.558 F600.000
G1 X69.586 Y-10.789 F600.000
G1 X69.390 Y-11.048 F600.000
G1 X69.227 Y-11.315 F600.000
G1 X69.092 Y-11.598 F600.000
G1 X68.984 Y-11.896 F600.000
G1 X68.908 Y-12.199 F600.000
G1 X68.865 Y-12.510 F600.000
G1 X68.849 Y-12.821 F600.000
G1 X68.865 Y-13.131 F600.000
G1 X68.912 Y-13.438 F600.000
G1 X68.992 Y-13.741 F600.000
G1 X69.100 Y-14.032 F600.000
G1 X69.231 Y-14.315 F600.000
G1 X69.410 Y-14.614 F600.000
G1 X69.606 Y-14.873 F600.000
G1 X69.837 Y-15.108 F600.000
G1 X70.040 Y-15.283 F600.000
G1 X70.283 Y-15.466 F600.000
G1 X70.606 Y-15.661 F600.000
G1 X70.936 Y-15.821 F600.000
G1 X71.267 Y-15.928 F600.000
G1 X71.530 Y-15.992 F600.000
G1 X71.853 Y-16.032 F600.000
G1 X72.159 Y-16.040 F600.000
G1 X72.490 Y-16.016 F600.000
G1 X72.805 Y-15.964 F600.000
G1 X73.116 Y-15.880 F600.000
G1 X73.418 Y-15.765 F600.000
G1 X73.705 Y-15.622 F600.000
G1 X73.980 Y-15.450 F600.000
G1 X74.239 Y-15.251 F600.000
G1 X74.474 Y-15.032 F600.000
G1 X74.689 Y-14.785 F600.000
G1 X74.880 Y-14.518 F600.000
G1 X75.044 Y-14.235 F600.000
G1 X75.179 Y-13.936 F600.000
G1 X75.287 Y-13.625 F600.000
G1 X75.363 Y-13.307 F600.000
G1 X75.406 Y-12.980 F600.000
G1 X75.418 Y-12.653 F600.000
G1 X75.398 Y-12.327 F600.000
G1 X75.347 Y-12.000 F600.000
G1 X75.267 Y-11.681 F600.000
G1 X75.155 Y-11.371 F600.000
G1 X75.016 Y-11.072 F600.000
G1 X74.845 Y-10.789 F600.000
G1 X74.649 Y-10.522 F600.000
G1 X74.430 Y-10.279 F600.000
G1 X74.187 Y-10.056 F600.000
G1 X73.924 Y-9.857 F600.000
G1 X73.641 Y-9.685 F600.000
G1 X73.347 Y-9.542 F600.000
G1 X73.040 Y-9.422 F600.000
G1 X72.689 Y-9.327 F600.000
G1 X72.355 Y-9.267 F600.000
G1 X72.012 Y-9.235 F600.000
G1 X71.665 Y-9.235 F600.000
G1 X71.323 Y-9.279 F600.000
G1 X71.040 Y-9.339 F600.000
G1 X70.733 Y-9.438 F600.000
G1 X70.442 Y-9.558 F600.000
G1 X70.127 Y-9.729 F600.000
G1 X69.853 Y-9.912 F600.000
G1 X69.590 Y-10.124 F600.000
G1 X69.347 Y-10.363 F600.000
G1 X69.131 Y-10.618 F600.000
G1 X68.936 Y-10.896 F600.000
G1 X68.769 Y-11.191 F600.000
G1 X68.629 Y-11.498 F600.000
G1 X68.522 Y-11.817 F600.000
G1 X68.446 Y-12.143 F600.000
G1 X68.398 Y-12.478 F600.000
G1 X68.382 Y-12.813 F600.000
G1 X68.398 Y-13.147 F600.000
G1 X68.446 Y-13.482 F600.000
G1 X68.526 Y-13.809 F600.000
G1 X68.637 Y-14.127 F600.000
G1 X68.777 Y-14.434 F600.000
G1 X68.944 Y-14.725 F600.000
G1 X69.135 Y-15.004 F600.000
G1 X69.378 Y-15.291 F600.000
G1 X69.625 Y-15.538 F600.000
G1 X69.896 Y-15.765 F600.000
G1 X70.191 Y-15.968 F600.000
G1 X70.498 Y-16.139 F600.000
G1 X70.825 Y-16.275 F600.000
G1 X71.108 Y-16.367 F600.000
G1 X71.434 Y-16.434 F600.000
G1 X71.757 Y-16.478 F600.000
G1 X72.135 Y-16.490 F600.000
G1 X72.478 Y-16.470 F600.000
G1 X72.825 Y-16.422 F600.000
G1 X73.171 Y-16.339 F600.000
G1 X73.502 Y-16.227 F600.000
G1 X73.825 Y-16.084 F600.000
G1 X74.127 Y-15.900 F600.000
G1 X74.359 Y-15.737 F600.000
G1 X74.610 Y-15.526 F600.000
G1 X74.869 Y-15.271 F600.000
G1 X75.120 Y-14.968 F600.000
G1 X75.315 Y-14.665 F600.000
G1 X75.462 Y-14.394 F600.000
G1 X75.602 Y-14.072 F600.000
G1 X75.713 Y-13.749 F600.000
G1 X75.805 Y-13.367 F600.000
G1 X75.857 Y-13.012 F600.000
G1 X75.865 Y-12.653 F600.000
G1 X75.849 Y-12.359 F600.000
G1 X75.809 Y-12.024 F600.000
G1 X75.725 Y-11.641 F600.000
G1 X75.614 Y-11.283 F600.000
G1 X75.458 Y-10.948 F600.000
G1 X75.319 Y-10.697 F600.000
G1 X75.131 Y-10.414 F600.000
G1 X74.900 Y-10.124 F600.000
G1 X74.633 Y-9.845 F600.000
G1 X74.363 Y-9.602 F600.000
G1 X74.056 Y-9.390 F600.000
G1 X73.797 Y-9.239 F600.000
G1 X73.486 Y-9.096 F600.000
G1 X73.171 Y-8.976 F600.000
G1 X72.789 Y-8.873 F600.000
G1 X72.438 Y-8.809 F600.000
G1 X72.076 Y-8.773 F600.000
G1 X71.705 Y-8.769 F600.000
G1 X71.343 Y-8.797 F600.000
G1 X70.980 Y-8.869 F600.000
G1 X70.685 Y-8.952 F600.000
G1 X70.367 Y-9.076 F600.000
G1 X70.064 Y-9.219 F600.000
G1 X69.725 Y-9.422 F600.000
G1 X69.438 Y-9.629 F600.000
G1 X69.167 Y-9.865 F600.000
G1 X68.912 Y-10.127 F600.000
G1 X68.685 Y-10.406 F600.000
G1 X68.482 Y-10.705 F600.000
G1 X68.307 Y-11.020 F600.000
G1 X68.159 Y-11.351 F600.000
G1 X68.040 Y-11.693 F600.000
G1 X67.952 Y-12.044 F600.000
G1 X67.896 Y-12.398 F600.000
G1 X67.884 Y-12.757 F600.000
G1 X67.896 Y-13.056 F600.000
G1 X67.936 Y-13.390 F600.000
G1 X68.016 Y-13.769 F600.000
G1 X68.127 Y-14.143 F600.000
G1 X68.263 Y-14.490 F600.000
G1 X68.446 Y-14.829 F600.000
G1 X68.606 Y-15.084 F600.000
G1 X68.809 Y-15.367 F600.000
G1 X69.064 Y-15.665 F600.000
G1 X69.343 Y-15.940 F600.000
G1 X69.653 Y-16.179 F600.000
G1 X69.912 Y-16.355 F600.000
G1 X70.243 Y-16.534 F600.000
G1 X70.574 Y-16.677 F600.000
G1 X70.904 Y-16.789 F600.000
G1 X71.255 Y-16.873 F600.000
G1 X71.610 Y-16.924 F600.000
G1 X71.964 Y-16.952 F600.000
G1 X72.355 Y-16.944 F600.000
G1 X72.725 Y-16.908 F600.000
G1 X73.100 Y-16.841 F600.000
G1 X73.474 Y-16.741 F600.000
G1 X73.829 Y-16.598 F600.000
G1 X74.108 Y-16.462 F600.000
G1 X74.414 Y-16.275 F600.000
G1 X74.689 Y-16.064 F600.000
G1 X74.948 Y-15.845 F600.000
G1 X75.227 Y-15.566 F600.000
G1 X75.478 Y-15.263 F600.000
G1 X75.685 Y-14.940 F600.000
G1 X75.837 Y-14.669 F600.000
G1 X75.992 Y-14.343 F600.000
G1 X76.131 Y-13.972 F600.000
G1 X76.227 Y-13.590 F600.000
G1 X76.291 Y-13.259 F600.000
G1 X76.331 Y-12.869 F600.000
G1 X76.335 Y-12.490 F600.000
G1 X76.311 Y-12.124 F600.000
G1 X76.251 Y-11.749 F600.000
G1 X76.147 Y-11.386 F600.000
G1 X76.044 Y-11.096 F600.000
G1 X75.900 Y-10.773 F600.000
G1 X75.713 Y-10.434 F600.000
G1 X75.490 Y-10.104 F600.000
G1 X75.255 Y-9.805 F600.000
G1 X74.988 Y-9.518 F600.000
G1 X74.697 Y-9.255 F600.000
G1 X74.378 Y-9.032 F600.000
G1 X74.124 Y-8.876 F600.000
G1 X73.809 Y-8.713 F600.000
G1 X73.442 Y-8.562 F600.000
G1 X73.064 Y-8.442 F600.000
G1 X72.677 Y-8.347 F600.000
G1 X72.283 Y-8.295 F600.000
G1 X71.944 Y-8.275 F600.000
G1 X71.566 Y-8.287 F600.000
G1 X71.191 Y-8.331 F600.000
G1 X70.833 Y-8.402 F600.000
G1 X70.474 Y-8.506 F600.000
G1 X70.127 Y-8.641 F600.000
G1 X69.797 Y-8.805 F600.000
G1 X69.478 Y-8.996 F600.000
G1 X69.175 Y-9.207 F600.000
G1 X68.873 Y-9.462 F600.000
G1 X68.602 Y-9.733 F600.000
G1 X68.347 Y-10.028 F600.000
G1 X68.116 Y-10.347 F600.000
G1 X67.912 Y-10.677 F600.000
G1 X67.737 Y-11.024 F600.000
G1 X67.602 Y-11.394 F600.000
G1 X67.514 Y-11.697 F600.000
G1 X67.446 Y-12.056 F600.000
G1 X67.402 Y-12.410 F600.000
G1 X67.390 Y-12.801 F600.000
G1 X67.410 Y-13.171 F600.000
G1 X67.462 Y-13.546 F600.000
G1 X67.546 Y-13.920 F600.000
G1 X67.661 Y-14.283 F600.000
G1 X67.797 Y-14.637 F600.000
G1 X67.968 Y-14.988 F600.000
G1 X68.167 Y-15.327 F600.000
G1 X68.390 Y-15.649 F600.000
G1 X68.641 Y-15.952 F600.000
G1 X68.924 Y-16.223 F600.000
G1 X69.167 Y-16.426 F600.000
G1 X69.466 Y-16.645 F600.000
G1 X69.801 Y-16.853 F600.000
G1 X70.151 Y-17.032 F600.000
G1 X70.518 Y-17.171 F600.000
G1 X70.833 Y-17.267 F600.000
G1 X71.211 Y-17.355 F600.000
G1 X71.598 Y-17.410 F600.000
G1 X71.988 Y-17.438 F600.000
G1 X72.378 Y-17.434 F600.000
G1 X72.769 Y-17.402 F600.000
G1 X73.155 Y-17.339 F600.000
G1 X73.534 Y-17.227 F600.000
G1 X73.817 Y-17.124 F600.000
G1 X74.155 Y-16.972 F600.000
G1 X74.498 Y-16.781 F600.000
G1 X74.825 Y-16.562 F600.000
G1 X75.135 Y-16.319 F600.000
G1 X75.426 Y-16.052 F600.000
G1 X75.685 Y-15.753 F600.000
G1 X75.876 Y-15.498 F600.000
G1 X76.084 Y-15.187 F600.000
G1 X76.275 Y-14.841 F600.000
G1 X76.442 Y-14.482 F600.000
G1 X76.586 Y-14.112 F600.000
G1 X76.685 Y-13.729 F600.000
G1 X76.753 Y-13.386 F600.000
G1 X76.797 Y-12.992 F600.000
G1 X76.813 Y-12.602 F600.000
G1 X76.797 Y-12.207 F600.000
G1 X76.749 Y-11.813 F600.000
G1 X76.657 Y-11.426 F600.000
G1 X76.562 Y-11.116 F600.000
G1 X76.418 Y-10.761 F600.000
G1 X76.259 Y-10.426 F600.000
G1 X76.056 Y-10.084 F600.000
G1 X75.833 Y-9.753 F600.000
G1 X75.586 Y-9.442 F600.000
G1 X75.315 Y-9.151 F600.000
G1 X75.016 Y-8.888 F600.000
G1 X74.745 Y-8.681 F600.000
G1 X74.410 Y-8.466 F600.000
G1 X74.064 Y-8.287 F600.000
G1 X73.721 Y-8.139 F600.000
G1 X73.355 Y-8.008 F600.000
G1 X72.968 Y-7.908 F600.000
G1 X72.578 Y-7.837 F600.000
G1 X72.183 Y-7.793 F600.000
G1 X71.789 Y-7.785 F600.000
G1 X71.394 Y-7.805 F600.000
G1 X71.000 Y-7.857 F600.000
G1 X70.614 Y-7.936 F600.000
G1 X70.235 Y-8.048 F600.000
G1 X69.873 Y-8.203 F600.000
G1 X69.586 Y-8.347 F600.000
G1 X69.259 Y-8.534 F600.000
G1 X68.932 Y-8.757 F600.000
G1 X68.625 Y-9.004 F600.000
G1 X68.335 Y-9.271 F600.000
G1 X68.064 Y-9.558 F600.000
G1 X67.817 Y-9.865 F600.000
G1 X67.602 Y-10.195 F600.000
G1 X67.422 Y-10.506 F600.000
G1 X67.255 Y-10.865 F600.000
G1 X67.120 Y-11.235 F600.000
G1 X67.012 Y-11.610 F600.000
G1 X66.936 Y-11.996 F600.000
G1 X66.892 Y-12.386 F600.000
G1 X66.880 Y-12.777 F600.000
G1 X66.900 Y-13.167 F600.000
G1 X66.952 Y-13.558 F600.000
G1 X67.032 Y-13.940 F600.000
G1 X67.135 Y-14.319 F600.000
G1 X67.271 Y-14.685 F600.000
G1 X67.426 Y-15.044 F600.000
G1 X67.610 Y-15.390 F600.000
G1 X67.817 Y-15.721 F600.000
G1 X68.056 Y-16.032 F600.000
G1 X68.295 Y-16.303 F600.000
G1 X68.578 Y-16.574 F600.000
G1 X68.876 Y-16.829 F600.000
G1 X69.195 Y-17.060 F600.000
G1 X69.530 Y-17.267 F600.000
G1 X69.876 Y-17.450 F600.000
G1 X70.235 Y-17.606 F600.000
G1 X70.606 Y-17.733 F600.000
G1 X70.988 Y-17.825 F600.000
G1 X71.355 Y-17.888 F600.000
G1 X71.745 Y-17.924 F600.000
G1 X72.135 Y-17.940 F600.000
G1 X72.526 Y-17.920 F600.000
G1 X72.916 Y-17.873 F600.000
G1 X73.303 Y-17.801 F600.000
G1 X73.681 Y-17.701 F600.000
G1 X74.048 Y-17.558 F600.000
G1 X74.351 Y-17.418 F600.000
G1 X74.697 Y-17.231 F600.000
G1 X75.028 Y-17.016 F600.000
G1 X75.343 Y-16.777 F600.000
G1 X75.637 Y-16.518 F600.000
G1 X75.916 Y-16.235 F600.000
G1 X76.171 Y-15.936 F600.000
G1 X76.406 Y-15.618 F600.000
G1 X76.618 Y-15.283 F600.000
G1 X76.797 Y-14.932 F600.000
G1 X76.952 Y-14.574 F600.000
G1 X77.080 Y-14.199 F600.000
G1 X77.175 Y-13.817 F600.000
G1 X77.243 Y-13.426 F600.000
G1 X77.283 Y-13.032 F600.000
G1 X77.303 Y-12.637 F600.000
G1 X77.287 Y-12.243 F600.000
G1 X77.247 Y-11.849 F600.000
G1 X77.167 Y-11.458 F600.000
G1 X77.072 Y-11.104 F600.000
G1 X76.936 Y-10.729 F600.000
G1 X76.777 Y-10.367 F600.000
G1 X76.590 Y-10.016 F600.000
G1 X76.382 Y-9.677 F600.000
G1 X76.151 Y-9.355 F600.000
G1 X75.896 Y-9.048 F600.000
G1 X75.625 Y-8.757 F600.000
G1 X75.335 Y-8.490 F600.000
G1 X75.012 Y-8.259 F600.000
G1 X74.725 Y-8.072 F600.000
G1 X74.375 Y-7.884 F600.000
G1 X74.012 Y-7.717 F600.000
G1 X73.641 Y-7.574 F600.000
G1 X73.263 Y-7.458 F600.000
G1 X72.876 Y-7.367 F600.000
G1 X72.486 Y-7.303 F600.000
G1 X72.092 Y-7.267 F600.000
G1 X71.697 Y-7.267 F600.000
G1 X71.319 Y-7.291 F600.000
G1 X70.928 Y-7.347 F600.000
G1 X70.542 Y-7.434 F600.000
G1 X70.163 Y-7.546 F600.000
G1 X69.793 Y-7.689 F600.000
G1 X69.434 Y-7.861 F600.000
G1 X69.084 Y-8.048 F600.000
G1 X68.753 Y-8.263 F600.000
G1 X68.438 Y-8.498 F600.000
G1 X68.135 Y-8.753 F600.000
G1 X67.857 Y-9.032 F600.000
G1 X67.594 Y-9.327 F600.000
G1 X67.355 Y-9.637 F600.000
G1 X67.135 Y-9.964 F600.000
G1 X66.940 Y-10.307 F600.000
G1 X66.769 Y-10.661 F600.000
G1 X66.637 Y-11.032 F600.000
G1 X66.538 Y-11.371 F600.000
G1 X66.458 Y-11.757 F600.000
G1 X66.398 Y-12.147 F600.000
G1 X66.375 Y-12.538 F600.000
G1 X66.375 Y-12.928 F600.000
G1 X66.402 Y-13.319 F600.000
G1 X66.458 Y-13.705 F600.000
G1 X66.542 Y-14.088 F600.000
G1 X66.641 Y-14.466 F600.000
G1 X66.773 Y-14.837 F600.000
G1 X66.924 Y-15.199 F600.000
G1 X67.100 Y-15.550 F600.000
G1 X67.299 Y-15.888 F600.000
G1 X67.526 Y-16.207 F600.000
G1 X67.773 Y-16.514 F600.000
G1 X68.040 Y-16.801 F600.000
G1 X68.331 Y-17.064 F600.000
G1 X68.637 Y-17.307 F600.000
G1 X68.960 Y-17.526 F600.000
G1 X69.295 Y-17.729 F600.000
G1 X69.645 Y-17.904 F600.000
G1 X70.008 Y-18.056 F600.000
G1 X70.378 Y-18.183 F600.000
G1 X70.757 Y-18.287 F600.000
G1 X71.139 Y-18.363 F600.000
G1 X71.530 Y-18.414 F600.000
G1 X71.920 Y-18.438 F600.000
G1 X72.311 Y-18.438 F600.000
G1 X72.701 Y-18.410 F600.000
G1 X73.092 Y-18.355 F600.000
G1 X73.478 Y-18.275 F600.000
G1 X73.857 Y-18.167 F600.000
G1 X74.227 Y-18.036 F600.000
G1 X74.582 Y-17.869 F600.000
G1 X74.920 Y-17.685 F600.000
G1 X75.251 Y-17.470 F600.000
G1 X75.570 Y-17.239 F600.000
G1 X75.869 Y-16.984 F600.000
G1 X76.151 Y-16.709 F600.000
G1 X76.414 Y-16.414 F600.000
G1 X76.657 Y-16.104 F600.000
G1 X76.884 Y-15.781 F600.000
G1 X77.088 Y-15.442 F600.000
G1 X77.267 Y-15.092 F600.000
G1 X77.426 Y-14.729 F600.000
G1 X77.546 Y-14.351 F600.000
G1 X77.641 Y-13.988 F600.000
G1 X77.713 Y-13.598 F600.000
G1 X77.765 Y-13.203 F600.000
G1 X77.789 Y-12.809 F600.000
G1 X77.785 Y-12.414 F600.000
G1 X77.757 Y-12.020 F600.000
G1 X77.701 Y-11.625 F600.000
G1 X77.622 Y-11.235 F600.000
G1 X77.518 Y-10.853 F600.000
G1 X77.375 Y-10.482 F600.000
G1 X77.219 Y-10.139 F600.000
G1 X77.040 Y-9.785 F600.000
G1 X76.837 Y-9.442 F600.000
G1 X76.610 Y-9.116 F600.000
G1 X76.367 Y-8.801 F600.000
G1 X76.092 Y-8.514 F600.000
G1 X75.801 Y-8.243 F600.000
G1 X75.494 Y-7.992 F600.000
G1 X75.167 Y-7.765 F600.000
G1 X74.833 Y-7.554 F600.000
G1 X74.482 Y-7.371 F600.000
G1 X74.120 Y-7.211 F600.000
G1 X73.749 Y-7.068 F600.000
G1 X73.371 Y-6.952 F600.000
G1 X72.984 Y-6.861 F600.000
G1 X72.594 Y-6.789 F600.000
G1 X72.199 Y-6.745 F600.000
G1 X71.805 Y-6.741 F600.000
G1 X71.426 Y-6.757 F600.000
G1 X71.032 Y-6.801 F600.000
G1 X70.641 Y-6.869 F600.000
G1 X70.259 Y-6.964 F600.000
G1 X69.884 Y-7.088 F600.000
G1 X69.518 Y-7.231 F600.000
G1 X69.159 Y-7.402 F600.000
G1 X68.817 Y-7.598 F600.000
G1 X68.486 Y-7.813 F600.000
G1 X68.163 Y-8.044 F600.000
G1 X67.861 Y-8.295 F600.000
G1 X67.574 Y-8.566 F600.000
G1 X67.303 Y-8.853 F600.000
G1 X67.052 Y-9.155 F600.000
G1 X66.817 Y-9.470 F600.000
G1 X66.602 Y-9.801 F600.000
G1 X66.418 Y-10.151 F600.000
G1 X66.255 Y-10.510 F600.000
G1 X66.131 Y-10.884 F600.000
G1 X66.036 Y-11.239 F600.000
G1 X65.948 Y-11.622 F600.000
G1 X65.888 Y-12.008 F600.000
G1 X65.857 Y-12.398 F600.000
G1 X65.845 Y-12.789 F600.000
G1 X65.861 Y-13.179 F600.000
G1 X65.900 Y-13.570 F600.000
G1 X65.964 Y-13.956 F600.000
G1 X66.052 Y-14.339 F600.000
G1 X66.163 Y-14.713 F600.000
G1 X66.295 Y-15.084 F600.000
G1 X66.450 Y-15.442 F600.000
G1 X66.629 Y-15.793 F600.000
G1 X66.829 Y-16.131 F600.000
G1 X67.048 Y-16.454 F600.000
G1 X67.287 Y-16.765 F600.000
G1 X67.554 Y-17.052 F600.000
G1 X67.837 Y-17.323 F600.000
G1 X68.135 Y-17.574 F600.000
G1 X68.450 Y-17.809 F600.000
G1 X68.781 Y-18.020 F600.000
G1 X69.124 Y-18.211 F600.000
G1 X69.474 Y-18.390 F600.000
G1 X69.837 Y-18.542 F600.000
G1 X70.207 Y-18.673 F600.000
G1 X70.582 Y-18.785 F600.000
G1 X70.968 Y-18.857 F600.000
G1 X71.355 Y-18.912 F600.000
G1 X71.745 Y-18.940 F600.000
G1 X72.135 Y-18.952 F600.000
G1 X72.526 Y-18.936 F600.000
G1 X72.916 Y-18.896 F600.000
G1 X73.303 Y-18.837 F600.000
G1 X73.685 Y-18.753 F600.000
G1 X74.060 Y-18.633 F600.000
G1 X74.430 Y-18.498 F600.000
G1 X74.789 Y-18.335 F600.000
G1 X75.135 Y-18.147 F600.000
G1 X75.470 Y-17.936 F600.000
G1 X75.789 Y-17.705 F600.000
G1 X76.092 Y-17.450 F600.000
G1 X76.382 Y-17.187 F600.000
G1 X76.653 Y-16.900 F600.000
G1 X76.908 Y-16.598 F600.000
G1 X77.147 Y-16.283 F600.000
G1 X77.363 Y-15.952 F600.000
G1 X77.558 Y-15.610 F600.000
G1 X77.733 Y-15.255 F600.000
G1 X77.888 Y-14.892 F600.000
G1 X78.020 Y-14.518 F600.000
G1 X78.131 Y-14.139 F600.000
G1 X78.203 Y-13.749 F600.000
G1 X78.255 Y-13.355 F600.000
G1 X78.287 Y-12.960 F600.000
G1 X78.295 Y-12.566 F600.000
G1 X78.279 Y-12.171 F600.000
G1 X78.239 Y-11.777 F600.000
G1 X78.179 Y-11.386 F600.000
G1 X78.096 Y-11.000 F600.000
G1 X77.972 Y-10.622 F600.000
G1 X77.833 Y-10.259 F600.000
G1 X77.673 Y-9.896 F600.000
G1 X77.494 Y-9.542 F600.000
G1 X77.295 Y-9.199 F600.000
G1 X77.076 Y-8.869 F600.000
G1 X76.825 Y-8.558 F600.000
G1 X76.562 Y-8.259 F600.000
G1 X76.279 Y-7.980 F600.000
G1 X75.976 Y-7.721 F600.000
G1 X75.657 Y-7.482 F600.000
G1 X75.331 Y-7.255 F600.000
G1 X74.988 Y-7.056 F600.000
G1 X74.633 Y-6.876 F600.000
G1 X74.271 Y-6.713 F600.000
G1 X73.900 Y-6.578 F600.000
G1 X73.522 Y-6.454 F600.000
G1 X73.139 Y-6.355 F600.000
G1 X72.749 Y-6.279 F600.000
G1 X72.355 Y-6.235 F600.000
G1 X71.960 Y-6.207 F600.000
G1 X71.566 Y-6.207 F600.000
G1 X71.171 Y-6.235 F600.000
G1 X70.781 Y-6.299 F600.000
G1 X70.406 Y-6.382 F600.000
G1 X70.024 Y-6.482 F600.000
G1 X69.649 Y-6.606 F600.000
G1 X69.283 Y-6.749 F600.000
G1 X68.928 Y-6.924 F600.000
G1 X68.582 Y-7.116 F600.000
G1 X68.247 Y-7.323 F600.000
G1 X67.924 Y-7.550 F600.000
G1 X67.614 Y-7.793 F600.000
G1 X67.315 Y-8.052 F600.000
G1 X67.032 Y-8.327 F600.000
G1 X66.765 Y-8.618 F600.000
G1 X66.522 Y-8.928 F600.000
G1 X66.295 Y-9.251 F600.000
G1 X66.100 Y-9.594 F600.000
G1 X65.924 Y-9.944 F600.000
G1 X65.769 Y-10.307 F600.000
G1 X65.633 Y-10.677 F600.000
G1 X65.526 Y-11.056 F600.000
G1 X65.442 Y-11.438 F600.000
G1 X65.371 Y-11.825 F600.000
G1 X65.331 Y-12.215 F600.000
G1 X65.311 Y-12.606 F600.000
G1 X65.311 Y-12.996 F600.000
G1 X65.335 Y-13.386 F600.000
G1 X65.382 Y-13.777 F600.000
G1 X65.450 Y-14.163 F600.000
G1 X65.542 Y-14.546 F600.000
G1 X65.653 Y-14.920 F600.000
G1 X65.789 Y-15.287 F600.000
G1 X65.944 Y-15.645 F600.000
G1 X66.120 Y-15.996 F600.000
G1 X66.315 Y-16.335 F600.000
G1 X66.530 Y-16.661 F600.000
G1 X66.761 Y-16.976 F600.000
G1 X67.024 Y-17.267 F600.000
G1 X67.299 Y-17.546 F600.000
G1 X67.594 Y-17.805 F600.000
G1 X67.900 Y-18.048 F600.000
G1 X68.219 Y-18.279 F600.000
G1 X68.550 Y-18.486 F600.000
G1 X68.888 Y-18.681 F600.000
G1 X69.239 Y-18.857 F600.000
G1 X69.598 Y-19.012 F600.000
G1 X69.964 Y-19.147 F600.000
G1 X70.339 Y-19.263 F600.000
G1 X70.721 Y-19.343 F600.000
G1 X71.108 Y-19.406 F600.000
G1 X71.498 Y-19.446 F600.000
G1 X71.888 Y-19.466 F600.000
G1 X72.279 Y-19.462 F600.000
G1 X72.669 Y-19.442 F600.000
G1 X73.060 Y-19.398 F600.000
G1 X73.446 Y-19.335 F600.000
G1 X73.829 Y-19.243 F600.000
G1 X74.207 Y-19.135 F600.000
G1 X74.578 Y-19.004 F600.000
G1 X74.932 Y-18.837 F600.000
G1 X75.283 Y-18.653 F600.000
G1 X75.618 Y-18.446 F600.000
G1 X75.944 Y-18.223 F600.000
G1 X76.255 Y-17.980 F600.000
G1 X76.550 Y-17.717 F600.000
G1 X76.837 Y-17.446 F600.000
G1 X77.104 Y-17.155 F600.000
G1 X77.355 Y-16.849 F600.000
G1 X77.590 Y-16.530 F600.000
G1 X77.805 Y-16.199 F600.000
G1 X78.004 Y-15.857 F600.000
G1 X78.183 Y-15.506 F600.000
G1 X78.343 Y-15.143 F600.000
G1 X78.482 Y-14.773 F600.000
G1 X78.586 Y-14.390 F600.000
G1 X78.673 Y-14.004 F600.000
G1 X78.737 Y-13.614 F600.000
G1 X78.785 Y-13.219 F600.000
G1 X78.805 Y-12.825 F600.000
G1 X78.805 Y-12.430 F600.000
G1 X78.781 Y-12.036 F600.000
G1 X78.733 Y-11.641 F600.000
G1 X78.665 Y-11.251 F600.000
G1 X78.578 Y-10.865 F600.000
G1 X78.466 Y-10.482 F600.000
G1 X78.335 Y-10.108 F600.000
G1 X78.179 Y-9.741 F600.000
G1 X78.004 Y-9.382 F600.000
G1 X77.809 Y-9.036 F600.000
G1 X77.598 Y-8.701 F600.000
G1 X77.367 Y-8.378 F600.000
G1 X77.104 Y-8.080 F600.000
G1 X76.829 Y-7.793 F600.000
G1 X76.542 Y-7.518 F600.000
G1 X76.239 Y-7.263 F600.000
G1 X75.920 Y-7.024 F600.000
G1 X75.590 Y-6.801 F600.000
G1 X75.247 Y-6.598 F600.000
G1 X74.896 Y-6.414 F600.000
G1 X74.534 Y-6.251 F600.000
G1 X74.163 Y-6.108 F600.000
G1 X73.785 Y-5.984 F600.000
G1 X73.402 Y-5.880 F600.000
G1 X73.016 Y-5.797 F600.000
G1 X72.625 Y-5.737 F600.000
G1 X72.231 Y-5.697 F600.000
G1 X71.837 Y-5.681 F600.000
G1 X71.442 Y-5.685 F600.000
G1 X71.048 Y-5.713 F600.000
G1 X70.657 Y-5.773 F600.000
G1 X70.267 Y-5.849 F600.000
G1 X69.884 Y-5.948 F600.000
G1 X69.510 Y-6.076 F600.000
G1 X69.143 Y-6.223 F600.000
G1 X68.785 Y-6.386 F600.000
G1 X68.438 Y-6.574 F600.000
G1 X68.096 Y-6.773 F600.000
G1 X67.765 Y-6.992 F600.000
G1 X67.450 Y-7.227 F600.000
G1 X67.143 Y-7.478 F600.000
G1 X66.853 Y-7.745 F600.000
G1 X66.574 Y-8.024 F600.000
G1 X66.311 Y-8.319 F600.000
G1 X66.064 Y-8.625 F600.000
G1 X65.845 Y-8.952 F600.000
G1 X65.637 Y-9.287 F600.000
G1 X65.462 Y-9.641 F600.000
G1 X65.307 Y-10.004 F600.000
G1 X65.175 Y-10.375 F600.000
G1 X65.056 Y-10.749 F600.000
G1 X64.956 Y-11.127 F600.000
G1 X64.876 Y-11.514 F600.000
G1 X64.813 Y-11.900 F600.000
G1 X64.769 Y-12.291 F600.000
G1 X64.757 Y-12.681 F600.000
G1 X64.761 Y-13.072 F600.000
G1 X64.789 Y-13.462 F600.000
G1 X64.841 Y-13.853 F600.000
G1 X64.912 Y-14.239 F600.000
G1 X65.008 Y-14.622 F600.000
G1 X65.116 Y-15.000 F600.000
G1 X65.247 Y-15.371 F600.000
G1 X65.398 Y-15.733 F600.000
G1 X65.566 Y-16.088 F600.000
G1 X65.753 Y-16.434 F600.000
G1 X65.956 Y-16.769 F600.000
G1 X66.175 Y-17.092 F600.000
G1 X66.426 Y-17.394 F600.000
G1 X66.685 Y-17.685 F600.000
G1 X66.964 Y-17.960 F600.000
G1 X67.255 Y-18.219 F600.000
G1 X67.562 Y-18.462 F600.000
G1 X67.876 Y-18.693 F600.000
G1 X68.207 Y-18.904 F600.000
G1 X68.546 Y-19.100 F600.000
G1 X68.892 Y-19.279 F600.000
G1 X69.251 Y-19.438 F600.000
G1 X69.618 Y-19.582 F600.000
G1 X69.988 Y-19.705 F600.000
G1 X70.367 Y-19.809 F600.000
G1 X70.749 Y-19.892 F600.000
G1 X71.139 Y-19.944 F600.000
G1 X71.530 Y-19.984 F600.000
G1 X71.920 Y-20.000 F600.000
G1 X72.311 Y-19.996 F600.000
G1 X72.701 Y-19.968 F600.000
G1 X73.092 Y-19.920 F600.000
G1 X73.478 Y-19.853 F600.000
G1 X73.861 Y-19.765 F600.000
G1 X74.239 Y-19.657 F600.000
G1 X74.610 Y-19.530 F600.000
G1 X74.972 Y-19.382 F600.000
G1 X75.327 Y-19.215 F600.000
G1 X75.673 Y-19.028 F600.000
G1 X76.004 Y-18.817 F600.000
G1 X76.327 Y-18.590 F600.000
G1 X76.633 Y-18.343 F600.000
G1 X76.928 Y-18.080 F600.000
G1 X77.207 Y-17.801 F600.000
G1 X77.478 Y-17.514 F600.000
G1 X77.729 Y-17.211 F600.000
G1 X77.964 Y-16.896 F600.000
G1 X78.187 Y-16.570 F600.000
G1 X78.390 Y-16.231 F600.000
G1 X78.578 Y-15.884 F600.000
G1 X78.749 Y-15.530 F600.000
G1 X78.888 Y-15.159 F600.000
G1 X79.012 Y-14.785 F600.000
G1 X79.112 Y-14.402 F600.000
G1 X79.195 Y-14.016 F600.000
G1 X79.255 Y-13.625 F600.000
G1 X79.295 Y-13.231 F600.000
G1 X79.315 Y-12.837 F600.000
G1 X79.319 Y-12.442 F600.000
G1 X79.299 Y-12.048 F600.000
G1 X79.263 Y-11.653 F600.000
G1 X79.207 Y-11.259 F600.000
G1 X79.131 Y-10.869 F600.000
G1 X79.024 Y-10.486 F600.000
G1 X78.904 Y-10.108 F600.000
G1 X78.761 Y-9.737 F600.000
G1 X78.594 Y-9.378 F600.000
G1 X78.410 Y-9.028 F600.000
G1 X78.215 Y-8.681 F600.000
G1 X77.996 Y-8.351 F600.000
G1 X77.761 Y-8.032 F600.000
G1 X77.498 Y-7.733 F600.000
G1 X77.223 Y-7.446 F600.000
G1 X76.936 Y-7.171 F600.000
G1 X76.637 Y-6.908 F600.000
G1 X76.327 Y-6.661 F600.000
G1 X76.004 Y-6.430 F600.000
G1 X75.669 Y-6.215 F600.000
G1 X75.327 Y-6.016 F600.000
G1 X74.964 Y-5.849 F600.000
G1 X74.598 Y-5.693 F600.000
G1 X74.223 Y-5.562 F600.000
G1 X73.845 Y-5.442 F600.000
G1 X73.458 Y-5.347 F600.000
G1 X73.072 Y-5.263 F600.000
G1 X72.681 Y-5.199 F600.000
G1 X72.287 Y-5.155 F600.000
G1 X71.892 Y-5.139 F600.000
G1 X71.498 Y-5.135 F600.000
G1 X71.104 Y-5.155 F600.000
G1 X70.709 Y-5.199 F600.000
G1 X70.319 Y-5.271 F600.000
G1 X69.932 Y-5.359 F600.000
G1 X69.554 Y-5.470 F600.000
G1 X69.183 Y-5.610 F600.000
G1 X68.462 Y-5.936 F600.000
G1 X67.773 Y-6.327 F600.000
G1 X67.442 Y-6.546 F600.000
G1 X67.124 Y-6.781 F600.000
G1 X66.813 Y-7.028 F600.000
G1 X66.518 Y-7.287 F600.000
G1 X66.235 Y-7.562 F600.000
G1 X65.725 Y-8.159 F600.000
G1 X65.494 Y-8.478 F600.000
G1 X65.283 Y-8.809 F600.000
G1 X65.088 Y-9.151 F600.000
G1 X64.912 Y-9.502 F600.000
G1 X64.757 Y-9.865 F600.000
G1 X64.622 Y-10.235 F600.000
G1 X64.506 Y-10.610 F600.000
G1 X64.331 Y-11.375 F600.000
G1 X64.275 Y-11.765 F600.000
G1 X64.235 Y-12.155 F600.000
G1 X64.211 Y-12.546 F600.000
G1 X64.211 Y-12.936 F600.000
G1 X64.227 Y-13.327 F600.000
G1 X64.263 Y-13.717 F600.000
G1 X64.319 Y-14.104 F600.000
G1 X64.394 Y-14.490 F600.000
G1 X64.490 Y-14.873 F600.000
G1 X64.602 Y-15.247 F600.000
G1 X64.733 Y-15.618 F600.000
G1 X64.880 Y-15.980 F600.000
G1 X65.048 Y-16.335 F600.000
G1 X65.243 Y-16.673 F600.000
G1 X65.450 Y-17.004 F600.000
G1 X65.677 Y-17.323 F600.000
G1 X65.920 Y-17.629 F600.000
G1 X66.179 Y-17.924 F600.000
G1 X66.454 Y-18.203 F600.000
G1 X66.741 Y-18.470 F600.000
G1 X67.036 Y-18.729 F600.000
G1 X67.347 Y-18.968 F600.000
G1 X67.665 Y-19.195 F600.000
G1 X67.996 Y-19.406 F600.000
G1 X68.335 Y-19.602 F600.000
G1 X68.681 Y-19.781 F600.000
G1 X69.036 Y-19.944 F600.000
G1 X69.398 Y-20.092 F600.000
G1 X69.773 Y-20.207 F600.000
G1 X70.151 Y-20.311 F600.000
G1 X70.534 Y-20.390 F600.000
G1 X70.920 Y-20.454 F600.000
G1 X71.311 Y-20.498 F600.000
G1 X71.701 Y-20.522 F600.000
G1 X72.092 Y-20.526 F600.000
G1 X72.482 Y-20.510 F600.000
G1 X72.873 Y-20.474 F600.000
G1 X73.263 Y-20.422 F600.000
G1 X73.649 Y-20.351 F600.000
G1 X74.032 Y-20.259 F600.000
G1 X74.410 Y-20.147 F600.000
G1 X74.781 Y-20.020 F600.000
G1 X75.147 Y-19.873 F600.000
G1 X75.506 Y-19.709 F600.000
G1 X75.857 Y-19.526 F600.000
G1 X76.195 Y-19.327 F600.000
G1 X76.518 Y-19.104 F600.000
G1 X76.833 Y-18.869 F600.000
G1 X77.135 Y-18.614 F600.000
G1 X77.422 Y-18.343 F600.000
G1 X77.693 Y-18.056 F600.000
G1 X77.956 Y-17.761 F600.000
G1 X78.438 Y-17.135 F600.000
G1 X78.657 Y-16.809 F600.000
G1 X78.861 Y-16.470 F600.000
G1 X79.044 Y-16.120 F600.000
G1 X79.215 Y-15.761 F600.000
G1 X79.367 Y-15.394 F600.000
G1 X79.498 Y-15.024 F600.000
G1 X79.598 Y-14.641 F600.000
G1 X79.685 Y-14.255 F600.000
G1 X79.757 Y-13.865 F600.000
G1 X79.805 Y-13.470 F600.000
G1 X79.833 Y-13.076 F600.000
G1 X79.845 Y-12.681 F600.000
G1 X79.837 Y-12.287 F600.000
G1 X79.817 Y-11.892 F600.000
G1 X79.777 Y-11.498 F600.000
G1 X79.705 Y-11.108 F600.000
G1 X79.622 Y-10.721 F600.000
G1 X79.526 Y-10.335 F600.000
G1 X79.402 Y-9.956 F600.000
G1 X79.267 Y-9.582 F600.000
G1 X79.112 Y-9.215 F600.000
G1 X78.936 Y-8.857 F600.000
G1 X78.733 Y-8.514 F600.000
G1 X78.518 Y-8.179 F600.000
G1 X78.283 Y-7.861 F600.000
G1 X78.036 Y-7.550 F600.000
G1 X77.769 Y-7.255 F600.000
G1 X77.490 Y-6.972 F600.000
G1 X77.203 Y-6.697 F600.000
G1 X76.900 Y-6.438 F600.000
G1 X76.586 Y-6.195 F600.000
G1 X76.263 Y-5.964 F600.000
G1 X75.928 Y-5.749 F600.000
G1 X75.586 Y-5.550 F600.000
G1 X75.231 Y-5.375 F600.000
G1 X74.869 Y-5.211 F600.000
G1 X74.498 Y-5.068 F600.000
G1 X74.120 Y-4.948 F600.000
G1 X73.737 Y-4.845 F600.000
G1 X73.351 Y-4.761 F600.000
G1 X72.960 Y-4.689 F600.000
G1 X72.566 Y-4.641 F600.000
G1 X72.171 Y-4.610 F600.000
G1 X71.777 Y-4.594 F600.000
G1 X71.382 Y-4.598 F600.000
G1 X70.988 Y-4.618 F600.000
G1 X70.594 Y-4.665 F600.000
G1 X70.203 Y-4.729 F600.000
G1 X69.817 Y-4.813 F600.000
G1 X69.438 Y-4.928 F600.000
G1 X69.064 Y-5.056 F600.000
G1 X68.697 Y-5.207 F600.000
G1 X68.339 Y-5.371 F600.000
G1 X67.988 Y-5.554 F600.000
G1 X67.645 Y-5.749 F600.000
G1 X67.311 Y-5.960 F600.000
G1 X66.988 Y-6.187 F600.000
G1 X66.673 Y-6.426 F600.000
G1 X66.371 Y-6.681 F600.000
G1 X66.080 Y-6.948 F600.000
G1 X65.801 Y-7.227 F600.000
G1 X65.534 Y-7.518 F600.000
G1 X65.283 Y-7.821 F600.000
G1 X64.837 Y-8.470 F600.000
G1 X64.637 Y-8.809 F600.000
G1 X64.458 Y-9.159 F600.000
G1 X64.299 Y-9.518 F600.000
G1 X64.159 Y-9.884 F600.000
G1 X64.032 Y-10.255 F600.000
G1 X63.924 Y-10.633 F600.000
G1 X63.837 Y-11.016 F600.000
G1 X63.765 Y-11.402 F600.000
G1 X63.713 Y-11.793 F600.000
G1 X63.673 Y-12.183 F600.000
G1 X63.653 Y-12.574 F600.000
G1 X63.649 Y-12.964 F600.000
G1 X63.661 Y-13.355 F600.000
G1 X63.693 Y-13.745 F600.000
G1 X63.757 Y-14.131 F600.000
G1 X63.833 Y-14.518 F600.000
G1 X63.920 Y-14.900 F600.000
G1 X64.028 Y-15.279 F600.000
G1 X64.151 Y-15.649 F600.000
G1 X64.291 Y-16.016 F600.000
G1 X64.446 Y-16.375 F600.000
G1 X64.829 Y-17.056 F600.000
G1 X65.044 Y-17.382 F600.000
G1 X65.275 Y-17.697 F600.000
G1 X65.522 Y-18.000 F600.000
G1 X65.785 Y-18.291 F600.000
G1 X66.056 Y-18.574 F600.000
G1 X66.343 Y-18.841 F600.000
G1 X66.641 Y-19.096 F600.000
G1 X66.948 Y-19.339 F600.000
G1 X67.263 Y-19.570 F600.000
G1 X67.590 Y-19.785 F600.000
G1 X67.924 Y-19.988 F600.000
G1 X68.267 Y-20.179 F600.000
G1 X68.618 Y-20.355 F600.000
G1 X68.980 Y-20.506 F600.000
G1 X69.347 Y-20.645 F600.000
G1 X69.725 Y-20.753 F600.000
G1 X70.108 Y-20.845 F600.000
G1 X70.490 Y-20.924 F600.000
G1 X70.876 Y-20.984 F600.000
G1 X71.267 Y-21.024 F600.000
G1 X71.657 Y-21.048 F600.000
G1 X72.048 Y-21.056 F600.000
G1 X72.438 Y-21.044 F600.000
G1 X72.829 Y-21.016 F600.000
G1 X73.219 Y-20.968 F600.000
G1 X73.606 Y-20.900 F600.000
G1 X73.988 Y-20.817 F600.000
G1 X74.367 Y-20.717 F600.000
G1 X74.741 Y-20.598 F600.000
G1 X75.112 Y-20.462 F600.000
G1 X75.474 Y-20.311 F600.000
G1 X75.829 Y-20.143 F600.000
G1 X76.175 Y-19.960 F600.000
G1 X76.514 Y-19.761 F600.000
G1 X77.143 Y-19.291 F600.000
G1 X77.446 Y-19.040 F600.000
G1 X77.737 Y-18.773 F600.000
G1 X78.012 Y-18.490 F600.000
G1 X78.275 Y-18.199 F600.000
G1 X78.769 Y-17.582 F600.000
G1 X78.996 Y-17.259 F600.000
G1 X79.211 Y-16.928 F600.000
G1 X79.578 Y-16.227 F600.000
G1 X79.737 Y-15.865 F600.000
G1 X79.880 Y-15.498 F600.000
G1 X80.008 Y-15.124 F600.000
G1 X80.120 Y-14.745 F600.000
G1 X80.207 Y-14.359 F600.000
G1 X80.279 Y-13.968 F600.000
G1 X80.331 Y-13.574 F600.000
G1 X80.363 Y-13.179 F600.000
G1 X80.378 Y-12.390 F600.000
G1 X80.359 Y-11.996 F600.000
G1 X80.323 Y-11.602 F600.000
G1 X80.271 Y-11.207 F600.000
G1 X80.199 Y-10.817 F600.000
G1 X80.112 Y-10.430 F600.000
G1 X80.008 Y-10.048 F600.000
G1 X79.888 Y-9.669 F600.000
G1 X79.741 Y-9.299 F600.000
G1 X79.582 Y-8.936 F600.000
G1 X79.402 Y-8.582 F600.000
G1 X79.203 Y-8.239 F600.000
G1 X78.988 Y-7.904 F600.000
G1 X78.757 Y-7.582 F600.000
G1 X78.510 Y-7.271 F600.000
G1 X78.247 Y-6.972 F600.000
G1 X77.976 Y-6.681 F600.000
G1 X77.689 Y-6.406 F600.000
G1 X77.390 Y-6.143 F600.000
G1 X77.084 Y-5.892 F600.000
G1 X76.438 Y-5.430 F600.000
G1 X76.100 Y-5.219 F600.000
G1 X75.753 Y-5.024 F600.000
G1 X75.402 Y-4.841 F600.000
G1 X74.665 Y-4.546 F600.000
G1 X74.287 Y-4.422 F600.000
G1 X73.904 Y-4.315 F600.000
G1 X73.518 Y-4.227 F600.000
G1 X73.127 Y-4.155 F600.000
G1 X72.733 Y-4.104 F600.000
G1 X72.339 Y-4.068 F600.000
G1 X71.944 Y-4.044 F600.000
G1 X71.550 Y-4.040 F600.000
G1 X71.155 Y-4.052 F600.000
G1 X70.761 Y-4.080 F600.000
G1 X70.371 Y-4.135 F600.000
G1 X69.980 Y-4.203 F600.000
G1 X69.598 Y-4.299 F600.000
G1 X69.219 Y-4.410 F600.000
G1 X68.845 Y-4.542 F600.000
G1 X68.478 Y-4.685 F600.000
G1 X68.120 Y-4.853 F600.000
G1 X67.769 Y-5.036 F600.000
G1 X67.088 Y-5.434 F600.000
G1 X66.761 Y-5.657 F600.000
G1 X66.442 Y-5.892 F600.000
G1 X66.135 Y-6.139 F600.000
G1 X65.841 Y-6.398 F600.000
G1 X65.554 Y-6.669 F600.000
G1 X65.279 Y-6.952 F600.000
G1 X65.016 Y-7.247 F600.000
G1 X64.777 Y-7.562 F600.000
G1 X64.550 Y-7.880 F600.000
G1 X64.339 Y-8.215 F600.000
G1 X64.147 Y-8.562 F600.000
G1 X63.805 Y-9.271 F600.000
G1 X63.661 Y-9.637 F600.000
G1 X63.534 Y-10.008 F600.000
G1 X63.418 Y-10.382 F600.000
G1 X63.323 Y-10.765 F600.000
G1 X63.243 Y-11.151 F600.000
G1 X63.183 Y-11.538 F600.000
G1 X63.139 Y-11.928 F600.000
G1 X63.092 Y-12.709 F600.000
G1 X63.092 Y-13.100 F600.000
G1 X63.108 Y-13.490 F600.000
G1 X63.155 Y-13.880 F600.000
G1 X63.215 Y-14.267 F600.000
G1 X63.287 Y-14.653 F600.000
G1 X63.375 Y-15.036 F600.000
G1 X63.478 Y-15.414 F600.000
G1 X63.594 Y-15.789 F600.000
G1 X63.904 Y-16.510 F600.000
G1 X64.084 Y-16.857 F600.000
G1 X64.275 Y-17.199 F600.000
G1 X64.482 Y-17.530 F600.000
G1 X64.705 Y-17.853 F600.000
G1 X64.940 Y-18.163 F600.000
G1 X65.191 Y-18.466 F600.000
G1 X65.454 Y-18.757 F600.000
G1 X65.729 Y-19.036 F600.000
G1 X66.016 Y-19.303 F600.000
G1 X66.315 Y-19.554 F600.000
G1 X66.940 Y-20.024 F600.000
G1 X67.267 Y-20.239 F600.000
G1 X67.602 Y-20.442 F600.000
G1 X67.944 Y-20.633 F600.000
G1 X68.295 Y-20.809 F600.000
G1 X68.653 Y-20.972 F600.000
G1 X69.398 Y-21.219 F600.000
G1 X69.777 Y-21.319 F600.000
G1 X70.159 Y-21.406 F600.000
G1 X70.546 Y-21.474 F600.000
G1 X70.936 Y-21.526 F600.000
G1 X71.327 Y-21.562 F600.000
G1 X71.717 Y-21.586 F600.000
G1 X72.108 Y-21.590 F600.000
G1 X72.498 Y-21.582 F600.000
G1 X72.888 Y-21.558 F600.000
G1 X73.279 Y-21.518 F600.000
G1 X74.048 Y-21.359 F600.000
G1 X74.805 Y-21.143 F600.000
G1 X75.175 Y-21.012 F600.000
G1 X75.542 Y-20.865 F600.000
G1 X75.900 Y-20.705 F600.000
G1 X76.251 Y-20.530 F600.000
G1 X76.924 Y-20.124 F600.000
G1 X77.247 Y-19.896 F600.000
G1 X77.558 Y-19.653 F600.000
G1 X77.857 Y-19.398 F600.000
G1 X78.143 Y-19.127 F600.000
G1 X78.418 Y-18.845 F600.000
G1 X78.685 Y-18.554 F600.000
G1 X78.936 Y-18.247 F600.000
G1 X79.171 Y-17.932 F600.000
G1 X79.610 Y-17.275 F600.000
G1 X79.809 Y-16.932 F600.000
G1 X79.996 Y-16.586 F600.000
G1 X80.171 Y-16.231 F600.000
G1 X80.458 Y-15.494 F600.000
G1 X80.578 Y-15.116 F600.000
G1 X80.673 Y-14.733 F600.000
G1 X80.757 Y-14.347 F600.000
G1 X80.821 Y-13.956 F600.000
G1 X80.865 Y-13.562 F600.000
G1 X80.896 Y-13.167 F600.000
G1 X80.908 Y-12.773 F600.000
G1 X80.904 Y-12.378 F600.000
G1 X80.857 Y-11.590 F600.000
G1 X80.809 Y-11.195 F600.000
G1 X80.745 Y-10.805 F600.000
G1 X80.669 Y-10.414 F600.000
G1 X80.446 Y-9.653 F600.000
G1 X80.315 Y-9.279 F600.000
G1 X80.159 Y-8.912 F600.000
G1 X79.992 Y-8.554 F600.000
G1 X79.809 Y-8.203 F600.000
G1 X79.610 Y-7.861 F600.000
G1 X79.394 Y-7.526 F600.000
G1 X79.163 Y-7.203 F600.000
G1 X78.916 Y-6.892 F600.000
G1 X78.657 Y-6.594 F600.000
G1 X78.382 Y-6.307 F600.000
G1 X78.096 Y-6.032 F600.000
G1 X77.494 Y-5.514 F600.000
G1 X77.175 Y-5.275 F600.000
G1 X76.849 Y-5.048 F600.000
G1 X76.514 Y-4.833 F600.000
G1 X76.171 Y-4.633 F600.000
G1 X75.821 Y-4.446 F600.000
G1 X75.462 Y-4.275 F600.000
G1 X75.096 Y-4.120 F600.000
G1 X74.725 Y-3.976 F600.000
G1 X74.347 Y-3.861 F600.000
G1 X73.964 Y-3.757 F600.000
G1 X73.578 Y-3.673 F600.000
G1 X73.187 Y-3.602 F600.000
G1 X72.793 Y-3.550 F600.000
G1 X72.398 Y-3.514 F600.000
G1 X71.610 Y-3.482 F600.000
G1 X71.215 Y-3.490 F600.000
G1 X70.821 Y-3.510 F600.000
G1 X70.426 Y-3.562 F600.000
G1 X70.036 Y-3.625 F600.000
G1 X69.649 Y-3.709 F600.000
G1 X69.267 Y-3.813 F600.000
G1 X68.888 Y-3.932 F600.000
G1 X68.518 Y-4.072 F600.000
G1 X67.797 Y-4.390 F600.000
G1 X67.100 Y-4.765 F600.000
G1 X66.761 Y-4.972 F600.000
G1 X66.434 Y-5.191 F600.000
G1 X66.112 Y-5.422 F600.000
G1 X65.801 Y-5.665 F600.000
G1 X65.498 Y-5.920 F600.000
G1 X65.207 Y-6.183 F600.000
G1 X64.681 Y-6.769 F600.000
G1 X64.438 Y-7.080 F600.000
G1 X64.207 Y-7.398 F600.000
G1 X63.785 Y-8.064 F600.000
G1 X63.594 Y-8.406 F600.000
G1 X63.251 Y-9.116 F600.000
G1 X63.100 Y-9.478 F600.000
G1 X62.869 Y-10.231 F600.000
G1 X62.777 Y-10.614 F600.000
G1 X62.697 Y-11.000 F600.000
G1 X62.586 Y-11.777 F600.000
G1 X62.550 Y-12.167 F600.000
G1 X62.530 Y-12.558 F600.000
G1 X62.522 Y-12.948 F600.000
G1 X62.530 Y-13.339 F600.000
G1 X62.554 Y-13.729 F600.000
G1 X62.665 Y-14.506 F600.000
G1 X62.745 Y-14.888 F600.000
G1 X62.845 Y-15.267 F600.000
G1 X62.960 Y-15.641 F600.000
G1 X63.092 Y-16.012 F600.000
G1 X63.239 Y-16.375 F600.000
G1 X63.574 Y-17.080 F600.000
G1 X63.765 Y-17.422 F600.000
G1 X63.968 Y-17.757 F600.000
G1 X64.183 Y-18.084 F600.000
G1 X64.414 Y-18.402 F600.000
G1 X64.657 Y-18.709 F600.000
G1 X64.912 Y-19.008 F600.000
G1 X65.179 Y-19.295 F600.000
G1 X65.466 Y-19.562 F600.000
G1 X66.064 Y-20.072 F600.000
G1 X66.375 Y-20.311 F600.000
G1 X66.693 Y-20.538 F600.000
G1 X67.020 Y-20.753 F600.000
G1 X67.355 Y-20.952 F600.000
G1 X67.697 Y-21.139 F600.000
G1 X68.056 Y-21.303 F600.000
G1 X68.418 Y-21.454 F600.000
G1 X68.785 Y-21.590 F600.000
G1 X69.155 Y-21.713 F600.000
G1 X69.534 Y-21.821 F600.000
G1 X69.916 Y-21.912 F600.000
G1 X70.299 Y-21.992 F600.000
G1 X70.685 Y-22.052 F600.000
G1 X71.076 Y-22.100 F600.000
G1 X71.466 Y-22.131 F600.000
G1 X71.857 Y-22.147 F600.000
G1 X72.247 Y-22.147 F600.000
G1 X72.637 Y-22.131 F600.000
G1 X73.028 Y-22.100 F600.000
G1 X73.418 Y-22.052 F600.000
G1 X73.805 Y-21.980 F600.000
G1 X74.187 Y-21.896 F600.000
G1 X74.566 Y-21.793 F600.000
G1 X75.311 Y-21.542 F600.000
G1 X75.677 Y-21.398 F600.000
G1 X76.390 Y-21.072 F600.000
G1 X77.072 Y-20.681 F600.000
G1 X77.394 Y-20.454 F600.000
G1 X77.709 Y-20.215 F600.000
G1 X78.307 Y-19.705 F600.000
G1 X78.590 Y-19.430 F600.000
G1 X78.861 Y-19.143 F600.000
G1 X79.371 Y-18.542 F600.000
G1 X79.610 Y-18.227 F600.000
G1 X80.056 Y-17.574 F600.000
G1 X80.259 Y-17.235 F600.000
G1 X80.450 Y-16.888 F600.000
G1 X80.777 Y-16.167 F600.000
G1 X80.916 Y-15.797 F600.000
G1 X81.036 Y-15.418 F600.000
G1 X81.143 Y-15.036 F600.000
G1 X81.231 Y-14.649 F600.000
G1 X81.303 Y-14.259 F600.000
G1 X81.359 Y-13.869 F600.000
G1 X81.402 Y-13.474 F600.000
G1 X81.426 Y-13.080 F600.000
G1 X81.438 Y-12.685 F600.000
G1 X81.434 Y-12.291 F600.000
G1 X81.414 Y-11.896 F600.000
G1 X81.378 Y-11.502 F600.000
G1 X81.327 Y-11.108 F600.000
G1 X81.259 Y-10.717 F600.000
G1 X81.179 Y-10.331 F600.000
G1 X81.084 Y-9.944 F600.000
G1 X80.972 Y-9.562 F600.000
G1 X80.845 Y-9.187 F600.000
G1 X80.705 Y-8.817 F600.000
G1 X80.550 Y-8.450 F600.000
G1 X80.367 Y-8.100 F600.000
G1 X80.135 Y-7.697 F600.000
G1 X78.896 Y-6.108 F600.000
G1 X77.869 Y-5.147 F600.000
G1 X76.446 Y-4.175 F600.000
G1 X75.311 Y-3.618 F600.000
G1 X73.785 Y-3.147 F600.000
G1 X72.510 Y-2.932 F600.000
G1 X71.299 Y-2.880 F600.000
G1 X70.279 Y-2.972 F600.000
G1 X68.390 Y-3.474 F600.000
G1 X67.908 Y-3.685 F600.000
G1 X67.550 Y-3.857 F600.000
G1 X66.857 Y-4.235 F600.000
G1 X66.518 Y-4.438 F600.000
G1 X66.187 Y-4.653 F600.000
G1 X65.550 Y-5.116 F600.000
G1 X64.956 Y-5.637 F600.000
G1 X64.673 Y-5.912 F600.000
G1 X64.406 Y-6.203 F600.000
G1 X64.159 Y-6.510 F600.000
G1 X63.697 Y-7.143 F600.000
G1 X63.478 Y-7.470 F600.000
G1 X63.080 Y-8.151 F600.000
G1 X62.900 Y-8.502 F600.000
G1 X62.733 Y-8.857 F600.000
G1 X62.462 Y-9.594 F600.000
G1 X62.351 Y-9.972 F600.000
G1 X62.171 Y-10.737 F600.000
G1 X62.100 Y-11.124 F600.000
G1 X61.996 Y-11.904 F600.000
G1 X61.964 Y-12.295 F600.000
G1 X61.948 Y-12.685 F600.000
G1 X61.944 Y-13.076 F600.000
G1 X62.000 Y-13.857 F600.000
G1 X62.052 Y-14.247 F600.000
G1 X62.124 Y-14.633 F600.000
G1 X62.207 Y-15.016 F600.000
G1 X62.303 Y-15.394 F600.000
G1 X62.418 Y-15.769 F600.000
G1 X62.546 Y-16.139 F600.000
G1 X62.685 Y-16.506 F600.000
G1 X62.841 Y-16.865 F600.000
G1 X63.008 Y-17.219 F600.000
G1 X63.191 Y-17.566 F600.000
G1 X63.386 Y-17.904 F600.000
G1 X63.594 Y-18.235 F600.000
G1 X63.817 Y-18.558 F600.000
G1 X64.052 Y-18.873 F600.000
G1 X64.299 Y-19.175 F600.000
G1 X64.558 Y-19.470 F600.000
G1 X65.367 Y-20.235 F600.000
G1 X66.235 Y-20.912 F600.000
G1 X67.088 Y-21.438 F600.000
G1 X67.434 Y-21.622 F600.000
G1 X67.789 Y-21.789 F600.000
G1 X68.147 Y-21.944 F600.000
G1 X68.514 Y-22.084 F600.000
G1 X68.884 Y-22.207 F600.000
G1 X69.259 Y-22.319 F600.000
G1 X69.637 Y-22.414 F600.000
G1 X70.406 Y-22.566 F600.000
G1 X70.793 Y-22.622 F600.000
G1 X71.183 Y-22.661 F600.000
G1 X71.574 Y-22.689 F600.000
G1 X71.964 Y-22.705 F600.000
G1 X72.355 Y-22.705 F600.000
G1 X73.135 Y-22.641 F600.000
G1 X73.526 Y-22.586 F600.000
G1 X73.912 Y-22.510 F600.000
G1 X74.677 Y-22.319 F600.000
G1 X75.056 Y-22.207 F600.000
G1 X75.797 Y-21.944 F600.000
G1 X76.159 Y-21.797 F600.000
G1 X76.861 Y-21.438 F600.000
G1 X77.199 Y-21.239 F600.000
G1 X77.530 Y-21.024 F600.000
G1 X77.853 Y-20.797 F600.000
G1 X78.163 Y-20.554 F600.000
G1 X78.462 Y-20.299 F600.000
G1 X78.753 Y-20.032 F600.000
G1 X79.032 Y-19.753 F600.000
G1 X79.562 Y-19.167 F600.000
G1 X80.048 Y-18.546 F600.000
G1 X80.279 Y-18.223 F600.000
G1 X80.498 Y-17.892 F600.000
G1 X80.880 Y-17.203 F600.000
G1 X81.215 Y-16.486 F600.000
G1 X81.363 Y-16.120 F600.000
G1 X81.494 Y-15.745 F600.000
G1 X81.614 Y-15.367 F600.000
G1 X81.717 Y-14.984 F600.000
G1 X81.861 Y-14.203 F600.000
G1 X81.912 Y-13.809 F600.000
G1 X81.952 Y-13.223 F600.000
G1 X81.809 Y-10.992 F600.000
G1 X81.562 Y-9.845 F600.000
G1 X81.056 Y-8.406 F600.000
G1 X80.721 Y-7.753 F600.000
G1 X80.247 Y-7.036 F600.000
G1 X79.255 Y-5.900 F600.000
G1 X78.347 Y-5.068 F600.000
G1 X77.211 Y-4.235 F600.000
G1 X76.060 Y-3.610 F600.000
G1 X75.159 Y-3.207 F600.000
G1 X74.012 Y-2.849 F600.000
G1 X72.737 Y-2.598 F600.000
G1 X71.462 Y-2.518 F600.000
G1 X70.888 Y-2.530 F600.000
G1 X68.976 Y-2.793 F600.000
G1 X68.020 Y-3.060 F600.000
G1 X66.355 Y-3.765 F600.000
G1 X65.494 Y-4.331 F600.000
G1 X64.351 Y-5.323 F600.000
G1 X63.355 Y-6.486 F600.000
G1 X62.514 Y-7.797 F600.000
G1 X62.163 Y-8.530 F600.000
G1 X62.032 Y-8.900 F600.000
G1 X61.817 Y-9.657 F600.000
G1 X61.721 Y-10.040 F600.000
G1 X61.566 Y-10.813 F600.000
G1 X61.502 Y-11.199 F600.000
G1 X61.450 Y-11.590 F600.000
G1 X61.410 Y-11.980 F600.000
G1 X61.382 Y-12.371 F600.000
G1 X61.378 Y-13.151 F600.000
G1 X61.394 Y-13.542 F600.000
G1 X61.430 Y-13.932 F600.000
G1 X61.490 Y-14.319 F600.000
G1 X61.562 Y-14.705 F600.000
G1 X61.645 Y-15.088 F600.000
G1 X61.741 Y-15.466 F600.000
G1 X61.972 Y-16.215 F600.000
G1 X62.108 Y-16.582 F600.000
G1 X62.255 Y-16.944 F600.000
G1 X62.414 Y-17.303 F600.000
G1 X62.586 Y-17.653 F600.000
G1 X62.769 Y-18.000 F600.000
G1 X62.964 Y-18.339 F600.000
G1 X63.402 Y-18.988 F600.000
G1 X63.641 Y-19.299 F600.000
G1 X63.896 Y-19.598 F600.000
G1 X64.335 Y-20.064 F600.000
G1 X64.438 Y-20.127 F600.000
G1 X64.558 Y-20.131 F600.000
G1 X64.558 Y-20.131 F600.000
G1 X64.769 Y-20.064 F600.000
G0 X64.801 Y-20.056
G0 X65.315 Y-20.155
G0 X65.673 Y-20.375
G1 X65.701 Y-20.394 F600.000
G1 X65.801 Y-20.470 F600.000
G1 X65.924 Y-20.741 F600.000
G1 X65.924 Y-20.741 F600.000
G1 X66.127 Y-21.044 F600.000
G1 X66.283 Y-21.311 F600.000
G1 X66.594 Y-21.606 F600.000
G1 X67.108 Y-21.976 F600.000
G1 X67.446 Y-22.175 F600.000
G1 X67.797 Y-22.351 F600.000
G1 X68.155 Y-22.510 F600.000
G1 X68.522 Y-22.649 F600.000
G1 X68.892 Y-22.773 F600.000
G1 X69.649 Y-22.972 F600.000
G1 X70.032 Y-23.056 F600.000
G1 X70.805 Y-23.175 F600.000
G1 X71.195 Y-23.215 F600.000
G1 X71.586 Y-23.239 F600.000
G1 X71.976 Y-23.251 F600.000
G1 X72.367 Y-23.247 F600.000
G1 X72.757 Y-23.231 F600.000
G1 X73.147 Y-23.199 F600.000
G1 X73.538 Y-23.143 F600.000
G1 X73.924 Y-23.076 F600.000
G1 X74.307 Y-22.992 F600.000
G1 X75.064 Y-22.785 F600.000
G1 X75.438 Y-22.665 F600.000
G1 X76.175 Y-22.390 F600.000
G1 X76.880 Y-22.044 F600.000
G1 X77.223 Y-21.853 F600.000
G1 X77.562 Y-21.649 F600.000
G1 X77.892 Y-21.434 F600.000
G1 X78.215 Y-21.207 F600.000
G1 X78.821 Y-20.697 F600.000
G1 X79.390 Y-20.151 F600.000
G1 X79.920 Y-19.570 F600.000
G1 X80.175 Y-19.267 F600.000
G1 X80.653 Y-18.641 F600.000
G1 X81.084 Y-17.976 F600.000
G1 X81.283 Y-17.633 F600.000
G1 X82.036 Y-15.582 F600.000
G1 X82.291 Y-14.434 F600.000
G1 X82.382 Y-13.606 F600.000
G1 X82.355 Y-11.693 F600.000
G1 X82.247 Y-11.056 F600.000
G1 X81.641 Y-9.343 F600.000
G1 X81.135 Y-8.327 F600.000
G1 X80.637 Y-7.542 F600.000
G1 X80.637 Y-7.542 F600.000
G1 X80.530 Y-7.446 F600.000
G1 X80.470 Y-7.418 F600.000
G1 X80.442 Y-7.410 F600.000
G0 X80.410 Y-7.414
G0 X80.315 Y-7.478
G0 X66.394 Y-20.765
G1 X66.331 Y-20.829 F600.000
G1 X66.203 Y-20.968 F600.000
G1 X66.171 Y-21.068 F600.000
G1 X66.191 Y-21.239 F600.000
G1 X66.191 Y-21.239 F600.000
G1 X66.219 Y-21.295 F600.000
G1 X66.311 Y-21.653 F600.000
G1 X66.363 Y-21.765 F600.000
G1 X66.554 Y-22.004 F600.000
G1 X66.817 Y-22.255 F600.000
G1 X67.127 Y-22.494 F600.000
G1 X67.458 Y-22.705 F600.000
G1 X67.801 Y-22.892 F600.000
G1 X68.159 Y-23.052 F600.000
G1 X68.522 Y-23.195 F600.000
G1 X68.892 Y-23.323 F600.000
G1 X69.267 Y-23.434 F600.000
G1 X69.645 Y-23.534 F600.000
G1 X70.028 Y-23.614 F600.000
G1 X70.414 Y-23.677 F600.000
G1 X71.195 Y-23.765 F600.000
G1 X71.586 Y-23.785 F600.000
G1 X71.976 Y-23.793 F600.000
G1 X72.367 Y-23.789 F600.000
G1 X72.757 Y-23.769 F600.000
G1 X73.147 Y-23.733 F600.000
G1 X73.538 Y-23.685 F600.000
G1 X73.924 Y-23.622 F600.000
G1 X74.311 Y-23.546 F600.000
G1 X74.693 Y-23.454 F600.000
G1 X75.072 Y-23.351 F600.000
G1 X75.446 Y-23.235 F600.000
G1 X75.817 Y-23.104 F600.000
G1 X76.183 Y-22.960 F600.000
G1 X76.546 Y-22.805 F600.000
G1 X76.900 Y-22.637 F600.000
G1 X77.251 Y-22.454 F600.000
G1 X77.594 Y-22.259 F600.000
G1 X77.928 Y-22.052 F600.000
G1 X78.255 Y-21.833 F600.000
G1 X79.625 Y-20.614 F600.000
G1 X80.857 Y-19.159 F600.000
G1 X81.442 Y-18.247 F600.000
G1 X82.127 Y-16.641 F600.000
G1 X82.303 Y-16.076 F600.000
G1 X82.394 Y-15.375 F600.000
G1 X82.422 Y-13.080 F600.000
G1 X82.422 Y-13.080 F600.000
G1 X82.390 Y-12.944 F600.000
G1 X82.359 Y-12.884 F600.000
G1 X82.339 Y-12.865 F600.000
G0 X82.315 Y-12.857
G0 X82.207 Y-12.884
G0 X66.598 Y-21.287
G1 X66.522 Y-21.327 F600.000
G1 X66.359 Y-21.430 F600.000
G1 X66.291 Y-21.542 F600.000
G1 X66.271 Y-21.677 F600.000
G1 X66.271 Y-21.677 F600.000
G1 X66.311 Y-22.036 F600.000
G1 X66.371 Y-22.211 F600.000
G1 X66.625 Y-22.554 F600.000
G1 X66.797 Y-22.725 F600.000
G1 X67.096 Y-22.980 F600.000
G1 X67.418 Y-23.203 F600.000
G1 X67.757 Y-23.398 F600.000
G1 X68.096 Y-23.574 F600.000
G1 X68.458 Y-23.721 F600.000
G1 X68.825 Y-23.857 F600.000
G1 X69.199 Y-23.972 F600.000
G1 X69.578 Y-24.068 F600.000
G1 X70.351 Y-24.215 F600.000
G1 X71.131 Y-24.303 F600.000
G1 X71.522 Y-24.327 F600.000
G1 X71.912 Y-24.335 F600.000
G1 X72.693 Y-24.319 F600.000
G1 X73.084 Y-24.291 F600.000
G1 X73.474 Y-24.251 F600.000
G1 X73.865 Y-24.199 F600.000
G1 X74.251 Y-24.135 F600.000
G1 X75.016 Y-23.952 F600.000
G1 X75.394 Y-23.841 F600.000
G1 X75.765 Y-23.713 F600.000
G1 X77.195 Y-23.080 F600.000
G1 X78.259 Y-22.410 F600.000
G1 X78.932 Y-21.837 F600.000
G1 X79.629 Y-21.120 F600.000
G1 X80.657 Y-19.845 F600.000
G1 X81.044 Y-19.243 F600.000
G1 X81.602 Y-18.096 F600.000
G1 X82.072 Y-16.900 F600.000
G1 X82.072 Y-16.900 F600.000
G1 X82.076 Y-16.765 F600.000
G1 X82.060 Y-16.701 F600.000
G1 X82.048 Y-16.677 F600.000
G0 X82.028 Y-16.665
G0 X81.920 Y-16.673
G0 X66.629 Y-21.717
G1 X66.550 Y-21.741 F600.000
G1 X66.418 Y-21.793 F600.000
G1 X66.339 Y-21.865 F600.000
G1 X66.287 Y-21.988 F600.000
G1 X66.279 Y-22.056 F600.000
G1 X66.279 Y-22.056 F600.000
G1 X66.299 Y-22.474 F600.000
G1 X66.347 Y-22.653 F600.000
G1 X66.546 Y-22.960 F600.000
G1 X66.793 Y-23.235 F600.000
G1 X67.092 Y-23.490 F600.000
G1 X67.406 Y-23.721 F600.000
G1 X67.741 Y-23.924 F600.000
G1 X68.076 Y-24.104 F600.000
G1 X68.434 Y-24.259 F600.000
G1 X68.801 Y-24.394 F600.000
G1 X69.175 Y-24.510 F600.000
G1 X69.554 Y-24.610 F600.000
G1 X69.936 Y-24.693 F600.000
G1 X70.323 Y-24.761 F600.000
G1 X71.104 Y-24.849 F600.000
G1 X71.884 Y-24.888 F600.000
G1 X72.275 Y-24.892 F600.000
G1 X73.056 Y-24.861 F600.000
G1 X73.446 Y-24.829 F600.000
G1 X74.219 Y-24.701 F600.000
G1 X74.606 Y-24.625 F600.000
G1 X75.367 Y-24.418 F600.000
G1 X75.980 Y-24.203 F600.000
G1 X76.088 Y-24.135 F600.000
G1 X76.251 Y-23.940 F600.000
G1 X76.590 Y-23.649 F600.000
G1 X78.283 Y-22.438 F600.000
G1 X78.283 Y-22.438 F600.000
G1 X78.359 Y-22.327 F600.000
G1 X78.378 Y-22.271 F600.000
G1 X78.378 Y-22.243 F600.000
G0 X78.371 Y-22.227
G0 X78.271 Y-22.203
G0 X66.618 Y-22.303
G1 X66.550 Y-22.307 F600.000
G1 X66.418 Y-22.315 F600.000
G1 X66.363 Y-22.347 F600.000
G1 X66.307 Y-22.430 F600.000
G1 X66.279 Y-22.562 F600.000
G1 X66.279 Y-22.562 F600.000
G1 X66.299 Y-22.980 F600.000
G1 X66.343 Y-23.159 F600.000
G1 X66.574 Y-23.518 F600.000
G1 X66.821 Y-23.793 F600.000
G1 X67.116 Y-24.048 F600.000
G1 X67.434 Y-24.279 F600.000
G1 X67.769 Y-24.482 F600.000
G1 X68.116 Y-24.661 F600.000
G1 X68.474 Y-24.817 F600.000
G1 X68.841 Y-24.952 F600.000
G1 X69.215 Y-25.068 F600.000
G1 X69.594 Y-25.163 F600.000
G1 X69.976 Y-25.247 F600.000
G1 X70.749 Y-25.363 F600.000
G1 X71.139 Y-25.406 F600.000
G1 X71.920 Y-25.446 F600.000
G1 X72.311 Y-25.446 F600.000
G1 X72.701 Y-25.434 F600.000
G1 X73.092 Y-25.410 F600.000
G1 X73.482 Y-25.371 F600.000
G1 X73.873 Y-25.319 F600.000
G1 X74.259 Y-25.255 F600.000
G1 X74.645 Y-25.179 F600.000
G1 X75.028 Y-25.092 F600.000
G1 X75.406 Y-24.988 F600.000
G1 X75.745 Y-24.833 F600.000
G1 X75.793 Y-24.789 F600.000
G1 X75.825 Y-24.733 F600.000
G1 X75.924 Y-24.426 F600.000
G1 X75.924 Y-24.426 F600.000
G1 X75.944 Y-24.291 F600.000
G1 X75.936 Y-24.227 F600.000
G1 X75.924 Y-24.199 F600.000
G0 X75.908 Y-24.179
G0 X75.801 Y-24.139
G0 X66.606 Y-22.849
G1 X66.542 Y-22.841 F600.000
G1 X66.418 Y-22.833 F600.000
G1 X66.363 Y-22.861 F600.000
G1 X66.307 Y-22.940 F600.000
G1 X66.279 Y-23.072 F600.000
G1 X66.279 Y-23.072 F600.000
G1 X66.299 Y-23.490 F600.000
G1 X66.339 Y-23.669 F600.000
G1 X66.454 Y-23.884 F600.000
G1 X66.761 Y-24.263 F600.000
G1 X67.096 Y-24.570 F600.000
G1 X67.410 Y-24.805 F600.000
G1 X67.745 Y-25.012 F600.000
G1 X68.068 Y-25.175 F600.000
G1 X68.394 Y-25.319 F600.000
G1 X68.761 Y-25.458 F600.000
G1 X69.135 Y-25.578 F600.000
G1 X69.514 Y-25.685 F600.000
G1 X69.896 Y-25.769 F600.000
G1 X70.283 Y-25.841 F600.000
G1 X70.669 Y-25.900 F600.000
G1 X71.060 Y-25.948 F600.000
G1 X71.450 Y-25.980 F600.000
G1 X71.841 Y-26.000 F600.000
G1 X72.231 Y-26.004 F600.000
G1 X72.622 Y-25.996 F600.000
G1 X73.012 Y-25.972 F600.000
G1 X73.402 Y-25.936 F600.000
G1 X74.183 Y-25.829 F600.000
G1 X74.570 Y-25.757 F600.000
G1 X74.952 Y-25.673 F600.000
G1 X75.327 Y-25.550 F600.000
G1 X75.673 Y-25.363 F600.000
G1 X75.765 Y-25.279 F600.000
G1 X75.793 Y-25.219 F600.000
G1 X75.789 Y-24.964 F600.000
G1 X75.813 Y-24.773 F600.000
G1 X75.813 Y-24.773 F600.000
G1 X75.817 Y-24.637 F600.000
G1 X75.801 Y-24.574 F600.000
G1 X75.789 Y-24.546 F600.000
G0 X75.769 Y-24.526
G0 X75.657 Y-24.490
G0 X66.606 Y-23.351
G1 X66.542 Y-23.343 F600.000
G1 X66.418 Y-23.339 F600.000
G1 X66.363 Y-23.367 F600.000
G1 X66.307 Y-23.446 F600.000
G1 X66.279 Y-23.578 F600.000
G1 X66.279 Y-23.578 F600.000
G1 X66.287 Y-23.936 F600.000
G1 X66.335 Y-24.175 F600.000
G1 X66.382 Y-24.287 F600.000
G1 X66.665 Y-24.685 F600.000
G1 X66.829 Y-24.861 F600.000
G1 X67.120 Y-25.124 F600.000
G1 X67.434 Y-25.359 F600.000
G1 X67.769 Y-25.562 F600.000
G1 X68.084 Y-25.733 F600.000
G1 X68.442 Y-25.888 F600.000
G1 X68.809 Y-26.024 F600.000
G1 X69.183 Y-26.143 F600.000
G1 X69.562 Y-26.247 F600.000
G1 X69.944 Y-26.335 F600.000
G1 X70.717 Y-26.462 F600.000
G1 X71.498 Y-26.538 F600.000
G1 X71.888 Y-26.554 F600.000
G1 X72.279 Y-26.558 F600.000
G1 X72.669 Y-26.550 F600.000
G1 X73.060 Y-26.530 F600.000
G1 X73.450 Y-26.494 F600.000
G1 X73.841 Y-26.446 F600.000
G1 X74.227 Y-26.386 F600.000
G1 X74.614 Y-26.315 F600.000
G1 X74.992 Y-26.203 F600.000
G1 X75.359 Y-26.056 F600.000
G1 X75.669 Y-25.865 F600.000
G1 X75.837 Y-25.673 F600.000
G1 X75.865 Y-25.614 F600.000
G1 X75.801 Y-25.295 F600.000
G1 X75.801 Y-25.295 F600.000
G1 X75.757 Y-25.163 F600.000
G1 X75.697 Y-25.084 F600.000
G0 X75.673 Y-25.068
G0 X75.554 Y-25.036
G0 X66.602 Y-23.920
G1 X66.542 Y-23.912 F600.000
G1 X66.418 Y-23.908 F600.000
G1 X66.363 Y-23.936 F600.000
G1 X66.307 Y-24.016 F600.000
G1 X66.279 Y-24.147 F600.000
G1 X66.279 Y-24.147 F600.000
G1 X66.303 Y-24.566 F600.000
G1 X66.343 Y-24.745 F600.000
G1 X66.566 Y-25.108 F600.000
G1 X66.809 Y-25.382 F600.000
G1 X67.096 Y-25.649 F600.000
G1 X67.410 Y-25.884 F600.000
G1 X67.741 Y-26.092 F600.000
G1 X68.060 Y-26.255 F600.000
G1 X68.394 Y-26.406 F600.000
G1 X68.761 Y-26.546 F600.000
G1 X69.131 Y-26.669 F600.000
G1 X69.510 Y-26.777 F600.000
G1 X69.892 Y-26.869 F600.000
G1 X70.665 Y-27.004 F600.000
G1 X71.056 Y-27.048 F600.000
G1 X71.837 Y-27.100 F600.000
G1 X72.618 Y-27.104 F600.000
G1 X73.008 Y-27.092 F600.000
G1 X73.789 Y-27.028 F600.000
G1 X74.175 Y-26.960 F600.000
G1 X74.936 Y-26.761 F600.000
G1 X75.303 Y-26.614 F600.000
G1 X75.641 Y-26.410 F600.000
G1 X75.833 Y-26.239 F600.000
G1 X75.936 Y-26.076 F600.000
G1 X75.988 Y-25.956 F600.000
G1 X75.996 Y-25.892 F600.000
G1 X75.892 Y-25.645 F600.000
G1 X75.892 Y-25.645 F600.000
G1 X75.813 Y-25.530 F600.000
G1 X75.733 Y-25.466 F600.000
G0 X75.705 Y-25.454
G0 X75.582 Y-25.426
G0 X66.602 Y-24.430
G1 X66.542 Y-24.422 F600.000
G1 X66.418 Y-24.418 F600.000
G1 X66.363 Y-24.446 F600.000
G1 X66.307 Y-24.526 F600.000
G1 X66.279 Y-24.657 F600.000
G1 X66.279 Y-24.657 F600.000
G1 X66.299 Y-25.076 F600.000
G1 X66.339 Y-25.255 F600.000
G1 X66.482 Y-25.522 F600.000
G1 X66.789 Y-25.900 F600.000
G1 X67.068 Y-26.175 F600.000
G1 X67.382 Y-26.410 F600.000
G1 X67.697 Y-26.610 F600.000
G1 X67.992 Y-26.769 F600.000
G1 X68.323 Y-26.924 F600.000
G1 X68.685 Y-27.068 F600.000
G1 X69.056 Y-27.191 F600.000
G1 X69.430 Y-27.303 F600.000
G1 X69.809 Y-27.398 F600.000
G1 X70.195 Y-27.474 F600.000
G1 X70.582 Y-27.538 F600.000
G1 X70.972 Y-27.590 F600.000
G1 X71.753 Y-27.649 F600.000
G1 X72.143 Y-27.661 F600.000
G1 X72.924 Y-27.645 F600.000
G1 X73.315 Y-27.618 F600.000
G1 X73.705 Y-27.578 F600.000
G1 X74.478 Y-27.434 F600.000
G1 X74.857 Y-27.323 F600.000
G1 X75.223 Y-27.175 F600.000
G1 X75.562 Y-26.992 F600.000
G1 X75.809 Y-26.809 F600.000
G1 X75.984 Y-26.622 F600.000
G1 X76.112 Y-26.398 F600.000
G1 X76.171 Y-26.215 F600.000
G1 X76.175 Y-26.151 F600.000
G1 X76.028 Y-25.928 F600.000
G1 X76.028 Y-25.928 F600.000
G1 X75.928 Y-25.829 F600.000
G1 X75.841 Y-25.781 F600.000
G0 X75.809 Y-25.773
G0 X66.606 Y-24.928
G1 X66.542 Y-24.924 F600.000
G1 X66.418 Y-24.924 F600.000
G1 X66.363 Y-24.952 F600.000
G1 X66.307 Y-25.032 F600.000
G1 X66.279 Y-25.163 F600.000
G1 X66.279 Y-25.163 F600.000
G1 X66.287 Y-25.522 F600.000
G1 X66.343 Y-25.821 F600.000
G1 X66.454 Y-26.036 F600.000
G1 X66.801 Y-26.466 F600.000
G1 X67.088 Y-26.729 F600.000
G1 X67.402 Y-26.964 F600.000
G1 X67.733 Y-27.175 F600.000
G1 X68.044 Y-27.347 F600.000
G1 X68.402 Y-27.502 F600.000
G1 X68.769 Y-27.645 F600.000
G1 X69.139 Y-27.773 F600.000
G1 X69.518 Y-27.876 F600.000
G1 X69.900 Y-27.968 F600.000
G1 X70.673 Y-28.104 F600.000
G1 X71.454 Y-28.183 F600.000
G1 X72.235 Y-28.215 F600.000
G1 X72.625 Y-28.211 F600.000
G1 X73.016 Y-28.195 F600.000
G1 X73.406 Y-28.167 F600.000
G1 X74.183 Y-28.052 F600.000
G1 X74.566 Y-27.956 F600.000
G1 X74.940 Y-27.833 F600.000
G1 X75.303 Y-27.677 F600.000
G1 X75.633 Y-27.490 F600.000
G1 X75.896 Y-27.283 F600.000
G1 X76.076 Y-27.108 F600.000
G1 X76.231 Y-26.904 F600.000
G1 X76.351 Y-26.697 F600.000
G1 X76.398 Y-26.506 F600.000
G1 X76.402 Y-26.442 F600.000
G1 X76.394 Y-26.378 F600.000
G1 X76.363 Y-26.319 F600.000
G1 X76.219 Y-26.175 F600.000
G1 X76.219 Y-26.175 F600.000
G1 X76.068 Y-26.084 F600.000
G1 X76.004 Y-26.064 F600.000
G0 X75.972 Y-26.060
G0 X66.606 Y-25.494
G1 X66.542 Y-25.490 F600.000
G1 X66.418 Y-25.490 F600.000
G1 X66.363 Y-25.522 F600.000
G1 X66.307 Y-25.602 F600.000
G1 X66.279 Y-25.733 F600.000
G1 X66.279 Y-25.733 F600.000
G1 X66.307 Y-26.211 F600.000
G1 X66.347 Y-26.390 F600.000
G1 X66.498 Y-26.653 F600.000
G1 X66.817 Y-27.020 F600.000
G1 X67.104 Y-27.287 F600.000
G1 X67.418 Y-27.522 F600.000
G1 X67.749 Y-27.729 F600.000
G1 X68.088 Y-27.904 F600.000
G1 X68.414 Y-28.056 F600.000
G1 X68.781 Y-28.195 F600.000
G1 X69.151 Y-28.319 F600.000
G1 X69.530 Y-28.426 F600.000
G1 X69.912 Y-28.514 F600.000
G1 X70.295 Y-28.590 F600.000
G1 X71.072 Y-28.693 F600.000
G1 X71.462 Y-28.729 F600.000
G1 X71.853 Y-28.749 F600.000
G1 X72.243 Y-28.757 F600.000
G1 X72.633 Y-28.753 F600.000
G1 X73.024 Y-28.733 F600.000
G1 X73.414 Y-28.701 F600.000
G1 X73.805 Y-28.657 F600.000
G1 X74.191 Y-28.586 F600.000
G1 X74.574 Y-28.494 F600.000
G1 X74.948 Y-28.371 F600.000
G1 X75.311 Y-28.215 F600.000
G1 X75.653 Y-28.020 F600.000
G1 X75.924 Y-27.841 F600.000
G1 X76.211 Y-27.586 F600.000
G1 X76.394 Y-27.363 F600.000
G1 X76.514 Y-27.167 F600.000
G1 X76.610 Y-26.964 F600.000
G1 X76.645 Y-26.773 F600.000
G1 X76.645 Y-26.582 F600.000
G1 X76.618 Y-26.522 F600.000
G1 X76.454 Y-26.406 F600.000
G1 X76.454 Y-26.406 F600.000
G1 X76.327 Y-26.347 F600.000
G1 X76.227 Y-26.335 F600.000
G0 X76.195 Y-26.331
G0 X66.606 Y-26.060
G1 X66.542 Y-26.060 F600.000
G1 X66.418 Y-26.064 F600.000
G1 X66.363 Y-26.096 F600.000
G1 X66.307 Y-26.175 F600.000
G1 X66.279 Y-26.307 F600.000
G1 X66.279 Y-26.307 F600.000
G1 X66.303 Y-26.725 F600.000
G1 X66.363 Y-26.960 F600.000
G1 X66.633 Y-27.367 F600.000
G1 X66.793 Y-27.550 F600.000
G1 X67.080 Y-27.817 F600.000
G1 X67.390 Y-28.052 F600.000
G1 X67.721 Y-28.263 F600.000
G1 X68.052 Y-28.434 F600.000
G1 X68.386 Y-28.586 F600.000
G1 X68.753 Y-28.729 F600.000
G1 X69.124 Y-28.853 F600.000
G1 X69.502 Y-28.960 F600.000
G1 X69.884 Y-29.056 F600.000
G1 X70.657 Y-29.195 F600.000
G1 X71.048 Y-29.243 F600.000
G1 X71.438 Y-29.275 F600.000
G1 X72.219 Y-29.307 F600.000
G1 X72.610 Y-29.307 F600.000
G1 X73.000 Y-29.295 F600.000
G1 X73.781 Y-29.211 F600.000
G1 X74.167 Y-29.147 F600.000
G1 X74.546 Y-29.044 F600.000
G1 X74.920 Y-28.924 F600.000
G1 X75.283 Y-28.769 F600.000
G1 X75.633 Y-28.590 F600.000
G1 X75.972 Y-28.386 F600.000
G1 X76.279 Y-28.139 F600.000
G1 X76.486 Y-27.924 F600.000
G1 X76.645 Y-27.721 F600.000
G1 X76.789 Y-27.482 F600.000
G1 X76.892 Y-27.223 F600.000
G1 X76.928 Y-27.032 F600.000
G1 X76.928 Y-26.841 F600.000
G1 X76.920 Y-26.777 F600.000
G1 X76.896 Y-26.717 F600.000
G1 X76.849 Y-26.669 F600.000
G1 X76.681 Y-26.558 F600.000
G1 X76.681 Y-26.558 F600.000
G1 X76.554 Y-26.498 F600.000
G1 X76.454 Y-26.486 F600.000
G0 X76.422 Y-26.486
G0 X66.606 Y-26.554
G1 X66.546 Y-26.558 F600.000
G1 X66.418 Y-26.566 F600.000
G1 X66.363 Y-26.598 F600.000
G1 X66.307 Y-26.681 F600.000
G1 X66.279 Y-26.813 F600.000
G1 X66.279 Y-26.813 F600.000
G1 X66.299 Y-27.291 F600.000
G1 X66.363 Y-27.526 F600.000
G1 X66.598 Y-27.880 F600.000
G1 X66.801 Y-28.112 F600.000
G1 X67.096 Y-28.371 F600.000
G1 X67.410 Y-28.606 F600.000
G1 X67.741 Y-28.817 F600.000
G1 X68.088 Y-28.996 F600.000
G1 X68.438 Y-29.147 F600.000
G1 X68.805 Y-29.291 F600.000
G1 X69.175 Y-29.414 F600.000
G1 X69.554 Y-29.522 F600.000
G1 X69.936 Y-29.610 F600.000
G1 X70.319 Y-29.685 F600.000
G1 X71.096 Y-29.793 F600.000
G1 X71.486 Y-29.825 F600.000
G1 X71.876 Y-29.845 F600.000
G1 X72.267 Y-29.853 F600.000
G1 X72.657 Y-29.845 F600.000
G1 X73.048 Y-29.825 F600.000
G1 X73.438 Y-29.789 F600.000
G1 X73.829 Y-29.741 F600.000
G1 X74.215 Y-29.665 F600.000
G1 X74.598 Y-29.570 F600.000
G1 X74.968 Y-29.442 F600.000
G1 X75.335 Y-29.299 F600.000
G1 X75.689 Y-29.131 F600.000
G1 X76.024 Y-28.924 F600.000
G1 X76.323 Y-28.697 F600.000
G1 X76.570 Y-28.482 F600.000
G1 X76.829 Y-28.191 F600.000
G1 X77.000 Y-27.936 F600.000
G1 X77.116 Y-27.697 F600.000
G1 X77.195 Y-27.478 F600.000
G1 X77.231 Y-27.223 F600.000
G1 X77.227 Y-27.032 F600.000
G1 X77.215 Y-26.968 F600.000
G1 X77.187 Y-26.908 F600.000
G1 X76.972 Y-26.753 F600.000
G1 X76.972 Y-26.753 F600.000
G1 X76.845 Y-26.693 F600.000
G1 X76.745 Y-26.681 F600.000
G0 X76.713 Y-26.681
G0 X66.610 Y-27.120
G1 X66.546 Y-27.120 F600.000
G1 X66.418 Y-27.135 F600.000
G1 X66.363 Y-27.167 F600.000
G1 X66.307 Y-27.251 F600.000
G1 X66.279 Y-27.382 F600.000
G1 X66.279 Y-27.382 F600.000
G1 X66.307 Y-27.861 F600.000
G1 X66.355 Y-28.036 F600.000
G1 X66.618 Y-28.446 F600.000
G1 X66.781 Y-28.629 F600.000
G1 X67.068 Y-28.892 F600.000
G1 X67.378 Y-29.127 F600.000
G1 X67.709 Y-29.339 F600.000
G1 X68.056 Y-29.522 F600.000
G1 X68.406 Y-29.677 F600.000
G1 X68.773 Y-29.821 F600.000
G1 X69.143 Y-29.948 F600.000
G1 X69.518 Y-30.060 F600.000
G1 X69.900 Y-30.147 F600.000
G1 X70.673 Y-30.287 F600.000
G1 X71.064 Y-30.339 F600.000
G1 X71.845 Y-30.402 F600.000
G1 X72.235 Y-30.414 F600.000
G1 X72.625 Y-30.414 F600.000
G1 X73.406 Y-30.351 F600.000
G1 X73.797 Y-30.295 F600.000
G1 X74.183 Y-30.219 F600.000
G1 X74.566 Y-30.131 F600.000
G1 X74.940 Y-30.016 F600.000
G1 X75.307 Y-29.873 F600.000
G1 X75.665 Y-29.713 F600.000
G1 X76.012 Y-29.530 F600.000
G1 X76.335 Y-29.307 F600.000
G1 X76.614 Y-29.080 F600.000
G1 X76.873 Y-28.837 F600.000
G1 X77.131 Y-28.542 F600.000
G1 X77.331 Y-28.231 F600.000
G1 X77.438 Y-27.988 F600.000
G1 X77.514 Y-27.777 F600.000
G1 X77.566 Y-27.506 F600.000
G1 X77.550 Y-27.251 F600.000
G1 X77.538 Y-27.187 F600.000
G1 X77.510 Y-27.127 F600.000
G1 X77.462 Y-27.080 F600.000
G1 X77.239 Y-26.932 F600.000
G1 X77.239 Y-26.932 F600.000
G1 X77.112 Y-26.873 F600.000
G1 X77.012 Y-26.861 F600.000
G0 X76.980 Y-26.861
G0 X66.610 Y-27.622
G1 X66.546 Y-27.625 F600.000
G1 X66.418 Y-27.645 F600.000
G1 X66.363 Y-27.677 F600.000
G1 X66.307 Y-27.761 F600.000
G1 X66.279 Y-27.892 F600.000
G1 X66.279 Y-27.892 F600.000
G1 X66.287 Y-28.311 F600.000
G1 X66.331 Y-28.550 F600.000
G1 X66.482 Y-28.813 F600.000
G1 X66.753 Y-29.139 F600.000
G1 X67.036 Y-29.410 F600.000
G1 X67.347 Y-29.649 F600.000
G1 X67.677 Y-29.861 F600.000
G1 X68.000 Y-30.032 F600.000
G1 X68.335 Y-30.191 F600.000
G1 X68.697 Y-30.343 F600.000
G1 X69.068 Y-30.470 F600.000
G1 X69.446 Y-30.578 F600.000
G1 X69.825 Y-30.673 F600.000
G1 X70.207 Y-30.757 F600.000
G1 X70.594 Y-30.825 F600.000
G1 X70.980 Y-30.880 F600.000
G1 X71.371 Y-30.920 F600.000
G1 X71.761 Y-30.948 F600.000
G1 X72.151 Y-30.960 F600.000
G1 X72.542 Y-30.960 F600.000
G1 X72.932 Y-30.944 F600.000
G1 X73.323 Y-30.912 F600.000
G1 X73.713 Y-30.869 F600.000
G1 X74.100 Y-30.797 F600.000
G1 X74.482 Y-30.713 F600.000
G1 X74.857 Y-30.598 F600.000
G1 X75.227 Y-30.466 F600.000
G1 X75.590 Y-30.315 F600.000
G1 X75.944 Y-30.139 F600.000
G1 X76.287 Y-29.948 F600.000
G1 X76.610 Y-29.721 F600.000
G1 X76.912 Y-29.466 F600.000
G1 X77.175 Y-29.219 F600.000
G1 X77.422 Y-28.912 F600.000
G1 X77.602 Y-28.653 F600.000
G1 X77.765 Y-28.331 F600.000
G1 X77.849 Y-28.072 F600.000
G1 X77.896 Y-27.845 F600.000
G1 X77.896 Y-27.526 F600.000
G1 X77.873 Y-27.398 F600.000
G1 X77.833 Y-27.343 F600.000
G1 X77.558 Y-27.147 F600.000
G1 X77.558 Y-27.147 F600.000
G1 X77.398 Y-27.080 F600.000
G1 X77.331 Y-27.076 F600.000
G0 X77.299 Y-27.076
G0 X66.602 Y-28.183
G1 X66.534 Y-28.191 F600.000
G1 X66.406 Y-28.215 F600.000
G1 X66.351 Y-28.251 F600.000
G1 X66.295 Y-28.331 F600.000
G1 X66.267 Y-28.462 F600.000
G1 X66.267 Y-28.462 F600.000
G1 X66.267 Y-28.821 F600.000
G1 X66.311 Y-29.060 F600.000
G1 X66.494 Y-29.378 F600.000
G1 X66.769 Y-29.701 F600.000
G1 X67.052 Y-29.972 F600.000
G1 X67.363 Y-30.211 F600.000
G1 X67.693 Y-30.422 F600.000
G1 X68.032 Y-30.598 F600.000
G1 X68.343 Y-30.741 F600.000
G1 X68.705 Y-30.888 F600.000
G1 X69.076 Y-31.020 F600.000
G1 X69.833 Y-31.227 F600.000
G1 X70.215 Y-31.311 F600.000
G1 X70.602 Y-31.375 F600.000
G1 X71.382 Y-31.470 F600.000
G1 X71.773 Y-31.494 F600.000
G1 X72.163 Y-31.506 F600.000
G1 X72.554 Y-31.502 F600.000
G1 X72.944 Y-31.482 F600.000
G1 X73.335 Y-31.450 F600.000
G1 X73.725 Y-31.406 F600.000
G1 X74.112 Y-31.347 F600.000
G1 X74.494 Y-31.259 F600.000
G1 X74.873 Y-31.151 F600.000
G1 X75.247 Y-31.028 F600.000
G1 X75.614 Y-30.884 F600.000
G1 X75.972 Y-30.721 F600.000
G1 X76.315 Y-30.530 F600.000
G1 X76.649 Y-30.323 F600.000
G1 X76.960 Y-30.080 F600.000
G1 X77.251 Y-29.829 F600.000
G1 X77.530 Y-29.550 F600.000
G1 X77.769 Y-29.235 F600.000
G1 X77.940 Y-28.968 F600.000
G1 X78.088 Y-28.669 F600.000
G1 X78.191 Y-28.390 F600.000
G1 X78.255 Y-28.080 F600.000
G1 X78.251 Y-27.761 F600.000
G1 X78.235 Y-27.697 F600.000
G1 X78.207 Y-27.637 F600.000
G1 X78.004 Y-27.466 F600.000
G1 X77.948 Y-27.430 F600.000
G1 X77.948 Y-27.430 F600.000
G1 X77.825 Y-27.367 F600.000
G1 X77.725 Y-27.355 F600.000
G0 X77.693 Y-27.355
G0 X66.590 Y-28.693
G1 X66.522 Y-28.701 F600.000
G1 X66.394 Y-28.725 F600.000
G1 X66.335 Y-28.757 F600.000
G1 X66.279 Y-28.837 F600.000
G1 X66.247 Y-28.968 F600.000
G1 X66.247 Y-28.968 F600.000
G1 X66.251 Y-29.386 F600.000
G1 X66.287 Y-29.566 F600.000
G1 X66.363 Y-29.733 F600.000
G1 X66.689 Y-30.179 F600.000
G1 X66.968 Y-30.454 F600.000
G1 X67.275 Y-30.697 F600.000
G1 X67.602 Y-30.912 F600.000
G1 X67.900 Y-31.088 F600.000
G1 X68.251 Y-31.259 F600.000
G1 X68.614 Y-31.410 F600.000
G1 X68.984 Y-31.542 F600.000
G1 X69.359 Y-31.657 F600.000
G1 X69.737 Y-31.757 F600.000
G1 X70.506 Y-31.908 F600.000
G1 X71.287 Y-32.004 F600.000
G1 X71.677 Y-32.032 F600.000
G1 X72.068 Y-32.048 F600.000
G1 X72.458 Y-32.052 F600.000
G1 X72.849 Y-32.040 F600.000
G1 X73.239 Y-32.016 F600.000
G1 X73.629 Y-31.980 F600.000
G1 X74.402 Y-31.837 F600.000
G1 X74.785 Y-31.741 F600.000
G1 X75.159 Y-31.625 F600.000
G1 X75.530 Y-31.498 F600.000
G1 X75.888 Y-31.339 F600.000
G1 X76.243 Y-31.167 F600.000
G1 X76.586 Y-30.976 F600.000
G1 X76.916 Y-30.761 F600.000
G1 X77.227 Y-30.518 F600.000
G1 X77.526 Y-30.263 F600.000
G1 X77.797 Y-29.976 F600.000
G1 X78.044 Y-29.665 F600.000
G1 X78.239 Y-29.363 F600.000
G1 X78.394 Y-29.076 F600.000
G1 X78.534 Y-28.745 F600.000
G1 X78.618 Y-28.406 F600.000
G1 X78.614 Y-28.088 F600.000
G1 X78.606 Y-28.024 F600.000
G1 X78.578 Y-27.964 F600.000
G1 X78.283 Y-27.693 F600.000
G1 X78.283 Y-27.693 F600.000
G1 X78.159 Y-27.622 F600.000
G1 X78.060 Y-27.602 F600.000
G0 X78.028 Y-27.602
G0 X66.574 Y-29.191
G1 X66.506 Y-29.203 F600.000
G1 X66.375 Y-29.231 F600.000
G1 X66.315 Y-29.263 F600.000
G1 X66.259 Y-29.343 F600.000
G1 X66.227 Y-29.474 F600.000
G1 X66.227 Y-29.474 F600.000
G1 X66.211 Y-29.833 F600.000
G1 X66.235 Y-30.012 F600.000
G1 X66.359 Y-30.291 F600.000
G1 X66.610 Y-30.637 F600.000
G1 X66.884 Y-30.916 F600.000
G1 X67.183 Y-31.171 F600.000
G1 X67.502 Y-31.398 F600.000
G1 X67.805 Y-31.574 F600.000
G1 X68.108 Y-31.733 F600.000
G1 X68.462 Y-31.896 F600.000
G1 X68.829 Y-32.040 F600.000
G1 X69.203 Y-32.159 F600.000
G1 X69.582 Y-32.267 F600.000
G1 X70.351 Y-32.426 F600.000
G1 X70.737 Y-32.490 F600.000
G1 X71.127 Y-32.534 F600.000
G1 X71.518 Y-32.566 F600.000
G1 X72.299 Y-32.598 F600.000
G1 X72.689 Y-32.594 F600.000
G1 X73.080 Y-32.578 F600.000
G1 X73.470 Y-32.550 F600.000
G1 X73.861 Y-32.498 F600.000
G1 X74.247 Y-32.426 F600.000
G1 X74.629 Y-32.343 F600.000
G1 X75.008 Y-32.235 F600.000
G1 X75.382 Y-32.112 F600.000
G1 X75.749 Y-31.972 F600.000
G1 X76.108 Y-31.813 F600.000
G1 X76.458 Y-31.637 F600.000
G1 X76.801 Y-31.446 F600.000
G1 X77.135 Y-31.239 F600.000
G1 X77.749 Y-30.745 F600.000
G1 X78.020 Y-30.458 F600.000
G1 X78.247 Y-30.187 F600.000
G1 X78.478 Y-29.869 F600.000
G1 X78.677 Y-29.530 F600.000
G1 X78.841 Y-29.171 F600.000
G1 X78.940 Y-28.861 F600.000
G1 X78.972 Y-28.606 F600.000
G1 X78.968 Y-28.414 F600.000
G1 X78.956 Y-28.351 F600.000
G1 X78.932 Y-28.291 F600.000
G1 X78.645 Y-28.008 F600.000
G1 X78.645 Y-28.008 F600.000
G1 X78.522 Y-27.936 F600.000
G1 X78.422 Y-27.916 F600.000
G0 X78.390 Y-27.916
G0 X66.554 Y-29.641
G1 X66.486 Y-29.653 F600.000
G1 X66.355 Y-29.677 F600.000
G1 X66.267 Y-29.733 F600.000
G1 X66.199 Y-29.849 F600.000
G1 X66.183 Y-29.916 F600.000
G1 X66.183 Y-29.916 F600.000
G1 X66.151 Y-30.335 F600.000
G1 X66.175 Y-30.514 F600.000
G1 X66.303 Y-30.789 F600.000
G1 X66.550 Y-31.139 F600.000
G1 X66.817 Y-31.426 F600.000
G1 X67.112 Y-31.681 F600.000
G1 X67.422 Y-31.904 F600.000
G1 X67.709 Y-32.088 F600.000
G1 X68.056 Y-32.271 F600.000
G1 X68.414 Y-32.426 F600.000
G1 X68.781 Y-32.570 F600.000
G1 X69.151 Y-32.693 F600.000
G1 X69.530 Y-32.801 F600.000
G1 X70.295 Y-32.968 F600.000
G1 X71.072 Y-33.076 F600.000
G1 X71.462 Y-33.112 F600.000
G1 X72.243 Y-33.143 F600.000
G1 X72.633 Y-33.139 F600.000
G1 X73.024 Y-33.124 F600.000
G1 X73.414 Y-33.096 F600.000
G1 X73.805 Y-33.052 F600.000
G1 X74.195 Y-32.996 F600.000
G1 X74.960 Y-32.821 F600.000
G1 X75.335 Y-32.697 F600.000
G1 X75.705 Y-32.562 F600.000
G1 X76.068 Y-32.410 F600.000
G1 X76.426 Y-32.247 F600.000
G1 X76.773 Y-32.064 F600.000
G1 X77.116 Y-31.869 F600.000
G1 X77.442 Y-31.649 F600.000
G1 X77.749 Y-31.402 F600.000
G1 X78.048 Y-31.143 F600.000
G1 X78.327 Y-30.865 F600.000
G1 X78.586 Y-30.566 F600.000
G1 X78.817 Y-30.243 F600.000
G1 X79.020 Y-29.908 F600.000
G1 X79.187 Y-29.554 F600.000
G1 X79.287 Y-29.219 F600.000
G1 X79.323 Y-28.900 F600.000
G1 X79.323 Y-28.773 F600.000
G1 X79.311 Y-28.709 F600.000
G1 X79.283 Y-28.649 F600.000
G1 X78.956 Y-28.311 F600.000
G1 X78.956 Y-28.311 F600.000
G1 X78.845 Y-28.227 F600.000
G1 X78.749 Y-28.199 F600.000
G0 X78.717 Y-28.195
G0 X66.490 Y-30.139
G1 X66.418 Y-30.151 F600.000
G1 X66.287 Y-30.179 F600.000
G1 X66.199 Y-30.235 F600.000
G1 X66.131 Y-30.351 F600.000
G1 X66.116 Y-30.418 F600.000
G1 X66.116 Y-30.418 F600.000
G1 X66.084 Y-30.837 F600.000
G1 X66.108 Y-31.016 F600.000
G1 X66.175 Y-31.187 F600.000
G1 X66.438 Y-31.594 F600.000
G1 X66.697 Y-31.888 F600.000
G1 X66.988 Y-32.151 F600.000
G1 X67.299 Y-32.386 F600.000
G1 X67.594 Y-32.574 F600.000
G1 X67.896 Y-32.741 F600.000
G1 X68.251 Y-32.908 F600.000
G1 X68.614 Y-33.060 F600.000
G1 X68.984 Y-33.191 F600.000
G1 X69.363 Y-33.299 F600.000
G1 X69.741 Y-33.394 F600.000
G1 X70.124 Y-33.478 F600.000
G1 X70.510 Y-33.550 F600.000
G1 X70.896 Y-33.606 F600.000
G1 X71.287 Y-33.649 F600.000
G1 X71.677 Y-33.681 F600.000
G1 X72.068 Y-33.697 F600.000
G1 X72.458 Y-33.701 F600.000
G1 X72.849 Y-33.693 F600.000
G1 X73.239 Y-33.669 F600.000
G1 X73.629 Y-33.633 F600.000
G1 X74.020 Y-33.586 F600.000
G1 X74.406 Y-33.522 F600.000
G1 X75.167 Y-33.331 F600.000
G1 X75.542 Y-33.215 F600.000
G1 X75.912 Y-33.080 F600.000
G1 X76.275 Y-32.928 F600.000
G1 X76.629 Y-32.761 F600.000
G1 X76.976 Y-32.578 F600.000
G1 X77.311 Y-32.375 F600.000
G1 X77.637 Y-32.155 F600.000
G1 X77.956 Y-31.920 F600.000
G1 X78.259 Y-31.669 F600.000
G1 X78.534 Y-31.386 F600.000
G1 X78.793 Y-31.100 F600.000
G1 X79.036 Y-30.789 F600.000
G1 X79.255 Y-30.462 F600.000
G1 X79.446 Y-30.116 F600.000
G1 X79.590 Y-29.757 F600.000
G1 X79.673 Y-29.454 F600.000
G1 X79.685 Y-29.135 F600.000
G1 X79.673 Y-29.072 F600.000
G1 X79.641 Y-29.012 F600.000
G1 X79.363 Y-28.725 F600.000
G1 X79.363 Y-28.725 F600.000
G1 X79.211 Y-28.633 F600.000
G1 X79.147 Y-28.618 F600.000
G0 X79.116 Y-28.614
G0 X66.426 Y-30.649
G1 X66.355 Y-30.661 F600.000
G1 X66.223 Y-30.689 F600.000
G1 X66.135 Y-30.745 F600.000
G1 X66.048 Y-30.924 F600.000
G1 X66.048 Y-30.924 F600.000
G1 X66.012 Y-31.343 F600.000
G1 X66.028 Y-31.462 F600.000
G1 X66.199 Y-31.849 F600.000
G1 X66.335 Y-32.052 F600.000
G1 X66.590 Y-32.351 F600.000
G1 X66.873 Y-32.622 F600.000
G1 X67.179 Y-32.865 F600.000
G1 X67.454 Y-33.056 F600.000
G1 X67.797 Y-33.247 F600.000
G1 X68.139 Y-33.418 F600.000
G1 X68.498 Y-33.574 F600.000
G1 X68.869 Y-33.705 F600.000
G1 X69.243 Y-33.825 F600.000
G1 X69.622 Y-33.928 F600.000
G1 X70.004 Y-34.016 F600.000
G1 X70.390 Y-34.084 F600.000
G1 X71.167 Y-34.187 F600.000
G1 X71.558 Y-34.227 F600.000
G1 X72.339 Y-34.267 F600.000
G1 X73.120 Y-34.235 F600.000
G1 X73.510 Y-34.207 F600.000
G1 X74.291 Y-34.104 F600.000
G1 X74.677 Y-34.024 F600.000
G1 X75.060 Y-33.932 F600.000
G1 X75.438 Y-33.829 F600.000
G1 X75.813 Y-33.705 F600.000
G1 X76.183 Y-33.570 F600.000
G1 X76.546 Y-33.418 F600.000
G1 X76.896 Y-33.243 F600.000
G1 X77.243 Y-33.056 F600.000
G1 X77.582 Y-32.853 F600.000
G1 X77.908 Y-32.629 F600.000
G1 X78.223 Y-32.394 F600.000
G1 X78.518 Y-32.131 F600.000
G1 X78.801 Y-31.857 F600.000
G1 X79.068 Y-31.566 F600.000
G1 X79.315 Y-31.259 F600.000
G1 X79.546 Y-30.940 F600.000
G1 X79.741 Y-30.598 F600.000
G1 X79.896 Y-30.259 F600.000
G1 X80.004 Y-29.924 F600.000
G1 X80.036 Y-29.669 F600.000
G1 X80.036 Y-29.542 F600.000
G1 X80.024 Y-29.478 F600.000
G1 X80.000 Y-29.418 F600.000
G1 X79.737 Y-29.108 F600.000
G1 X79.737 Y-29.108 F600.000
G1 X79.586 Y-29.016 F600.000
G1 X79.522 Y-29.000 F600.000
G0 X79.490 Y-28.996
G0 X66.367 Y-31.096
G1 X66.291 Y-31.108 F600.000
G1 X66.124 Y-31.147 F600.000
G1 X66.044 Y-31.211 F600.000
G1 X65.964 Y-31.359 F600.000
G1 X65.964 Y-31.359 F600.000
G1 X65.908 Y-31.657 F600.000
G1 X65.908 Y-31.837 F600.000
G1 X65.976 Y-32.068 F600.000
G1 X66.179 Y-32.446 F600.000
G1 X66.450 Y-32.809 F600.000
G1 X66.729 Y-33.084 F600.000
G1 X67.008 Y-33.311 F600.000
G1 X67.271 Y-33.494 F600.000
G1 X67.554 Y-33.669 F600.000
G1 X67.900 Y-33.857 F600.000
G1 X68.255 Y-34.020 F600.000
G1 X68.622 Y-34.163 F600.000
G1 X68.992 Y-34.295 F600.000
G1 X69.367 Y-34.406 F600.000
G1 X70.131 Y-34.586 F600.000
G1 X70.518 Y-34.657 F600.000
G1 X70.904 Y-34.713 F600.000
G1 X71.295 Y-34.757 F600.000
G1 X71.685 Y-34.789 F600.000
G1 X72.076 Y-34.805 F600.000
G1 X72.466 Y-34.809 F600.000
G1 X72.857 Y-34.797 F600.000
G1 X73.247 Y-34.773 F600.000
G1 X73.637 Y-34.737 F600.000
G1 X74.028 Y-34.685 F600.000
G1 X74.414 Y-34.622 F600.000
G1 X74.801 Y-34.542 F600.000
G1 X75.183 Y-34.450 F600.000
G1 X75.562 Y-34.347 F600.000
G1 X75.936 Y-34.227 F600.000
G1 X76.307 Y-34.096 F600.000
G1 X76.673 Y-33.952 F600.000
G1 X77.378 Y-33.602 F600.000
G1 X77.721 Y-33.406 F600.000
G1 X78.052 Y-33.195 F600.000
G1 X78.665 Y-32.701 F600.000
G1 X78.956 Y-32.434 F600.000
G1 X79.235 Y-32.155 F600.000
G1 X79.498 Y-31.861 F600.000
G1 X79.960 Y-31.223 F600.000
G1 X80.143 Y-30.873 F600.000
G1 X80.279 Y-30.542 F600.000
G1 X80.367 Y-30.032 F600.000
G1 X80.371 Y-29.968 F600.000
G1 X80.343 Y-29.841 F600.000
G1 X80.048 Y-29.474 F600.000
G1 X80.048 Y-29.474 F600.000
G1 X79.940 Y-29.386 F600.000
G1 X79.849 Y-29.351 F600.000
G0 X79.817 Y-29.347
G0 X66.275 Y-31.470
G1 X66.203 Y-31.482 F600.000
G1 X66.032 Y-31.522 F600.000
G1 X65.952 Y-31.582 F600.000
G1 X65.869 Y-31.725 F600.000
G1 X65.869 Y-31.725 F600.000
G1 X65.789 Y-32.143 F600.000
G1 X65.785 Y-32.263 F600.000
G1 X65.873 Y-32.558 F600.000
G1 X66.036 Y-32.880 F600.000
G1 X66.267 Y-33.195 F600.000
G1 X66.534 Y-33.482 F600.000
G1 X66.801 Y-33.721 F600.000
G1 X67.056 Y-33.924 F600.000
G1 X67.386 Y-34.135 F600.000
G1 X67.701 Y-34.311 F600.000
G1 X68.052 Y-34.486 F600.000
G1 X68.410 Y-34.641 F600.000
G1 X69.151 Y-34.896 F600.000
G1 X69.530 Y-35.004 F600.000
G1 X69.912 Y-35.096 F600.000
G1 X70.295 Y-35.175 F600.000
G1 X70.681 Y-35.239 F600.000
G1 X71.072 Y-35.287 F600.000
G1 X71.462 Y-35.319 F600.000
G1 X72.243 Y-35.351 F600.000
G1 X72.633 Y-35.347 F600.000
G1 X73.024 Y-35.331 F600.000
G1 X73.414 Y-35.303 F600.000
G1 X73.805 Y-35.263 F600.000
G1 X74.195 Y-35.211 F600.000
G1 X74.582 Y-35.147 F600.000
G1 X74.968 Y-35.068 F600.000
G1 X75.351 Y-34.976 F600.000
G1 X75.729 Y-34.873 F600.000
G1 X76.104 Y-34.757 F600.000
G1 X76.837 Y-34.470 F600.000
G1 X77.195 Y-34.307 F600.000
G1 X77.546 Y-34.127 F600.000
G1 X77.888 Y-33.936 F600.000
G1 X78.223 Y-33.729 F600.000
G1 X78.849 Y-33.247 F600.000
G1 X79.143 Y-32.984 F600.000
G1 X79.426 Y-32.713 F600.000
G1 X79.697 Y-32.426 F600.000
G1 X79.952 Y-32.127 F600.000
G1 X80.175 Y-31.801 F600.000
G1 X80.378 Y-31.462 F600.000
G1 X80.546 Y-31.104 F600.000
G1 X80.673 Y-30.769 F600.000
G1 X80.713 Y-30.450 F600.000
G1 X80.705 Y-30.386 F600.000
G1 X80.681 Y-30.323 F600.000
G1 X80.410 Y-29.936 F600.000
G1 X80.410 Y-29.936 F600.000
G1 X80.311 Y-29.837 F600.000
G1 X80.223 Y-29.793 F600.000
G0 X80.191 Y-29.785
G0 X80.064 Y-29.793
G0 X66.183 Y-31.916
G1 X66.108 Y-31.928 F600.000
G1 X65.936 Y-31.968 F600.000
G1 X65.825 Y-32.044 F600.000
G1 X65.745 Y-32.151 F600.000
G1 X65.745 Y-32.151 F600.000
G1 X65.641 Y-32.510 F600.000
G1 X65.629 Y-32.629 F600.000
G1 X65.661 Y-32.809 F600.000
G1 X65.857 Y-33.259 F600.000
G1 X66.072 Y-33.586 F600.000
G1 X66.327 Y-33.880 F600.000
G1 X66.562 Y-34.112 F600.000
G1 X66.809 Y-34.323 F600.000
G1 X67.127 Y-34.542 F600.000
G1 X67.422 Y-34.725 F600.000
G1 X67.769 Y-34.908 F600.000
G1 X68.124 Y-35.076 F600.000
G1 X68.482 Y-35.231 F600.000
G1 X69.227 Y-35.478 F600.000
G1 X69.988 Y-35.669 F600.000
G1 X70.375 Y-35.745 F600.000
G1 X70.761 Y-35.805 F600.000
G1 X71.151 Y-35.849 F600.000
G1 X71.542 Y-35.876 F600.000
G1 X72.323 Y-35.900 F600.000
G1 X73.104 Y-35.876 F600.000
G1 X73.494 Y-35.849 F600.000
G1 X74.275 Y-35.761 F600.000
G1 X74.661 Y-35.701 F600.000
G1 X75.048 Y-35.629 F600.000
G1 X75.809 Y-35.438 F600.000
G1 X76.183 Y-35.323 F600.000
G1 X76.554 Y-35.191 F600.000
G1 X77.275 Y-34.873 F600.000
G1 X77.629 Y-34.697 F600.000
G1 X77.972 Y-34.502 F600.000
G1 X78.307 Y-34.295 F600.000
G1 X78.633 Y-34.076 F600.000
G1 X78.952 Y-33.841 F600.000
G1 X79.259 Y-33.594 F600.000
G1 X79.558 Y-33.335 F600.000
G1 X79.833 Y-33.052 F600.000
G1 X80.100 Y-32.761 F600.000
G1 X80.351 Y-32.458 F600.000
G1 X80.570 Y-32.127 F600.000
G1 X80.765 Y-31.785 F600.000
G1 X80.928 Y-31.422 F600.000
G1 X81.020 Y-30.976 F600.000
G1 X81.004 Y-30.849 F600.000
G1 X80.805 Y-30.502 F600.000
G1 X80.729 Y-30.394 F600.000
G1 X80.729 Y-30.394 F600.000
G1 X80.629 Y-30.295 F600.000
G1 X80.542 Y-30.251 F600.000
G0 X80.510 Y-30.243
G0 X80.382 Y-30.247
G0 X66.048 Y-32.275
G1 X65.968 Y-32.287 F600.000
G1 X65.797 Y-32.323 F600.000
G1 X65.685 Y-32.398 F600.000
G1 X65.606 Y-32.506 F600.000
G1 X65.606 Y-32.506 F600.000
G1 X65.482 Y-32.865 F600.000
G1 X65.454 Y-33.044 F600.000
G1 X65.486 Y-33.223 F600.000
G1 X65.645 Y-33.622 F600.000
G1 X65.849 Y-33.956 F600.000
G1 X66.092 Y-34.263 F600.000
G1 X66.335 Y-34.518 F600.000
G1 X66.566 Y-34.721 F600.000
G1 X66.837 Y-34.932 F600.000
G1 X67.163 Y-35.151 F600.000
G1 X67.502 Y-35.347 F600.000
G1 X67.857 Y-35.518 F600.000
G1 X68.215 Y-35.677 F600.000
G1 X68.578 Y-35.821 F600.000
G1 X68.948 Y-35.948 F600.000
G1 X69.323 Y-36.060 F600.000
G1 X69.701 Y-36.155 F600.000
G1 X70.470 Y-36.307 F600.000
G1 X70.861 Y-36.359 F600.000
G1 X71.251 Y-36.398 F600.000
G1 X72.032 Y-36.446 F600.000
G1 X72.422 Y-36.454 F600.000
G1 X73.203 Y-36.438 F600.000
G1 X73.594 Y-36.414 F600.000
G1 X73.984 Y-36.378 F600.000
G1 X75.143 Y-36.179 F600.000
G1 X75.904 Y-35.984 F600.000
G1 X76.283 Y-35.873 F600.000
G1 X76.653 Y-35.745 F600.000
G1 X77.382 Y-35.442 F600.000
G1 X77.737 Y-35.271 F600.000
G1 X78.084 Y-35.084 F600.000
G1 X78.422 Y-34.880 F600.000
G1 X78.753 Y-34.665 F600.000
G1 X79.072 Y-34.434 F600.000
G1 X79.382 Y-34.191 F600.000
G1 X79.681 Y-33.932 F600.000
G1 X79.968 Y-33.661 F600.000
G1 X80.243 Y-33.378 F600.000
G1 X80.506 Y-33.084 F600.000
G1 X80.968 Y-32.442 F600.000
G1 X81.155 Y-32.092 F600.000
G1 X81.307 Y-31.522 F600.000
G1 X81.299 Y-31.394 F600.000
G1 X81.283 Y-31.331 F600.000
G1 X81.056 Y-30.932 F600.000
G1 X81.056 Y-30.932 F600.000
G1 X80.964 Y-30.825 F600.000
G1 X80.880 Y-30.773 F600.000
G0 X80.849 Y-30.765
G0 X80.725 Y-30.769
G0 X65.869 Y-32.765
G1 X65.793 Y-32.777 F600.000
G1 X65.582 Y-32.821 F600.000
G1 X65.470 Y-32.896 F600.000
G1 X65.406 Y-32.972 F600.000
G1 X65.406 Y-32.972 F600.000
G1 X65.311 Y-33.199 F600.000
G1 X65.275 Y-33.378 F600.000
G1 X65.307 Y-33.618 F600.000
G1 X65.422 Y-33.964 F600.000
G1 X65.610 Y-34.307 F600.000
G1 X65.841 Y-34.625 F600.000
G1 X66.060 Y-34.865 F600.000
G1 X66.255 Y-35.052 F600.000
G1 X66.518 Y-35.279 F600.000
G1 X66.833 Y-35.514 F600.000
G1 X67.163 Y-35.721 F600.000
G1 X67.502 Y-35.916 F600.000
G1 X67.853 Y-36.092 F600.000
G1 X68.578 Y-36.386 F600.000
G1 X69.327 Y-36.618 F600.000
G1 X69.709 Y-36.709 F600.000
G1 X70.482 Y-36.857 F600.000
G1 X70.869 Y-36.912 F600.000
G1 X71.649 Y-36.984 F600.000
G1 X72.430 Y-37.016 F600.000
G1 X72.821 Y-37.016 F600.000
G1 X73.211 Y-37.004 F600.000
G1 X73.992 Y-36.928 F600.000
G1 X74.769 Y-36.813 F600.000
G1 X75.155 Y-36.737 F600.000
G1 X75.920 Y-36.554 F600.000
G1 X76.299 Y-36.446 F600.000
G1 X76.673 Y-36.327 F600.000
G1 X77.402 Y-36.036 F600.000
G1 X77.761 Y-35.873 F600.000
G1 X78.112 Y-35.693 F600.000
G1 X78.454 Y-35.502 F600.000
G1 X78.789 Y-35.299 F600.000
G1 X79.116 Y-35.080 F600.000
G1 X79.434 Y-34.849 F600.000
G1 X79.745 Y-34.606 F600.000
G1 X80.040 Y-34.343 F600.000
G1 X80.327 Y-34.072 F600.000
G1 X80.598 Y-33.785 F600.000
G1 X80.853 Y-33.486 F600.000
G1 X81.096 Y-33.175 F600.000
G1 X81.307 Y-32.841 F600.000
G1 X81.482 Y-32.486 F600.000
G1 X81.582 Y-32.104 F600.000
G1 X81.570 Y-31.976 F600.000
G1 X81.331 Y-31.438 F600.000
G1 X81.331 Y-31.438 F600.000
G1 X81.247 Y-31.327 F600.000
G1 X81.163 Y-31.271 F600.000
G0 X81.135 Y-31.263
G0 X81.012 Y-31.259
G0 X65.721 Y-33.048
G1 X65.641 Y-33.060 F600.000
G1 X65.430 Y-33.100 F600.000
G1 X65.319 Y-33.175 F600.000
G1 X65.255 Y-33.251 F600.000
G1 X65.255 Y-33.251 F600.000
G1 X65.096 Y-33.594 F600.000
G1 X65.072 Y-33.713 F600.000
G1 X65.092 Y-33.952 F600.000
G1 X65.199 Y-34.307 F600.000
G1 X65.375 Y-34.657 F600.000
G1 X65.594 Y-34.984 F600.000
G1 X65.793 Y-35.227 F600.000
G1 X65.996 Y-35.442 F600.000
G1 X66.263 Y-35.685 F600.000
G1 X66.570 Y-35.928 F600.000
G1 X66.892 Y-36.151 F600.000
G1 X67.231 Y-36.347 F600.000
G1 X67.578 Y-36.530 F600.000
G1 X67.932 Y-36.697 F600.000
G1 X68.295 Y-36.849 F600.000
G1 X68.665 Y-36.980 F600.000
G1 X69.418 Y-37.199 F600.000
G1 X69.801 Y-37.291 F600.000
G1 X70.187 Y-37.367 F600.000
G1 X70.574 Y-37.430 F600.000
G1 X71.355 Y-37.522 F600.000
G1 X71.745 Y-37.550 F600.000
G1 X72.526 Y-37.574 F600.000
G1 X72.916 Y-37.570 F600.000
G1 X73.307 Y-37.554 F600.000
G1 X73.697 Y-37.526 F600.000
G1 X74.088 Y-37.486 F600.000
G1 X74.865 Y-37.375 F600.000
G1 X75.251 Y-37.303 F600.000
G1 X75.633 Y-37.219 F600.000
G1 X76.016 Y-37.124 F600.000
G1 X76.394 Y-37.016 F600.000
G1 X77.131 Y-36.745 F600.000
G1 X77.853 Y-36.430 F600.000
G1 X78.554 Y-36.072 F600.000
G1 X78.896 Y-35.876 F600.000
G1 X79.231 Y-35.669 F600.000
G1 X79.554 Y-35.442 F600.000
G1 X79.865 Y-35.199 F600.000
G1 X80.167 Y-34.944 F600.000
G1 X80.458 Y-34.681 F600.000
G1 X80.737 Y-34.402 F600.000
G1 X81.004 Y-34.112 F600.000
G1 X81.259 Y-33.813 F600.000
G1 X81.490 Y-33.490 F600.000
G1 X81.689 Y-33.147 F600.000
G1 X81.809 Y-32.777 F600.000
G1 X81.821 Y-32.713 F600.000
G1 X81.817 Y-32.586 F600.000
G1 X81.622 Y-32.092 F600.000
G1 X81.622 Y-32.088 F600.000
G1 X81.538 Y-31.976 F600.000
G1 X81.454 Y-31.920 F600.000
G0 X81.426 Y-31.912
G0 X81.303 Y-31.908
G0 X65.550 Y-33.410
G1 X65.466 Y-33.418 F600.000
G1 X65.219 Y-33.462 F600.000
G1 X65.060 Y-33.578 F600.000
G1 X65.060 Y-33.578 F600.000
G1 X64.956 Y-33.733 F600.000
G1 X64.876 Y-33.904 F600.000
G1 X64.849 Y-34.084 F600.000
G1 X64.892 Y-34.442 F600.000
G1 X64.944 Y-34.622 F600.000
G1 X65.104 Y-34.980 F600.000
G1 X65.307 Y-35.315 F600.000
G1 X65.502 Y-35.574 F600.000
G1 X65.697 Y-35.801 F600.000
G1 X65.956 Y-36.056 F600.000
G1 X66.251 Y-36.307 F600.000
G1 X66.570 Y-36.534 F600.000
G1 X66.900 Y-36.745 F600.000
G1 X67.239 Y-36.940 F600.000
G1 X67.590 Y-37.116 F600.000
G1 X68.311 Y-37.418 F600.000
G1 X68.681 Y-37.550 F600.000
G1 X69.056 Y-37.661 F600.000
G1 X69.434 Y-37.761 F600.000
G1 X70.199 Y-37.920 F600.000
G1 X70.586 Y-37.988 F600.000
G1 X71.367 Y-38.084 F600.000
G1 X71.757 Y-38.116 F600.000
G1 X72.538 Y-38.139 F600.000
G1 X72.928 Y-38.135 F600.000
G1 X73.319 Y-38.120 F600.000
G1 X73.709 Y-38.092 F600.000
G1 X74.100 Y-38.052 F600.000
G1 X74.490 Y-38.000 F600.000
G1 X75.263 Y-37.869 F600.000
G1 X75.645 Y-37.789 F600.000
G1 X76.028 Y-37.697 F600.000
G1 X76.781 Y-37.470 F600.000
G1 X77.151 Y-37.343 F600.000
G1 X77.518 Y-37.199 F600.000
G1 X77.880 Y-37.044 F600.000
G1 X78.239 Y-36.876 F600.000
G1 X78.936 Y-36.510 F600.000
G1 X79.275 Y-36.311 F600.000
G1 X79.916 Y-35.853 F600.000
G1 X80.522 Y-35.351 F600.000
G1 X80.809 Y-35.084 F600.000
G1 X81.088 Y-34.805 F600.000
G1 X81.359 Y-34.518 F600.000
G1 X81.606 Y-34.211 F600.000
G1 X81.829 Y-33.884 F600.000
G1 X82.024 Y-33.402 F600.000
G1 X82.040 Y-33.275 F600.000
G1 X82.032 Y-33.211 F600.000
G1 X81.837 Y-32.637 F600.000
G1 X81.837 Y-32.637 F600.000
G1 X81.765 Y-32.518 F600.000
G1 X81.685 Y-32.454 F600.000
G0 X81.657 Y-32.442
G0 X81.534 Y-32.434
G0 X65.331 Y-33.717
G1 X65.247 Y-33.725 F600.000
G1 X65.000 Y-33.769 F600.000
G1 X64.841 Y-33.884 F600.000
G1 X64.841 Y-33.884 F600.000
G1 X64.673 Y-34.155 F600.000
G1 X64.610 Y-34.331 F600.000
G1 X64.610 Y-34.629 F600.000
G1 X64.673 Y-34.928 F600.000
G1 X64.809 Y-35.295 F600.000
G1 X65.000 Y-35.637 F600.000
G1 X65.191 Y-35.912 F600.000
G1 X65.378 Y-36.139 F600.000
G1 X65.598 Y-36.371 F600.000
G1 X65.884 Y-36.637 F600.000
G1 X66.187 Y-36.884 F600.000
G1 X66.506 Y-37.112 F600.000
G1 X66.841 Y-37.315 F600.000
G1 X67.538 Y-37.673 F600.000
G1 X67.896 Y-37.833 F600.000
G1 X68.263 Y-37.976 F600.000
G1 X68.633 Y-38.104 F600.000
G1 X69.008 Y-38.215 F600.000
G1 X69.386 Y-38.315 F600.000
G1 X70.542 Y-38.546 F600.000
G1 X71.323 Y-38.649 F600.000
G1 X71.713 Y-38.689 F600.000
G1 X72.104 Y-38.713 F600.000
G1 X73.275 Y-38.693 F600.000
G1 X74.056 Y-38.629 F600.000
G1 X74.837 Y-38.526 F600.000
G1 X75.223 Y-38.458 F600.000
G1 X75.992 Y-38.291 F600.000
G1 X76.749 Y-38.084 F600.000
G1 X77.124 Y-37.964 F600.000
G1 X77.853 Y-37.665 F600.000
G1 X78.566 Y-37.331 F600.000
G1 X79.255 Y-36.956 F600.000
G1 X79.912 Y-36.526 F600.000
G1 X80.231 Y-36.295 F600.000
G1 X80.837 Y-35.793 F600.000
G1 X81.127 Y-35.526 F600.000
G1 X81.406 Y-35.247 F600.000
G1 X81.677 Y-34.960 F600.000
G1 X81.920 Y-34.649 F600.000
G1 X82.195 Y-34.064 F600.000
G1 X82.211 Y-34.000 F600.000
G1 X82.215 Y-33.936 F600.000
G1 X82.056 Y-33.299 F600.000
G1 X82.056 Y-33.299 F600.000
G1 X81.992 Y-33.175 F600.000
G1 X81.920 Y-33.104 F600.000
G0 X81.888 Y-33.092
G0 X81.769 Y-33.084
G0 X65.112 Y-34.036
G1 X65.028 Y-34.040 F600.000
G1 X64.809 Y-34.068 F600.000
G1 X64.689 Y-34.127 F600.000
G1 X64.618 Y-34.195 F600.000
G1 X64.618 Y-34.195 F600.000
G1 X64.402 Y-34.506 F600.000
G1 X64.363 Y-34.622 F600.000
G1 X64.355 Y-34.980 F600.000
G1 X64.394 Y-35.219 F600.000
G1 X64.518 Y-35.590 F600.000
G1 X64.689 Y-35.940 F600.000
G1 X64.857 Y-36.207 F600.000
G1 X65.028 Y-36.442 F600.000
G1 X65.255 Y-36.705 F600.000
G1 X65.522 Y-36.972 F600.000
G1 X65.817 Y-37.231 F600.000
G1 X66.454 Y-37.685 F600.000
G1 X66.789 Y-37.888 F600.000
G1 X67.131 Y-38.076 F600.000
G1 X67.486 Y-38.243 F600.000
G1 X68.215 Y-38.538 F600.000
G1 X68.964 Y-38.773 F600.000
G1 X69.343 Y-38.873 F600.000
G1 X70.108 Y-39.036 F600.000
G1 X70.494 Y-39.108 F600.000
G1 X71.271 Y-39.215 F600.000
G1 X71.661 Y-39.255 F600.000
G1 X72.442 Y-39.279 F600.000
G1 X72.833 Y-39.275 F600.000
G1 X74.004 Y-39.207 F600.000
G1 X74.785 Y-39.116 F600.000
G1 X75.558 Y-38.964 F600.000
G1 X76.323 Y-38.789 F600.000
G1 X76.701 Y-38.685 F600.000
G1 X77.076 Y-38.566 F600.000
G1 X77.809 Y-38.287 F600.000
G1 X78.526 Y-37.964 F600.000
G1 X78.876 Y-37.789 F600.000
G1 X79.566 Y-37.406 F600.000
G1 X80.231 Y-36.984 F600.000
G1 X80.853 Y-36.502 F600.000
G1 X81.151 Y-36.243 F600.000
G1 X81.438 Y-35.972 F600.000
G1 X81.717 Y-35.689 F600.000
G1 X81.980 Y-35.394 F600.000
G1 X82.319 Y-34.773 F600.000
G1 X82.347 Y-34.645 F600.000
G1 X82.263 Y-34.072 F600.000
G1 X82.227 Y-33.944 F600.000
G1 X82.227 Y-33.944 F600.000
G1 X82.163 Y-33.821 F600.000
G1 X82.092 Y-33.749 F600.000
G0 X82.060 Y-33.737
G0 X81.940 Y-33.725
G0 X64.873 Y-34.363
G1 X64.789 Y-34.367 F600.000
G1 X64.506 Y-34.398 F600.000
G1 X64.363 Y-34.478 F600.000
G1 X64.363 Y-34.478 F600.000
G1 X64.163 Y-34.721 F600.000
G1 X64.108 Y-34.837 F600.000
G1 X64.072 Y-35.135 F600.000
G1 X64.104 Y-35.494 F600.000
G1 X64.211 Y-35.873 F600.000
G1 X64.367 Y-36.231 F600.000
G1 X64.510 Y-36.486 F600.000
G1 X64.661 Y-36.713 F600.000
G1 X64.865 Y-36.972 F600.000
G1 X65.131 Y-37.259 F600.000
G1 X65.414 Y-37.530 F600.000
G1 X65.713 Y-37.785 F600.000
G1 X66.032 Y-38.016 F600.000
G1 X66.355 Y-38.235 F600.000
G1 X67.036 Y-38.618 F600.000
G1 X67.749 Y-38.936 F600.000
G1 X68.116 Y-39.076 F600.000
G1 X68.486 Y-39.203 F600.000
G1 X69.239 Y-39.422 F600.000
G1 X69.622 Y-39.514 F600.000
G1 X70.004 Y-39.594 F600.000
G1 X70.390 Y-39.661 F600.000
G1 X71.171 Y-39.765 F600.000
G1 X71.562 Y-39.801 F600.000
G1 X72.343 Y-39.841 F600.000
G1 X73.124 Y-39.841 F600.000
G1 X73.514 Y-39.825 F600.000
G1 X74.295 Y-39.761 F600.000
G1 X74.685 Y-39.713 F600.000
G1 X75.845 Y-39.490 F600.000
G1 X76.606 Y-39.295 F600.000
G1 X76.984 Y-39.183 F600.000
G1 X77.729 Y-38.928 F600.000
G1 X78.096 Y-38.785 F600.000
G1 X79.159 Y-38.271 F600.000
G1 X79.849 Y-37.888 F600.000
G1 X80.506 Y-37.454 F600.000
G1 X80.825 Y-37.223 F600.000
G1 X81.438 Y-36.729 F600.000
G1 X81.721 Y-36.454 F600.000
G1 X81.984 Y-36.163 F600.000
G1 X82.231 Y-35.853 F600.000
G1 X82.418 Y-35.514 F600.000
G1 X82.458 Y-35.323 F600.000
G1 X82.359 Y-34.685 F600.000
G1 X82.359 Y-34.685 F600.000
G1 X82.311 Y-34.554 F600.000
G1 X82.247 Y-34.482 F600.000
G0 X82.219 Y-34.466
G0 X82.100 Y-34.450
G0 X64.653 Y-34.594
G1 X64.566 Y-34.598 F600.000
G1 X64.315 Y-34.614 F600.000
G1 X64.139 Y-34.701 F600.000
G1 X64.139 Y-34.701 F600.000
G1 X63.924 Y-34.932 F600.000
G1 X63.829 Y-35.092 F600.000
G1 X63.805 Y-35.151 F600.000
G1 X63.769 Y-35.450 F600.000
G1 X63.777 Y-35.689 F600.000
G1 X63.861 Y-36.072 F600.000
G1 X63.996 Y-36.438 F600.000
G1 X64.120 Y-36.693 F600.000
G1 X64.263 Y-36.928 F600.000
G1 X64.442 Y-37.187 F600.000
G1 X64.689 Y-37.490 F600.000
G1 X64.952 Y-37.777 F600.000
G1 X65.239 Y-38.044 F600.000
G1 X65.542 Y-38.291 F600.000
G1 X65.857 Y-38.526 F600.000
G1 X66.183 Y-38.741 F600.000
G1 X66.518 Y-38.944 F600.000
G1 X66.865 Y-39.127 F600.000
G1 X67.578 Y-39.454 F600.000
G1 X67.940 Y-39.598 F600.000
G1 X68.311 Y-39.725 F600.000
G1 X69.060 Y-39.952 F600.000
G1 X69.442 Y-40.044 F600.000
G1 X70.211 Y-40.195 F600.000
G1 X70.598 Y-40.259 F600.000
G1 X71.378 Y-40.347 F600.000
G1 X71.769 Y-40.378 F600.000
G1 X72.159 Y-40.398 F600.000
G1 X72.550 Y-40.406 F600.000
G1 X73.331 Y-40.390 F600.000
G1 X73.721 Y-40.367 F600.000
G1 X74.502 Y-40.287 F600.000
G1 X74.892 Y-40.231 F600.000
G1 X76.052 Y-40.008 F600.000
G1 X77.191 Y-39.713 F600.000
G1 X77.932 Y-39.450 F600.000
G1 X78.299 Y-39.307 F600.000
G1 X79.012 Y-38.980 F600.000
G1 X79.363 Y-38.801 F600.000
G1 X80.048 Y-38.410 F600.000
G1 X80.709 Y-37.980 F600.000
G1 X81.339 Y-37.510 F600.000
G1 X81.641 Y-37.259 F600.000
G1 X81.928 Y-36.988 F600.000
G1 X82.195 Y-36.701 F600.000
G1 X82.466 Y-36.259 F600.000
G1 X82.502 Y-36.135 F600.000
G1 X82.462 Y-35.434 F600.000
G1 X82.462 Y-35.434 F600.000
G1 X82.422 Y-35.299 F600.000
G1 X82.363 Y-35.223 F600.000
G0 X82.339 Y-35.207
G0 X82.219 Y-35.183
G0 X64.339 Y-34.912
G1 X64.251 Y-34.912 F600.000
G1 X64.000 Y-34.924 F600.000
G1 X63.825 Y-35.012 F600.000
G1 X63.825 Y-35.012 F600.000
G1 X63.641 Y-35.183 F600.000
G1 X63.566 Y-35.283 F600.000
G1 X63.538 Y-35.339 F600.000
G1 X63.474 Y-35.637 F600.000
G1 X63.462 Y-35.936 F600.000
G1 X63.530 Y-36.323 F600.000
G1 X63.649 Y-36.697 F600.000
G1 X63.757 Y-36.948 F600.000
G1 X63.884 Y-37.179 F600.000
G1 X64.048 Y-37.438 F600.000
G1 X64.279 Y-37.753 F600.000
G1 X64.530 Y-38.052 F600.000
G1 X64.805 Y-38.331 F600.000
G1 X65.096 Y-38.590 F600.000
G1 X65.398 Y-38.837 F600.000
G1 X65.713 Y-39.068 F600.000
G1 X66.044 Y-39.279 F600.000
G1 X66.382 Y-39.474 F600.000
G1 X66.729 Y-39.657 F600.000
G1 X67.080 Y-39.829 F600.000
G1 X67.438 Y-39.988 F600.000
G1 X67.801 Y-40.135 F600.000
G1 X68.167 Y-40.271 F600.000
G1 X68.542 Y-40.390 F600.000
G1 X68.920 Y-40.498 F600.000
G1 X69.303 Y-40.594 F600.000
G1 X69.685 Y-40.673 F600.000
G1 X70.458 Y-40.805 F600.000
G1 X71.239 Y-40.900 F600.000
G1 X71.629 Y-40.936 F600.000
G1 X72.020 Y-40.960 F600.000
G1 X72.801 Y-40.964 F600.000
G1 X73.582 Y-40.936 F600.000
G1 X73.972 Y-40.908 F600.000
G1 X74.753 Y-40.821 F600.000
G1 X75.143 Y-40.765 F600.000
G1 X75.916 Y-40.622 F600.000
G1 X76.299 Y-40.538 F600.000
G1 X77.060 Y-40.339 F600.000
G1 X77.813 Y-40.108 F600.000
G1 X78.542 Y-39.813 F600.000
G1 X79.255 Y-39.482 F600.000
G1 X79.606 Y-39.303 F600.000
G1 X80.291 Y-38.912 F600.000
G1 X80.956 Y-38.490 F600.000
G1 X81.279 Y-38.263 F600.000
G1 X81.888 Y-37.761 F600.000
G1 X82.171 Y-37.486 F600.000
G1 X82.458 Y-37.064 F600.000
G1 X82.502 Y-36.940 F600.000
G1 X82.510 Y-36.175 F600.000
G1 X82.510 Y-36.175 F600.000
G1 X82.470 Y-36.040 F600.000
G1 X82.410 Y-35.960 F600.000
G0 X82.386 Y-35.944
G0 X82.267 Y-35.920
G0 X64.100 Y-35.155
G1 X64.012 Y-35.151 F600.000
G1 X63.693 Y-35.155 F600.000
G1 X63.570 Y-35.203 F600.000
G1 X63.570 Y-35.203 F600.000
G1 X63.327 Y-35.406 F600.000
G1 X63.247 Y-35.506 F600.000
G1 X63.167 Y-35.741 F600.000
G1 X63.127 Y-36.100 F600.000
G1 X63.127 Y-36.159 F600.000
G1 X63.179 Y-36.550 F600.000
G1 X63.287 Y-36.928 F600.000
G1 X63.378 Y-37.171 F600.000
G1 X63.502 Y-37.426 F600.000
G1 X63.669 Y-37.721 F600.000
G1 X63.888 Y-38.044 F600.000
G1 X64.135 Y-38.347 F600.000
G1 X64.394 Y-38.633 F600.000
G1 X64.673 Y-38.908 F600.000
G1 X64.968 Y-39.163 F600.000
G1 X65.279 Y-39.398 F600.000
G1 X65.602 Y-39.622 F600.000
G1 X65.932 Y-39.833 F600.000
G1 X66.271 Y-40.032 F600.000
G1 X66.618 Y-40.211 F600.000
G1 X67.331 Y-40.542 F600.000
G1 X67.697 Y-40.685 F600.000
G1 X68.068 Y-40.817 F600.000
G1 X68.442 Y-40.936 F600.000
G1 X68.821 Y-41.040 F600.000
G1 X69.586 Y-41.219 F600.000
G1 X70.359 Y-41.355 F600.000
G1 X70.745 Y-41.410 F600.000
G1 X71.526 Y-41.494 F600.000
G1 X71.916 Y-41.522 F600.000
G1 X72.697 Y-41.546 F600.000
G1 X73.088 Y-41.546 F600.000
G1 X73.478 Y-41.534 F600.000
G1 X74.259 Y-41.462 F600.000
G1 X75.040 Y-41.359 F600.000
G1 X76.199 Y-41.139 F600.000
G1 X76.964 Y-40.956 F600.000
G1 X77.343 Y-40.857 F600.000
G1 X78.088 Y-40.602 F600.000
G1 X78.454 Y-40.462 F600.000
G1 X78.817 Y-40.311 F600.000
G1 X79.530 Y-39.976 F600.000
G1 X80.223 Y-39.602 F600.000
G1 X80.896 Y-39.195 F600.000
