(Exported by FreeCAD)
(Post Processor: grbl_post)
(Output Time:2022-04-10 12:31:01.537085)
(Begin preamble)
G17 G90
G21
(Begin operation: Fixture)
(Path: Fixture)
G54
(Finish operation: Fixture)
(Begin operation: 25degree_Vbit004)
(Path: 25degree_Vbit004)
(25degree_Vbit004)
(Begin toolchange)
( M6 T3.0 )
M3 S8000.0
(Finish operation: 25degree_Vbit004)
(Begin operation: Vcarve)
(Path: Vcarve)
(starting)
G0 Z9.000
G0 X18.398 Y-17.668 Z9.000
G1 X18.398 Y-17.668 Z5.224 F240.000
G1 X19.163 Y-18.433 Z4.000 F295.262
G1 X18.889 Y-18.706 Z4.000 F360.000
G1 X18.398 Y-19.197 Z5.223 F279.445
G0 Z9.000
G0 X19.163 Y-18.433 Z9.000
G1 X19.163 Y-18.433 Z4.000 F240.000
G1 X19.379 Y-18.433 Z4.000 F360.000
G1 X20.361 Y-18.433 Z4.000 F360.000
G1 X22.324 Y-18.433 Z4.000 F360.000
G1 X22.657 Y-18.469 Z4.000 F360.000
G1 X22.995 Y-18.580 Z4.000 F360.000
G1 X23.108 Y-18.633 Z4.000 F360.000
G1 X23.221 Y-18.695 Z4.000 F360.000
G1 X23.580 Y-18.527 Z4.000 F360.000
G1 X23.923 Y-18.445 Z4.000 F360.000
G1 X24.020 Y-18.436 Z4.000 F360.000
G1 X24.117 Y-18.433 Z4.000 F360.000
G1 X27.270 Y-18.433 Z4.000 F360.000
G1 X28.035 Y-19.197 Z5.222 F295.343
G0 Z9.000
G0 X27.270 Y-18.433 Z9.000
G1 X27.270 Y-18.433 Z4.000 F240.000
G1 X28.035 Y-17.668 Z5.224 F295.262
G0 Z9.000
G0 X23.221 Y-18.695 Z9.000
G1 X23.221 Y-18.695 Z4.000 F240.000
G1 X23.221 Y-19.197 Z4.000 F360.000
G1 X23.221 Y-34.103 Z4.000 F360.000
G0 Z9.000
G0 X24.117 Y-35.000 Z9.000
G1 X24.117 Y-35.000 Z5.226 F240.000
G1 X23.221 Y-34.103 Z4.000 F301.296
G1 X22.324 Y-35.000 Z5.226 F301.296
G0 Z9.000
G0 X29.911 Y-30.882 Z9.000
G1 X29.911 Y-30.882 Z5.223 F240.000
G1 X30.715 Y-30.553 Z4.000 F287.167
G1 X30.544 Y-30.070 Z4.000 F360.000
G1 X30.485 Y-29.857 Z4.000 F360.000
G1 X30.414 Y-29.520 Z4.000 F360.000
G0 Z9.000
G0 X29.556 Y-29.685 Z9.000
G1 X29.556 Y-29.685 Z5.225 F240.000
G1 X30.414 Y-29.520 Z4.000 F287.313
G1 X30.304 Y-28.527 Z4.000 F360.000
G1 X30.296 Y-28.403 Z4.000 F360.000
G1 X29.437 Y-28.405 Z5.223 F286.764
G0 Z9.000
G0 X30.296 Y-28.403 Z9.000
G1 X30.296 Y-28.403 Z4.000 F240.000
G1 X30.309 Y-28.262 Z4.000 F360.000
G1 X30.441 Y-27.306 Z4.000 F360.000
G1 X29.549 Y-27.141 Z5.222 F288.771
G0 Z9.000
G0 X30.441 Y-27.306 Z9.000
G1 X30.441 Y-27.306 Z4.000 F240.000
G1 X30.682 Y-26.285 Z4.000 F360.000
G1 X30.684 Y-26.278 Z4.000 F360.000
G1 X29.885 Y-25.963 Z5.222 F286.802
G0 Z9.000
G0 X30.684 Y-26.279 Z9.000
G1 X30.684 Y-26.279 Z4.000 F240.000
G1 X30.747 Y-26.123 Z4.000 F360.000
G1 X30.825 Y-25.975 Z4.000 F360.000
G1 X31.193 Y-25.348 Z4.000 F360.000
G1 X30.445 Y-24.871 Z5.221 F287.997
G0 Z9.000
G0 X31.193 Y-25.348 Z9.000
G1 X31.193 Y-25.348 Z4.000 F240.000
G1 X31.846 Y-24.446 Z4.000 F360.000
G1 X31.229 Y-23.864 Z5.220 F286.412
G0 Z9.000
G0 X31.846 Y-24.446 Z9.000
G1 X31.846 Y-24.446 Z4.000 F240.000
G1 X31.956 Y-24.321 Z4.000 F360.000
G1 X32.180 Y-24.111 Z4.000 F360.000
G1 X32.781 Y-23.642 Z4.000 F360.000
G1 X32.282 Y-22.938 Z5.225 F286.873
G0 Z9.000
G0 X32.781 Y-23.642 Z9.000
G1 X32.781 Y-23.642 Z4.000 F240.000
G1 X33.780 Y-23.020 Z4.000 F360.000
G1 X33.463 Y-22.275 Z5.220 F284.761
G0 Z9.000
G0 X33.780 Y-23.020 Z9.000
G1 X33.780 Y-23.020 Z4.000 F240.000
G1 X33.831 Y-22.995 Z4.000 F360.000
G1 X34.134 Y-22.887 Z4.000 F360.000
G1 X34.933 Y-22.688 Z4.000 F360.000
G1 X34.775 Y-21.878 Z5.222 F285.372
G0 Z9.000
G0 X34.933 Y-22.688 Z9.000
G1 X34.933 Y-22.688 Z4.000 F240.000
G1 X36.069 Y-22.526 Z4.000 F360.000
G1 X36.215 Y-22.513 Z4.000 F360.000
G1 X36.215 Y-21.746 Z5.224 F282.731
G0 Z9.000
G0 X36.215 Y-22.513 Z9.000
G1 X36.215 Y-22.513 Z4.000 F240.000
G1 X36.361 Y-22.526 Z4.000 F360.000
G1 X37.491 Y-22.688 Z4.000 F360.000
G1 X37.649 Y-21.878 Z5.225 F285.283
G0 Z9.000
G0 X37.491 Y-22.688 Z9.000
G1 X37.491 Y-22.688 Z4.000 F240.000
G1 X38.292 Y-22.886 Z4.000 F360.000
G1 X38.445 Y-22.934 Z4.000 F360.000
G1 X38.594 Y-22.996 Z4.000 F360.000
G1 X38.639 Y-23.017 Z4.000 F360.000
G1 X38.955 Y-22.273 Z5.222 F284.634
G0 Z9.000
G0 X38.639 Y-23.017 Z9.000
G1 X38.639 Y-23.017 Z4.000 F240.000
G1 X39.636 Y-23.637 Z4.000 F360.000
G1 X40.134 Y-22.933 Z5.225 F286.876
G0 Z9.000
G0 X39.636 Y-23.637 Z9.000
G1 X39.636 Y-23.637 Z4.000 F240.000
G1 X40.244 Y-24.111 Z4.000 F360.000
G1 X40.466 Y-24.320 Z4.000 F360.000
G1 X40.570 Y-24.438 Z4.000 F360.000
G1 X41.185 Y-23.857 Z5.223 F286.248
G0 Z9.000
G0 X40.570 Y-24.438 Z9.000
G1 X40.570 Y-24.438 Z4.000 F240.000
G1 X41.224 Y-25.338 Z4.000 F360.000
G1 X41.970 Y-24.861 Z5.225 F287.796
G0 Z9.000
G0 X41.224 Y-25.338 Z9.000
G1 X41.224 Y-25.338 Z4.000 F240.000
G1 X41.601 Y-25.975 Z4.000 F360.000
G1 X41.675 Y-26.117 Z4.000 F360.000
G1 X41.737 Y-26.266 Z4.000 F360.000
G1 X42.530 Y-25.953 Z5.224 F286.477
G0 Z9.000
G0 X41.737 Y-26.266 Z9.000
G1 X41.737 Y-26.266 Z4.000 F240.000
G1 X41.741 Y-26.285 Z4.000 F360.000
G1 X41.981 Y-27.298 Z4.000 F360.000
G1 X42.866 Y-27.135 Z5.225 F288.404
G0 Z9.000
G0 X41.981 Y-27.298 Z9.000
G1 X41.981 Y-27.298 Z4.000 F240.000
G1 X42.114 Y-28.262 Z4.000 F360.000
G1 X42.128 Y-28.403 Z4.000 F360.000
G1 X42.978 Y-28.405 Z5.225 F286.351
G0 Z9.000
G0 X42.128 Y-28.403 Z9.000
G1 X42.128 Y-28.403 Z4.000 F240.000
G1 X42.119 Y-28.528 Z4.000 F360.000
G1 X42.009 Y-29.521 Z4.000 F360.000
G0 Z9.000
G0 X42.859 Y-29.685 Z9.000
G1 X42.859 Y-29.685 Z5.222 F240.000
G1 X42.009 Y-29.521 Z4.000 F287.093
G1 X41.938 Y-29.857 Z4.000 F360.000
G1 X41.878 Y-30.071 Z4.000 F360.000
G1 X41.705 Y-30.555 Z4.000 F360.000
G0 Z9.000
G0 X42.504 Y-30.882 Z9.000
G1 X42.504 Y-30.882 Z5.225 F240.000
G1 X41.705 Y-30.555 Z4.000 F286.901
G1 X41.353 Y-31.300 Z4.000 F360.000
G1 X41.253 Y-31.482 Z4.000 F360.000
G1 X41.217 Y-31.537 Z4.000 F360.000
G0 Z9.000
G0 X41.911 Y-31.995 Z9.000
G1 X41.911 Y-31.995 Z5.222 F240.000
G1 X41.217 Y-31.537 Z4.000 F285.650
G1 X40.499 Y-32.456 Z4.000 F360.000
G0 Z9.000
G0 X41.082 Y-33.024 Z9.000
G1 X41.082 Y-33.024 Z5.222 F240.000
G1 X40.499 Y-32.456 Z4.000 F284.897
G1 X40.436 Y-32.522 Z4.000 F360.000
G1 X40.275 Y-32.672 Z4.000 F360.000
G1 X39.604 Y-33.209 Z4.000 F360.000
G0 Z9.000
G0 X40.067 Y-33.888 Z9.000
G1 X40.067 Y-33.888 Z5.221 F240.000
G1 X39.604 Y-33.209 Z4.000 F285.254
G1 X39.228 Y-33.450 Z4.000 F360.000
G1 X39.046 Y-33.551 Z4.000 F360.000
G1 X38.610 Y-33.753 Z4.000 F360.000
G0 Z9.000
G0 X38.917 Y-34.506 Z9.000
G1 X38.917 Y-34.506 Z5.224 F240.000
G1 X38.610 Y-33.753 Z4.000 F284.791
G1 X37.829 Y-34.021 Z4.000 F360.000
G1 X37.734 Y-34.051 Z4.000 F360.000
G1 X37.637 Y-34.074 Z4.000 F360.000
G1 X37.490 Y-34.103 Z4.000 F360.000
G0 Z9.000
G0 X37.634 Y-34.876 Z9.000
G1 X37.634 Y-34.876 Z5.223 F240.000
G1 X37.490 Y-34.103 Z4.000 F283.630
G1 X36.307 Y-34.227 Z4.000 F360.000
G1 X36.215 Y-34.234 Z4.000 F360.000
G1 X36.123 Y-34.227 Z4.000 F360.000
G1 X34.933 Y-34.103 Z4.000 F360.000
G0 Z9.000
G0 X34.790 Y-34.876 Z9.000
G1 X34.790 Y-34.876 Z5.224 F240.000
G1 X34.933 Y-34.103 Z4.000 F283.617
G1 X34.792 Y-34.074 Z4.000 F360.000
G1 X34.696 Y-34.052 Z4.000 F360.000
G1 X34.601 Y-34.023 Z4.000 F360.000
G1 X33.807 Y-33.752 Z4.000 F360.000
G0 Z9.000
G0 X33.501 Y-34.506 Z9.000
G1 X33.501 Y-34.506 Z5.225 F240.000
G1 X33.807 Y-33.752 Z4.000 F284.821
G1 X33.378 Y-33.552 Z4.000 F360.000
G1 X33.193 Y-33.451 Z4.000 F360.000
G1 X32.813 Y-33.207 Z4.000 F360.000
G0 Z9.000
G0 X32.349 Y-33.888 Z9.000
G1 X32.349 Y-33.888 Z5.224 F240.000
G1 X32.813 Y-33.207 Z4.000 F285.294
G1 X32.149 Y-32.673 Z4.000 F360.000
G1 X31.989 Y-32.526 Z4.000 F360.000
G1 X31.919 Y-32.453 Z4.000 F360.000
G0 Z9.000
G0 X31.333 Y-33.024 Z9.000
G1 X31.333 Y-33.024 Z5.225 F240.000
G1 X31.919 Y-32.453 Z4.000 F285.018
G1 X31.200 Y-31.535 Z4.000 F360.000
G0 Z9.000
G0 X30.503 Y-31.995 Z9.000
G1 X30.503 Y-31.995 Z5.222 F240.000
G1 X31.200 Y-31.535 Z4.000 F285.808
G1 X31.169 Y-31.486 Z4.000 F360.000
G1 X31.066 Y-31.298 Z4.000 F360.000
G1 X30.715 Y-30.553 Z4.000 F360.000
G0 Z9.000
G0 X44.945 Y-23.275 Z9.000
G1 X44.945 Y-23.275 Z5.224 F240.000
G1 X45.709 Y-22.511 Z4.000 F295.287
G1 X44.945 Y-21.746 Z5.224 F295.287
G0 Z9.000
G0 X45.709 Y-22.511 Z9.000
G1 X45.709 Y-22.511 Z4.000 F240.000
G1 X46.649 Y-22.511 Z4.000 F360.000
G1 X47.493 Y-22.511 Z4.000 F360.000
G1 X47.493 Y-21.746 Z4.000 F360.000
G1 X47.493 Y-20.320 Z4.000 F360.000
G1 X47.495 Y-20.259 Z4.000 F360.000
G1 X47.502 Y-20.064 Z4.000 F360.000
G1 X47.602 Y-19.154 Z4.000 F360.000
G1 X47.643 Y-18.934 Z4.000 F360.000
G1 X47.713 Y-18.719 Z4.000 F360.000
G1 X46.904 Y-18.297 Z5.222 F288.977
G0 Z9.000
G0 X47.713 Y-18.719 Z9.000
G1 X47.713 Y-18.719 Z4.000 F240.000
G1 X47.847 Y-18.580 Z4.000 F360.000
G1 X48.193 Y-18.260 Z4.000 F360.000
G1 X47.780 Y-17.469 Z5.222 F288.175
G0 Z9.000
G0 X48.193 Y-18.260 Z9.000
G1 X48.193 Y-18.260 Z4.000 F240.000
G1 X48.263 Y-18.224 Z4.000 F360.000
G1 X48.673 Y-18.081 Z4.000 F360.000
G1 X49.284 Y-17.957 Z4.000 F360.000
G1 X49.270 Y-17.158 Z5.223 F284.200
G0 Z9.000
G0 X49.284 Y-17.957 Z9.000
G1 X49.284 Y-17.957 Z4.000 F240.000
G1 X49.492 Y-17.954 Z4.000 F360.000
G1 X49.810 Y-17.985 Z4.000 F360.000
G1 X50.466 Y-18.123 Z4.000 F360.000
G1 X51.213 Y-19.078 Z5.222 F299.730
G0 Z9.000
G0 X50.466 Y-18.123 Z9.000
G1 X50.466 Y-18.123 Z4.000 F240.000
G1 X51.213 Y-17.493 Z5.225 F291.442
G0 Z9.000
G0 X51.046 Y-21.746 Z9.000
G1 X51.046 Y-21.746 Z5.223 F240.000
G1 X50.282 Y-22.511 Z4.000 F295.309
G0 Z9.000
G0 X51.046 Y-23.275 Z9.000
G1 X51.046 Y-23.275 Z5.223 F240.000
G1 X50.282 Y-22.511 Z4.000 F295.305
G1 X48.338 Y-22.511 Z4.000 F360.000
G1 X47.493 Y-22.511 Z4.000 F360.000
G1 X47.493 Y-23.274 Z4.000 F360.000
G1 X47.494 Y-23.275 Z4.000 F360.000
G1 X47.486 Y-34.163 Z4.000 F360.000
G0 Z9.000
G0 X48.322 Y-35.000 Z9.000
G1 X48.322 Y-35.000 Z5.226 F240.000
G1 X47.486 Y-34.163 Z4.000 F298.651
G1 X46.649 Y-35.000 Z5.226 F298.677
G0 Z9.000
G0 X53.921 Y-32.100 Z9.000
G1 X53.921 Y-32.100 Z5.222 F240.000
G1 X54.701 Y-31.751 Z4.000 F286.595
G1 X54.507 Y-31.237 Z4.000 F360.000
G1 X54.440 Y-31.007 Z4.000 F360.000
G1 X54.278 Y-30.239 Z4.000 F360.000
G0 Z9.000
G0 X53.450 Y-30.378 Z9.000
G1 X53.450 Y-30.378 Z5.226 F240.000
G1 X54.278 Y-30.239 Z4.000 F285.870
G1 X54.233 Y-29.823 Z4.000 F360.000
G1 X54.225 Y-29.727 Z4.000 F360.000
G1 X54.138 Y-27.938 Z4.000 F360.000
G1 X54.137 Y-27.850 Z4.000 F360.000
G1 X54.137 Y-27.823 Z4.000 F360.000
G1 X54.136 Y-22.590 Z4.000 F360.000
G1 X53.292 Y-21.746 Z5.222 F299.114
G0 Z9.000
G0 X54.136 Y-22.590 Z9.000
G1 X54.136 Y-22.590 Z4.000 F240.000
G1 X54.981 Y-21.746 Z5.224 F299.058
G0 Z9.000
G0 X62.962 Y-21.746 Z9.000
G1 X62.962 Y-21.746 Z5.224 F240.000
G1 X63.814 Y-22.598 Z4.000 F299.395
G1 X63.814 Y-27.823 Z4.000 F360.000
G1 X63.814 Y-27.849 Z4.000 F360.000
G1 X63.811 Y-28.057 Z4.000 F360.000
G1 X63.722 Y-29.865 Z4.000 F360.000
G1 X63.715 Y-29.968 Z4.000 F360.000
G1 X63.678 Y-30.289 Z4.000 F360.000
G1 X63.493 Y-31.139 Z4.000 F360.000
G1 X63.418 Y-31.387 Z4.000 F360.000
G1 X63.266 Y-31.767 Z4.000 F360.000
G1 X62.903 Y-32.386 Z4.000 F360.000
G1 X62.753 Y-32.601 Z4.000 F360.000
G1 X62.621 Y-32.759 Z4.000 F360.000
G1 X61.924 Y-33.376 Z4.000 F360.000
G1 X61.727 Y-33.526 Z4.000 F360.000
G0 Z9.000
G0 X62.149 Y-34.235 Z9.000
G1 X62.149 Y-34.235 Z5.223 F240.000
G1 X61.727 Y-33.526 Z4.000 F285.355
G1 X61.716 Y-33.531 Z4.000 F360.000
G1 X60.622 Y-34.009 Z4.000 F360.000
G1 X60.538 Y-34.043 Z4.000 F360.000
G0 Z9.000
G0 X60.731 Y-34.808 Z9.000
G1 X60.731 Y-34.808 Z5.221 F240.000
G1 X60.538 Y-34.042 Z4.000 F283.843
G1 X60.389 Y-34.068 Z4.000 F360.000
G1 X59.093 Y-34.224 Z4.000 F360.000
G1 X58.995 Y-34.233 Z4.000 F360.000
G0 Z9.000
G0 X58.995 Y-35.000 Z9.000
G1 X58.995 Y-35.000 Z5.225 F240.000
G1 X58.995 Y-34.233 Z4.000 F282.743
G1 X58.894 Y-34.224 Z4.000 F360.000
G1 X57.595 Y-34.066 Z4.000 F360.000
G1 X57.441 Y-34.040 Z4.000 F360.000
G0 Z9.000
G0 X57.249 Y-34.808 Z9.000
G1 X57.249 Y-34.808 Z5.223 F240.000
G1 X57.441 Y-34.039 Z4.000 F283.932
G1 X57.363 Y-34.008 Z4.000 F360.000
G1 X56.241 Y-33.520 Z4.000 F360.000
G0 Z9.000
G0 X55.817 Y-34.235 Z9.000
G1 X55.817 Y-34.235 Z5.225 F240.000
G1 X56.241 Y-33.520 Z4.000 F285.539
G1 X56.241 Y-33.520 Z4.000 F360.000
G1 X56.131 Y-33.444 Z4.000 F360.000
G1 X56.028 Y-33.360 Z4.000 F360.000
G1 X55.348 Y-32.752 Z4.000 F360.000
G0 Z9.000
G0 X54.710 Y-33.319 Z9.000
G1 X54.710 Y-33.319 Z5.225 F240.000
G1 X55.348 Y-32.752 Z4.000 F286.500
G1 X55.177 Y-32.544 Z4.000 F360.000
G1 X55.018 Y-32.312 Z4.000 F360.000
G1 X54.701 Y-31.751 Z4.000 F360.000
G0 Z9.000
G0 X62.621 Y-32.759 Z9.000
G1 X62.621 Y-32.759 Z4.000 F240.000
G1 X63.254 Y-33.323 Z5.221 F286.366
G0 Z9.000
G0 X64.037 Y-32.116 Z9.000
G1 X64.037 Y-32.116 Z5.222 F240.000
G1 X63.266 Y-31.767 Z4.000 F286.278
G0 Z9.000
G0 X63.678 Y-30.289 Z9.000
G1 X63.678 Y-30.289 Z4.000 F240.000
G1 X64.509 Y-30.432 Z5.224 F286.076
G0 Z9.000
G0 X63.814 Y-22.598 Z9.000
G1 X63.814 Y-22.598 Z4.000 F240.000
G1 X64.666 Y-21.746 Z5.224 F299.395
G0 Z11.000
(Finish operation: Vcarve)
(Begin operation: 3mm_Endmill_3022)
(Path: 3mm_Endmill_3022)
(3mm_Endmill_3022)
(Begin toolchange)
( M6 T2.0 )
M3 S8000.0
(Finish operation: 3mm_Endmill_3022)
(Begin operation: Profile)
(Path: Profile)
(Profile)
(Compensated Tool Path. Diameter: 3.175)
G0 Z11.000
G0 X81.506 Y-3.603
G0 Z9.000
G1 X81.506 Y-3.603 Z4.300 F240.000
G2 X85.041 Y-9.232 Z4.300 I-10.114 J-10.277 K0.000 F360.000
G2 X85.520 Y-11.234 Z4.300 I-8.102 J-2.995 K0.000 F360.000
G2 X85.544 Y-16.109 Z4.300 I-28.892 J-2.577 K0.000 F360.000
G2 X84.696 Y-19.036 Z4.300 I-13.306 J2.265 K0.000 F360.000
G2 X80.122 Y-25.051 Z4.300 I-13.618 J5.610 K0.000 F360.000
G2 X81.646 Y-26.456 Z4.300 I-8.460 J-10.706 K0.000 F360.000
G2 X77.137 Y-49.532 Z4.300 I-10.186 J-9.988 K0.000 F360.000
G2 X72.678 Y-50.711 Z4.300 I-5.253 J10.847 K0.000 F360.000
G2 X58.342 Y-42.501 Z4.300 I-1.316 J14.324 K0.000 F360.000
G1 X27.150 Y-42.501 Z4.300 F360.000
G2 X26.102 Y-44.265 Z4.300 I-16.073 J8.359 K0.000 F360.000
G2 X22.330 Y-48.147 Z4.300 I-11.572 J7.467 K0.000 F360.000
G2 X17.629 Y-50.352 Z4.300 I-9.857 J14.908 K0.000 F360.000
G1 X17.627 Y-50.343 Z4.300 F360.000
G1 X17.500 Y-50.385 Z4.300 F360.000
G2 X15.685 Y-50.707 Z4.300 I-3.347 J13.573 K0.000 F360.000
G2 X1.902 Y-28.780 Z4.300 I-1.549 J14.322 K0.000 F360.000
G2 X5.316 Y-25.091 Z4.300 I14.058 J-9.587 K0.000 F360.000
G2 X-0.062 Y-16.397 Z4.300 I9.339 J11.788 K0.000 F360.000
G2 X0.205 Y-9.987 Z4.300 I16.418 J2.528 K0.000 F360.000
G2 X1.516 Y-6.795 Z4.300 I13.900 J-3.844 K0.000 F360.000
G2 X22.373 Y-1.978 Z4.300 I12.577 J-6.896 K0.000 F360.000
G2 X27.113 Y-7.572 Z4.300 I-10.516 J-13.716 K0.000 F360.000
G1 X58.446 Y-7.572 Z4.300 F360.000
G2 X59.008 Y-6.546 Z4.300 I9.617 J-4.605 K0.000 F360.000
G2 X65.684 Y-0.515 Z4.300 I12.141 J-6.727 K0.000 F360.000
G2 X80.705 Y-2.872 Z4.300 I5.679 J-12.851 K0.000 F360.000
G2 X81.506 Y-3.603 Z4.300 I-9.314 J-11.008 K0.000 F360.000
G1 X81.506 Y-3.603 Z3.600 F240.000
G2 X85.041 Y-9.232 Z3.600 I-10.114 J-10.277 K0.000 F360.000
G2 X85.520 Y-11.234 Z3.600 I-8.102 J-2.995 K0.000 F360.000
G2 X85.544 Y-16.109 Z3.600 I-28.892 J-2.577 K0.000 F360.000
G2 X84.696 Y-19.036 Z3.600 I-13.306 J2.265 K0.000 F360.000
G2 X80.122 Y-25.051 Z3.600 I-13.618 J5.610 K0.000 F360.000
G2 X81.646 Y-26.456 Z3.600 I-8.460 J-10.706 K0.000 F360.000
G2 X77.137 Y-49.532 Z3.600 I-10.186 J-9.988 K0.000 F360.000
G2 X72.678 Y-50.711 Z3.600 I-5.253 J10.847 K0.000 F360.000
G2 X58.342 Y-42.501 Z3.600 I-1.316 J14.324 K0.000 F360.000
G1 X27.150 Y-42.501 Z3.600 F360.000
G2 X26.102 Y-44.265 Z3.600 I-16.073 J8.359 K0.000 F360.000
G2 X22.330 Y-48.147 Z3.600 I-11.572 J7.467 K0.000 F360.000
G2 X17.629 Y-50.352 Z3.600 I-9.857 J14.908 K0.000 F360.000
G1 X17.627 Y-50.343 Z3.600 F360.000
G1 X17.500 Y-50.385 Z3.600 F360.000
G2 X15.685 Y-50.707 Z3.600 I-3.347 J13.573 K0.000 F360.000
G2 X1.902 Y-28.780 Z3.600 I-1.549 J14.322 K0.000 F360.000
G2 X5.316 Y-25.091 Z3.600 I14.058 J-9.587 K0.000 F360.000
G2 X-0.062 Y-16.397 Z3.600 I9.339 J11.788 K0.000 F360.000
G2 X0.205 Y-9.987 Z3.600 I16.418 J2.528 K0.000 F360.000
G2 X1.516 Y-6.795 Z3.600 I13.900 J-3.844 K0.000 F360.000
G2 X22.373 Y-1.978 Z3.600 I12.577 J-6.896 K0.000 F360.000
G2 X27.113 Y-7.572 Z3.600 I-10.516 J-13.716 K0.000 F360.000
G1 X58.446 Y-7.572 Z3.600 F360.000
G2 X59.008 Y-6.546 Z3.600 I9.617 J-4.605 K0.000 F360.000
G2 X65.684 Y-0.515 Z3.600 I12.141 J-6.727 K0.000 F360.000
G2 X80.705 Y-2.872 Z3.600 I5.679 J-12.851 K0.000 F360.000
G2 X81.506 Y-3.603 Z3.600 I-9.314 J-11.008 K0.000 F360.000
G1 X81.506 Y-3.603 Z2.900 F240.000
G2 X85.041 Y-9.232 Z2.900 I-10.114 J-10.277 K0.000 F360.000
G2 X85.520 Y-11.234 Z2.900 I-8.102 J-2.995 K0.000 F360.000
G2 X85.544 Y-16.109 Z2.900 I-28.892 J-2.577 K0.000 F360.000
G2 X84.696 Y-19.036 Z2.900 I-13.306 J2.265 K0.000 F360.000
G2 X80.122 Y-25.051 Z2.900 I-13.618 J5.610 K0.000 F360.000
G2 X81.646 Y-26.456 Z2.900 I-8.460 J-10.706 K0.000 F360.000
G2 X77.137 Y-49.532 Z2.900 I-10.186 J-9.988 K0.000 F360.000
G2 X72.678 Y-50.711 Z2.900 I-5.253 J10.847 K0.000 F360.000
G2 X58.342 Y-42.501 Z2.900 I-1.316 J14.324 K0.000 F360.000
G1 X27.150 Y-42.501 Z2.900 F360.000
G2 X26.102 Y-44.265 Z2.900 I-16.073 J8.359 K0.000 F360.000
G2 X22.330 Y-48.147 Z2.900 I-11.572 J7.467 K0.000 F360.000
G2 X17.629 Y-50.352 Z2.900 I-9.857 J14.908 K0.000 F360.000
G1 X17.627 Y-50.343 Z2.900 F360.000
G1 X17.500 Y-50.385 Z2.900 F360.000
G2 X15.685 Y-50.707 Z2.900 I-3.347 J13.573 K0.000 F360.000
G2 X1.902 Y-28.780 Z2.900 I-1.549 J14.322 K0.000 F360.000
G2 X5.316 Y-25.091 Z2.900 I14.058 J-9.587 K0.000 F360.000
G2 X-0.062 Y-16.397 Z2.900 I9.339 J11.788 K0.000 F360.000
G2 X0.205 Y-9.987 Z2.900 I16.418 J2.528 K0.000 F360.000
G2 X1.516 Y-6.795 Z2.900 I13.900 J-3.844 K0.000 F360.000
G2 X22.373 Y-1.978 Z2.900 I12.577 J-6.896 K0.000 F360.000
G2 X27.113 Y-7.572 Z2.900 I-10.516 J-13.716 K0.000 F360.000
G1 X58.446 Y-7.572 Z2.900 F360.000
G2 X59.008 Y-6.546 Z2.900 I9.617 J-4.605 K0.000 F360.000
G2 X65.684 Y-0.515 Z2.900 I12.141 J-6.727 K0.000 F360.000
G2 X80.705 Y-2.872 Z2.900 I5.679 J-12.851 K0.000 F360.000
G2 X81.506 Y-3.603 Z2.900 I-9.314 J-11.008 K0.000 F360.000
G1 X81.506 Y-3.603 Z2.200 F240.000
G2 X85.041 Y-9.232 Z2.200 I-10.114 J-10.277 K0.000 F360.000
G2 X85.520 Y-11.234 Z2.200 I-8.102 J-2.995 K0.000 F360.000
G2 X85.544 Y-16.109 Z2.200 I-28.892 J-2.577 K0.000 F360.000
G2 X84.696 Y-19.036 Z2.200 I-13.306 J2.265 K0.000 F360.000
G2 X80.122 Y-25.051 Z2.200 I-13.618 J5.610 K0.000 F360.000
G2 X81.646 Y-26.456 Z2.200 I-8.460 J-10.706 K0.000 F360.000
G2 X77.137 Y-49.532 Z2.200 I-10.186 J-9.988 K0.000 F360.000
G2 X72.678 Y-50.711 Z2.200 I-5.253 J10.847 K0.000 F360.000
G2 X58.342 Y-42.501 Z2.200 I-1.316 J14.324 K0.000 F360.000
G1 X27.150 Y-42.501 Z2.200 F360.000
G2 X26.102 Y-44.265 Z2.200 I-16.073 J8.359 K0.000 F360.000
G2 X22.330 Y-48.147 Z2.200 I-11.572 J7.467 K0.000 F360.000
G2 X17.629 Y-50.352 Z2.200 I-9.857 J14.908 K0.000 F360.000
G1 X17.627 Y-50.343 Z2.200 F360.000
G1 X17.500 Y-50.385 Z2.200 F360.000
G2 X15.685 Y-50.707 Z2.200 I-3.347 J13.573 K0.000 F360.000
G2 X1.902 Y-28.780 Z2.200 I-1.549 J14.322 K0.000 F360.000
G2 X5.316 Y-25.091 Z2.200 I14.058 J-9.587 K0.000 F360.000
G2 X-0.062 Y-16.397 Z2.200 I9.339 J11.788 K0.000 F360.000
G2 X0.205 Y-9.987 Z2.200 I16.418 J2.528 K0.000 F360.000
G2 X1.516 Y-6.795 Z2.200 I13.900 J-3.844 K0.000 F360.000
G2 X22.373 Y-1.978 Z2.200 I12.577 J-6.896 K0.000 F360.000
G2 X27.113 Y-7.572 Z2.200 I-10.516 J-13.716 K0.000 F360.000
G1 X58.446 Y-7.572 Z2.200 F360.000
G2 X59.008 Y-6.546 Z2.200 I9.617 J-4.605 K0.000 F360.000
G2 X65.684 Y-0.515 Z2.200 I12.141 J-6.727 K0.000 F360.000
G2 X80.705 Y-2.872 Z2.200 I5.679 J-12.851 K0.000 F360.000
G2 X81.506 Y-3.603 Z2.200 I-9.314 J-11.008 K0.000 F360.000
G1 X81.506 Y-3.603 Z1.500 F240.000
G2 X85.041 Y-9.232 Z1.500 I-10.114 J-10.277 K0.000 F360.000
G2 X85.520 Y-11.234 Z1.500 I-8.102 J-2.995 K0.000 F360.000
G2 X85.544 Y-16.109 Z1.500 I-28.892 J-2.577 K0.000 F360.000
G2 X84.696 Y-19.036 Z1.500 I-13.306 J2.265 K0.000 F360.000
G2 X80.122 Y-25.051 Z1.500 I-13.618 J5.610 K0.000 F360.000
G2 X81.646 Y-26.456 Z1.500 I-8.460 J-10.706 K0.000 F360.000
G2 X77.137 Y-49.532 Z1.500 I-10.186 J-9.988 K0.000 F360.000
G2 X72.678 Y-50.711 Z1.500 I-5.253 J10.847 K0.000 F360.000
G2 X58.342 Y-42.501 Z1.500 I-1.316 J14.324 K0.000 F360.000
G1 X27.150 Y-42.501 Z1.500 F360.000
G2 X26.102 Y-44.265 Z1.500 I-16.073 J8.359 K0.000 F360.000
G2 X22.330 Y-48.147 Z1.500 I-11.572 J7.467 K0.000 F360.000
G2 X17.629 Y-50.352 Z1.500 I-9.857 J14.908 K0.000 F360.000
G1 X17.627 Y-50.343 Z1.500 F360.000
G1 X17.500 Y-50.385 Z1.500 F360.000
G2 X15.685 Y-50.707 Z1.500 I-3.347 J13.573 K0.000 F360.000
G2 X1.902 Y-28.780 Z1.500 I-1.549 J14.322 K0.000 F360.000
G2 X5.316 Y-25.091 Z1.500 I14.058 J-9.587 K0.000 F360.000
G2 X-0.062 Y-16.397 Z1.500 I9.339 J11.788 K0.000 F360.000
G2 X0.205 Y-9.987 Z1.500 I16.418 J2.528 K0.000 F360.000
G2 X1.516 Y-6.795 Z1.500 I13.900 J-3.844 K0.000 F360.000
G2 X22.373 Y-1.978 Z1.500 I12.577 J-6.896 K0.000 F360.000
G2 X27.113 Y-7.572 Z1.500 I-10.516 J-13.716 K0.000 F360.000
G1 X58.446 Y-7.572 Z1.500 F360.000
G2 X59.008 Y-6.546 Z1.500 I9.617 J-4.605 K0.000 F360.000
G2 X65.684 Y-0.515 Z1.500 I12.141 J-6.727 K0.000 F360.000
G2 X80.705 Y-2.872 Z1.500 I5.679 J-12.851 K0.000 F360.000
G2 X81.506 Y-3.603 Z1.500 I-9.314 J-11.008 K0.000 F360.000
G1 X81.506 Y-3.603 Z0.800 F240.000
G2 X85.041 Y-9.232 Z0.800 I-10.114 J-10.277 K0.000 F360.000
G2 X85.520 Y-11.234 Z0.800 I-8.102 J-2.995 K0.000 F360.000
G2 X85.544 Y-16.109 Z0.800 I-28.892 J-2.577 K0.000 F360.000
G2 X84.696 Y-19.036 Z0.800 I-13.306 J2.265 K0.000 F360.000
G2 X80.122 Y-25.051 Z0.800 I-13.618 J5.610 K0.000 F360.000
G2 X81.646 Y-26.456 Z0.800 I-8.460 J-10.706 K0.000 F360.000
G2 X77.137 Y-49.532 Z0.800 I-10.186 J-9.988 K0.000 F360.000
G2 X72.678 Y-50.711 Z0.800 I-5.253 J10.847 K0.000 F360.000
G2 X58.342 Y-42.501 Z0.800 I-1.316 J14.324 K0.000 F360.000
G1 X27.150 Y-42.501 Z0.800 F360.000
G2 X26.102 Y-44.265 Z0.800 I-16.073 J8.359 K0.000 F360.000
G2 X22.330 Y-48.147 Z0.800 I-11.572 J7.467 K0.000 F360.000
G2 X17.629 Y-50.352 Z0.800 I-9.857 J14.908 K0.000 F360.000
G1 X17.627 Y-50.343 Z0.800 F360.000
G1 X17.500 Y-50.385 Z0.800 F360.000
G2 X15.685 Y-50.707 Z0.800 I-3.347 J13.573 K0.000 F360.000
G2 X1.902 Y-28.780 Z0.800 I-1.549 J14.322 K0.000 F360.000
G2 X5.316 Y-25.091 Z0.800 I14.058 J-9.587 K0.000 F360.000
G2 X-0.062 Y-16.397 Z0.800 I9.339 J11.788 K0.000 F360.000
G2 X0.205 Y-9.987 Z0.800 I16.418 J2.528 K0.000 F360.000
G2 X1.516 Y-6.795 Z0.800 I13.900 J-3.844 K0.000 F360.000
G2 X22.373 Y-1.978 Z0.800 I12.577 J-6.896 K0.000 F360.000
G2 X27.113 Y-7.572 Z0.800 I-10.516 J-13.716 K0.000 F360.000
G1 X58.446 Y-7.572 Z0.800 F360.000
G2 X59.008 Y-6.546 Z0.800 I9.617 J-4.605 K0.000 F360.000
G2 X65.684 Y-0.515 Z0.800 I12.141 J-6.727 K0.000 F360.000
G2 X80.705 Y-2.872 Z0.800 I5.679 J-12.851 K0.000 F360.000
G2 X81.506 Y-3.603 Z0.800 I-9.314 J-11.008 K0.000 F360.000
G1 X81.506 Y-3.603 Z0.100 F240.000
G2 X85.041 Y-9.232 Z0.100 I-10.114 J-10.277 K0.000 F360.000
G2 X85.520 Y-11.234 Z0.100 I-8.102 J-2.995 K0.000 F360.000
G2 X85.544 Y-16.109 Z0.100 I-28.892 J-2.577 K0.000 F360.000
G2 X84.696 Y-19.036 Z0.100 I-13.306 J2.265 K0.000 F360.000
G2 X80.122 Y-25.051 Z0.100 I-13.618 J5.610 K0.000 F360.000
G2 X81.646 Y-26.456 Z0.100 I-8.460 J-10.706 K0.000 F360.000
G2 X77.137 Y-49.532 Z0.100 I-10.186 J-9.988 K0.000 F360.000
G2 X72.678 Y-50.711 Z0.100 I-5.253 J10.847 K0.000 F360.000
G2 X58.342 Y-42.501 Z0.100 I-1.316 J14.324 K0.000 F360.000
G1 X27.150 Y-42.501 Z0.100 F360.000
G2 X26.102 Y-44.265 Z0.100 I-16.073 J8.359 K0.000 F360.000
G2 X22.330 Y-48.147 Z0.100 I-11.572 J7.467 K0.000 F360.000
G2 X17.629 Y-50.352 Z0.100 I-9.857 J14.908 K0.000 F360.000
G1 X17.627 Y-50.343 Z0.100 F360.000
G1 X17.500 Y-50.385 Z0.100 F360.000
G2 X15.685 Y-50.707 Z0.100 I-3.347 J13.573 K0.000 F360.000
G2 X1.902 Y-28.780 Z0.100 I-1.549 J14.322 K0.000 F360.000
G2 X5.316 Y-25.091 Z0.100 I14.058 J-9.587 K0.000 F360.000
G2 X-0.062 Y-16.397 Z0.100 I9.339 J11.788 K0.000 F360.000
G2 X0.205 Y-9.987 Z0.100 I16.418 J2.528 K0.000 F360.000
G2 X1.516 Y-6.795 Z0.100 I13.900 J-3.844 K0.000 F360.000
G2 X22.373 Y-1.978 Z0.100 I12.577 J-6.896 K0.000 F360.000
G2 X27.113 Y-7.572 Z0.100 I-10.516 J-13.716 K0.000 F360.000
G1 X58.446 Y-7.572 Z0.100 F360.000
G2 X59.008 Y-6.546 Z0.100 I9.617 J-4.605 K0.000 F360.000
G2 X65.684 Y-0.515 Z0.100 I12.141 J-6.727 K0.000 F360.000
G2 X80.705 Y-2.872 Z0.100 I5.679 J-12.851 K0.000 F360.000
G2 X81.506 Y-3.603 Z0.100 I-9.314 J-11.008 K0.000 F360.000
G1 X81.506 Y-3.603 Z0.000 F240.000
G2 X85.041 Y-9.232 Z0.000 I-10.114 J-10.277 K0.000 F360.000
G2 X85.520 Y-11.234 Z0.000 I-8.102 J-2.995 K0.000 F360.000
G2 X85.544 Y-16.109 Z0.000 I-28.892 J-2.577 K0.000 F360.000
G2 X84.696 Y-19.036 Z0.000 I-13.306 J2.265 K0.000 F360.000
G2 X80.122 Y-25.051 Z0.000 I-13.618 J5.610 K0.000 F360.000
G2 X81.646 Y-26.456 Z0.000 I-8.460 J-10.706 K0.000 F360.000
G2 X77.137 Y-49.532 Z0.000 I-10.186 J-9.988 K0.000 F360.000
G2 X72.678 Y-50.711 Z0.000 I-5.253 J10.847 K0.000 F360.000
G2 X58.342 Y-42.501 Z0.000 I-1.316 J14.324 K0.000 F360.000
G1 X27.150 Y-42.501 Z0.000 F360.000
G2 X26.102 Y-44.265 Z0.000 I-16.073 J8.359 K0.000 F360.000
G2 X22.330 Y-48.147 Z0.000 I-11.572 J7.467 K0.000 F360.000
G2 X17.629 Y-50.352 Z0.000 I-9.857 J14.908 K0.000 F360.000
G1 X17.627 Y-50.343 Z0.000 F360.000
G1 X17.500 Y-50.385 Z0.000 F360.000
G2 X15.685 Y-50.707 Z0.000 I-3.347 J13.573 K0.000 F360.000
G2 X1.902 Y-28.780 Z0.000 I-1.549 J14.322 K0.000 F360.000
G2 X5.316 Y-25.091 Z0.000 I14.058 J-9.587 K0.000 F360.000
G2 X-0.062 Y-16.397 Z0.000 I9.339 J11.788 K0.000 F360.000
G2 X0.205 Y-9.987 Z0.000 I16.418 J2.528 K0.000 F360.000
G2 X1.516 Y-6.795 Z0.000 I13.900 J-3.844 K0.000 F360.000
G2 X22.373 Y-1.978 Z0.000 I12.577 J-6.896 K0.000 F360.000
G2 X27.113 Y-7.572 Z0.000 I-10.516 J-13.716 K0.000 F360.000
G1 X58.446 Y-7.572 Z0.000 F360.000
G2 X59.008 Y-6.546 Z0.000 I9.617 J-4.605 K0.000 F360.000
G2 X65.684 Y-0.515 Z0.000 I12.141 J-6.727 K0.000 F360.000
G2 X80.705 Y-2.872 Z0.000 I5.679 J-12.851 K0.000 F360.000
G2 X81.506 Y-3.603 Z0.000 I-9.314 J-11.008 K0.000 F360.000
G0 Z11.000
G0 Z11.000
(Finish operation: Profile)
(Begin operation: Drilling)
(Path: Drilling)
(Drilling)
(Begin Drilling)
G0 Z11.000
G90
G99
G83 X42.695 Y-12.598 Z0.000 F240.000 Q2.381 R7.000
G80
G0 Z9.000
G0 Z11.000
(Finish operation: Drilling)
(Begin postamble)
M5
G17 G90
M2
