(Exported by FreeCAD)
(Post Processor: grbl_post)
(Output Time:2022-04-10 16:34:20.418370)
(Begin preamble)
G17 G90
G21
(Begin operation: Fixture)
(Path: Fixture)
G54
(Finish operation: Fixture)
(Begin operation: 3mm_Endmill_3026)
(Path: 3mm_Endmill_3026)
(3mm_Endmill_3026)
(Begin toolchange)
( M6 T2.0 )
M3 S8000.0
(Finish operation: 3mm_Endmill_3026)
(Begin operation: Profile)
(Path: Profile)
(Profile)
(Compensated Tool Path. Diameter: 3.175)
G0 Z10.000
G0 X81.506 Y-3.603
G0 Z8.000
G1 X81.506 Y-3.603 Z4.300 F240.000
G2 X85.041 Y-9.232 Z4.300 I-10.114 J-10.277 K0.000 F360.000
G2 X85.520 Y-11.234 Z4.300 I-8.102 J-2.995 K0.000 F360.000
G2 X85.544 Y-16.109 Z4.300 I-28.892 J-2.577 K0.000 F360.000
G2 X84.696 Y-19.036 Z4.300 I-13.306 J2.265 K0.000 F360.000
G2 X80.122 Y-25.051 Z4.300 I-13.618 J5.610 K0.000 F360.000
G2 X81.646 Y-26.456 Z4.300 I-8.460 J-10.706 K0.000 F360.000
G2 X77.137 Y-49.532 Z4.300 I-10.186 J-9.988 K0.000 F360.000
G2 X72.678 Y-50.711 Z4.300 I-5.253 J10.847 K0.000 F360.000
G2 X58.342 Y-42.501 Z4.300 I-1.316 J14.324 K0.000 F360.000
G1 X27.150 Y-42.501 Z4.300 F360.000
G2 X26.102 Y-44.265 Z4.300 I-16.073 J8.359 K0.000 F360.000
G2 X22.330 Y-48.147 Z4.300 I-11.572 J7.467 K0.000 F360.000
G2 X17.629 Y-50.352 Z4.300 I-9.857 J14.908 K0.000 F360.000
G1 X17.627 Y-50.343 Z4.300 F360.000
G1 X17.500 Y-50.385 Z4.300 F360.000
G2 X15.685 Y-50.707 Z4.300 I-3.347 J13.573 K0.000 F360.000
G2 X1.902 Y-28.780 Z4.300 I-1.549 J14.322 K0.000 F360.000
G2 X5.316 Y-25.091 Z4.300 I14.058 J-9.587 K0.000 F360.000
G2 X-0.062 Y-16.397 Z4.300 I9.339 J11.788 K0.000 F360.000
G2 X0.205 Y-9.987 Z4.300 I16.418 J2.528 K0.000 F360.000
G2 X1.516 Y-6.795 Z4.300 I13.900 J-3.844 K0.000 F360.000
G2 X22.373 Y-1.978 Z4.300 I12.577 J-6.896 K0.000 F360.000
G2 X27.113 Y-7.572 Z4.300 I-10.516 J-13.716 K0.000 F360.000
G1 X58.446 Y-7.572 Z4.300 F360.000
G2 X59.008 Y-6.546 Z4.300 I9.617 J-4.605 K0.000 F360.000
G2 X65.684 Y-0.515 Z4.300 I12.141 J-6.727 K0.000 F360.000
G2 X80.705 Y-2.872 Z4.300 I5.679 J-12.851 K0.000 F360.000
G2 X81.506 Y-3.603 Z4.300 I-9.314 J-11.008 K0.000 F360.000
G1 X81.506 Y-3.603 Z3.600 F240.000
G2 X85.041 Y-9.232 Z3.600 I-10.114 J-10.277 K0.000 F360.000
G2 X85.520 Y-11.234 Z3.600 I-8.102 J-2.995 K0.000 F360.000
G2 X85.544 Y-16.109 Z3.600 I-28.892 J-2.577 K0.000 F360.000
G2 X84.696 Y-19.036 Z3.600 I-13.306 J2.265 K0.000 F360.000
G2 X80.122 Y-25.051 Z3.600 I-13.618 J5.610 K0.000 F360.000
G2 X81.646 Y-26.456 Z3.600 I-8.460 J-10.706 K0.000 F360.000
G2 X77.137 Y-49.532 Z3.600 I-10.186 J-9.988 K0.000 F360.000
G2 X72.678 Y-50.711 Z3.600 I-5.253 J10.847 K0.000 F360.000
G2 X58.342 Y-42.501 Z3.600 I-1.316 J14.324 K0.000 F360.000
G1 X27.150 Y-42.501 Z3.600 F360.000
G2 X26.102 Y-44.265 Z3.600 I-16.073 J8.359 K0.000 F360.000
G2 X22.330 Y-48.147 Z3.600 I-11.572 J7.467 K0.000 F360.000
G2 X17.629 Y-50.352 Z3.600 I-9.857 J14.908 K0.000 F360.000
G1 X17.627 Y-50.343 Z3.600 F360.000
G1 X17.500 Y-50.385 Z3.600 F360.000
G2 X15.685 Y-50.707 Z3.600 I-3.347 J13.573 K0.000 F360.000
G2 X1.902 Y-28.780 Z3.600 I-1.549 J14.322 K0.000 F360.000
G2 X5.316 Y-25.091 Z3.600 I14.058 J-9.587 K0.000 F360.000
G2 X-0.062 Y-16.397 Z3.600 I9.339 J11.788 K0.000 F360.000
G2 X0.205 Y-9.987 Z3.600 I16.418 J2.528 K0.000 F360.000
G2 X1.516 Y-6.795 Z3.600 I13.900 J-3.844 K0.000 F360.000
G2 X22.373 Y-1.978 Z3.600 I12.577 J-6.896 K0.000 F360.000
G2 X27.113 Y-7.572 Z3.600 I-10.516 J-13.716 K0.000 F360.000
G1 X58.446 Y-7.572 Z3.600 F360.000
G2 X59.008 Y-6.546 Z3.600 I9.617 J-4.605 K0.000 F360.000
G2 X65.684 Y-0.515 Z3.600 I12.141 J-6.727 K0.000 F360.000
G2 X80.705 Y-2.872 Z3.600 I5.679 J-12.851 K0.000 F360.000
G2 X81.506 Y-3.603 Z3.600 I-9.314 J-11.008 K0.000 F360.000
G1 X81.506 Y-3.603 Z2.900 F240.000
G2 X85.041 Y-9.232 Z2.900 I-10.114 J-10.277 K0.000 F360.000
G2 X85.520 Y-11.234 Z2.900 I-8.102 J-2.995 K0.000 F360.000
G2 X85.544 Y-16.109 Z2.900 I-28.892 J-2.577 K0.000 F360.000
G2 X84.696 Y-19.036 Z2.900 I-13.306 J2.265 K0.000 F360.000
G2 X80.122 Y-25.051 Z2.900 I-13.618 J5.610 K0.000 F360.000
G2 X81.646 Y-26.456 Z2.900 I-8.460 J-10.706 K0.000 F360.000
G2 X77.137 Y-49.532 Z2.900 I-10.186 J-9.988 K0.000 F360.000
G2 X72.678 Y-50.711 Z2.900 I-5.253 J10.847 K0.000 F360.000
G2 X58.342 Y-42.501 Z2.900 I-1.316 J14.324 K0.000 F360.000
G1 X27.150 Y-42.501 Z2.900 F360.000
G2 X26.102 Y-44.265 Z2.900 I-16.073 J8.359 K0.000 F360.000
G2 X22.330 Y-48.147 Z2.900 I-11.572 J7.467 K0.000 F360.000
G2 X17.629 Y-50.352 Z2.900 I-9.857 J14.908 K0.000 F360.000
G1 X17.627 Y-50.343 Z2.900 F360.000
G1 X17.500 Y-50.385 Z2.900 F360.000
G2 X15.685 Y-50.707 Z2.900 I-3.347 J13.573 K0.000 F360.000
G2 X1.902 Y-28.780 Z2.900 I-1.549 J14.322 K0.000 F360.000
G2 X5.316 Y-25.091 Z2.900 I14.058 J-9.587 K0.000 F360.000
G2 X-0.062 Y-16.397 Z2.900 I9.339 J11.788 K0.000 F360.000
G2 X0.205 Y-9.987 Z2.900 I16.418 J2.528 K0.000 F360.000
G2 X1.516 Y-6.795 Z2.900 I13.900 J-3.844 K0.000 F360.000
G2 X22.373 Y-1.978 Z2.900 I12.577 J-6.896 K0.000 F360.000
G2 X27.113 Y-7.572 Z2.900 I-10.516 J-13.716 K0.000 F360.000
G1 X58.446 Y-7.572 Z2.900 F360.000
G2 X59.008 Y-6.546 Z2.900 I9.617 J-4.605 K0.000 F360.000
G2 X65.684 Y-0.515 Z2.900 I12.141 J-6.727 K0.000 F360.000
G2 X80.705 Y-2.872 Z2.900 I5.679 J-12.851 K0.000 F360.000
G2 X81.506 Y-3.603 Z2.900 I-9.314 J-11.008 K0.000 F360.000
G1 X81.506 Y-3.603 Z2.200 F240.000
G2 X85.041 Y-9.232 Z2.200 I-10.114 J-10.277 K0.000 F360.000
G2 X85.520 Y-11.234 Z2.200 I-8.102 J-2.995 K0.000 F360.000
G2 X85.544 Y-16.109 Z2.200 I-28.892 J-2.577 K0.000 F360.000
G2 X84.696 Y-19.036 Z2.200 I-13.306 J2.265 K0.000 F360.000
G2 X80.122 Y-25.051 Z2.200 I-13.618 J5.610 K0.000 F360.000
G2 X81.646 Y-26.456 Z2.200 I-8.460 J-10.706 K0.000 F360.000
G2 X77.137 Y-49.532 Z2.200 I-10.186 J-9.988 K0.000 F360.000
G2 X72.678 Y-50.711 Z2.200 I-5.253 J10.847 K0.000 F360.000
G2 X58.342 Y-42.501 Z2.200 I-1.316 J14.324 K0.000 F360.000
G1 X27.150 Y-42.501 Z2.200 F360.000
G2 X26.102 Y-44.265 Z2.200 I-16.073 J8.359 K0.000 F360.000
G2 X22.330 Y-48.147 Z2.200 I-11.572 J7.467 K0.000 F360.000
G2 X17.629 Y-50.352 Z2.200 I-9.857 J14.908 K0.000 F360.000
G1 X17.627 Y-50.343 Z2.200 F360.000
G1 X17.500 Y-50.385 Z2.200 F360.000
G2 X15.685 Y-50.707 Z2.200 I-3.347 J13.573 K0.000 F360.000
G2 X1.902 Y-28.780 Z2.200 I-1.549 J14.322 K0.000 F360.000
G2 X5.316 Y-25.091 Z2.200 I14.058 J-9.587 K0.000 F360.000
G2 X-0.062 Y-16.397 Z2.200 I9.339 J11.788 K0.000 F360.000
G2 X0.205 Y-9.987 Z2.200 I16.418 J2.528 K0.000 F360.000
G2 X1.516 Y-6.795 Z2.200 I13.900 J-3.844 K0.000 F360.000
G2 X22.373 Y-1.978 Z2.200 I12.577 J-6.896 K0.000 F360.000
G2 X27.113 Y-7.572 Z2.200 I-10.516 J-13.716 K0.000 F360.000
G1 X58.446 Y-7.572 Z2.200 F360.000
G2 X59.008 Y-6.546 Z2.200 I9.617 J-4.605 K0.000 F360.000
G2 X65.684 Y-0.515 Z2.200 I12.141 J-6.727 K0.000 F360.000
G2 X80.705 Y-2.872 Z2.200 I5.679 J-12.851 K0.000 F360.000
G2 X81.506 Y-3.603 Z2.200 I-9.314 J-11.008 K0.000 F360.000
G1 X81.506 Y-3.603 Z1.500 F240.000
G2 X85.041 Y-9.232 Z1.500 I-10.114 J-10.277 K0.000 F360.000
G2 X85.520 Y-11.234 Z1.500 I-8.102 J-2.995 K0.000 F360.000
G2 X85.544 Y-16.109 Z1.500 I-28.892 J-2.577 K0.000 F360.000
G2 X84.696 Y-19.036 Z1.500 I-13.306 J2.265 K0.000 F360.000
G2 X80.122 Y-25.051 Z1.500 I-13.618 J5.610 K0.000 F360.000
G2 X81.646 Y-26.456 Z1.500 I-8.460 J-10.706 K0.000 F360.000
G2 X77.137 Y-49.532 Z1.500 I-10.186 J-9.988 K0.000 F360.000
G2 X72.678 Y-50.711 Z1.500 I-5.253 J10.847 K0.000 F360.000
G2 X58.342 Y-42.501 Z1.500 I-1.316 J14.324 K0.000 F360.000
G1 X27.150 Y-42.501 Z1.500 F360.000
G2 X26.102 Y-44.265 Z1.500 I-16.073 J8.359 K0.000 F360.000
G2 X22.330 Y-48.147 Z1.500 I-11.572 J7.467 K0.000 F360.000
G2 X17.629 Y-50.352 Z1.500 I-9.857 J14.908 K0.000 F360.000
G1 X17.627 Y-50.343 Z1.500 F360.000
G1 X17.500 Y-50.385 Z1.500 F360.000
G2 X15.685 Y-50.707 Z1.500 I-3.347 J13.573 K0.000 F360.000
G2 X1.902 Y-28.780 Z1.500 I-1.549 J14.322 K0.000 F360.000
G2 X5.316 Y-25.091 Z1.500 I14.058 J-9.587 K0.000 F360.000
G2 X-0.062 Y-16.397 Z1.500 I9.339 J11.788 K0.000 F360.000
G2 X0.205 Y-9.987 Z1.500 I16.418 J2.528 K0.000 F360.000
G2 X1.516 Y-6.795 Z1.500 I13.900 J-3.844 K0.000 F360.000
G2 X22.373 Y-1.978 Z1.500 I12.577 J-6.896 K0.000 F360.000
G2 X27.113 Y-7.572 Z1.500 I-10.516 J-13.716 K0.000 F360.000
G1 X58.446 Y-7.572 Z1.500 F360.000
G2 X59.008 Y-6.546 Z1.500 I9.617 J-4.605 K0.000 F360.000
G2 X65.684 Y-0.515 Z1.500 I12.141 J-6.727 K0.000 F360.000
G2 X80.705 Y-2.872 Z1.500 I5.679 J-12.851 K0.000 F360.000
G2 X81.506 Y-3.603 Z1.500 I-9.314 J-11.008 K0.000 F360.000
G1 X81.506 Y-3.603 Z0.800 F240.000
G2 X85.041 Y-9.232 Z0.800 I-10.114 J-10.277 K0.000 F360.000
G2 X85.520 Y-11.234 Z0.800 I-8.102 J-2.995 K0.000 F360.000
G2 X85.544 Y-16.109 Z0.800 I-28.892 J-2.577 K0.000 F360.000
G2 X84.696 Y-19.036 Z0.800 I-13.306 J2.265 K0.000 F360.000
G2 X80.122 Y-25.051 Z0.800 I-13.618 J5.610 K0.000 F360.000
G2 X81.646 Y-26.456 Z0.800 I-8.460 J-10.706 K0.000 F360.000
G2 X77.137 Y-49.532 Z0.800 I-10.186 J-9.988 K0.000 F360.000
G2 X72.678 Y-50.711 Z0.800 I-5.253 J10.847 K0.000 F360.000
G2 X58.342 Y-42.501 Z0.800 I-1.316 J14.324 K0.000 F360.000
G1 X27.150 Y-42.501 Z0.800 F360.000
G2 X26.102 Y-44.265 Z0.800 I-16.073 J8.359 K0.000 F360.000
G2 X22.330 Y-48.147 Z0.800 I-11.572 J7.467 K0.000 F360.000
G2 X17.629 Y-50.352 Z0.800 I-9.857 J14.908 K0.000 F360.000
G1 X17.627 Y-50.343 Z0.800 F360.000
G1 X17.500 Y-50.385 Z0.800 F360.000
G2 X15.685 Y-50.707 Z0.800 I-3.347 J13.573 K0.000 F360.000
G2 X1.902 Y-28.780 Z0.800 I-1.549 J14.322 K0.000 F360.000
G2 X5.316 Y-25.091 Z0.800 I14.058 J-9.587 K0.000 F360.000
G2 X-0.062 Y-16.397 Z0.800 I9.339 J11.788 K0.000 F360.000
G2 X0.205 Y-9.987 Z0.800 I16.418 J2.528 K0.000 F360.000
G2 X1.516 Y-6.795 Z0.800 I13.900 J-3.844 K0.000 F360.000
G2 X22.373 Y-1.978 Z0.800 I12.577 J-6.896 K0.000 F360.000
G2 X27.113 Y-7.572 Z0.800 I-10.516 J-13.716 K0.000 F360.000
G1 X58.446 Y-7.572 Z0.800 F360.000
G2 X59.008 Y-6.546 Z0.800 I9.617 J-4.605 K0.000 F360.000
G2 X65.684 Y-0.515 Z0.800 I12.141 J-6.727 K0.000 F360.000
G2 X80.705 Y-2.872 Z0.800 I5.679 J-12.851 K0.000 F360.000
G2 X81.506 Y-3.603 Z0.800 I-9.314 J-11.008 K0.000 F360.000
G1 X81.506 Y-3.603 Z0.100 F240.000
G2 X85.041 Y-9.232 Z0.100 I-10.114 J-10.277 K0.000 F360.000
G2 X85.520 Y-11.234 Z0.100 I-8.102 J-2.995 K0.000 F360.000
G2 X85.544 Y-16.109 Z0.100 I-28.892 J-2.577 K0.000 F360.000
G2 X84.696 Y-19.036 Z0.100 I-13.306 J2.265 K0.000 F360.000
G2 X80.122 Y-25.051 Z0.100 I-13.618 J5.610 K0.000 F360.000
G2 X81.646 Y-26.456 Z0.100 I-8.460 J-10.706 K0.000 F360.000
G2 X77.137 Y-49.532 Z0.100 I-10.186 J-9.988 K0.000 F360.000
G2 X72.678 Y-50.711 Z0.100 I-5.253 J10.847 K0.000 F360.000
G2 X58.342 Y-42.501 Z0.100 I-1.316 J14.324 K0.000 F360.000
G1 X27.150 Y-42.501 Z0.100 F360.000
G2 X26.102 Y-44.265 Z0.100 I-16.073 J8.359 K0.000 F360.000
G2 X22.330 Y-48.147 Z0.100 I-11.572 J7.467 K0.000 F360.000
G2 X17.629 Y-50.352 Z0.100 I-9.857 J14.908 K0.000 F360.000
G1 X17.627 Y-50.343 Z0.100 F360.000
G1 X17.500 Y-50.385 Z0.100 F360.000
G2 X15.685 Y-50.707 Z0.100 I-3.347 J13.573 K0.000 F360.000
G2 X1.902 Y-28.780 Z0.100 I-1.549 J14.322 K0.000 F360.000
G2 X5.316 Y-25.091 Z0.100 I14.058 J-9.587 K0.000 F360.000
G2 X-0.062 Y-16.397 Z0.100 I9.339 J11.788 K0.000 F360.000
G2 X0.205 Y-9.987 Z0.100 I16.418 J2.528 K0.000 F360.000
G2 X1.516 Y-6.795 Z0.100 I13.900 J-3.844 K0.000 F360.000
G2 X22.373 Y-1.978 Z0.100 I12.577 J-6.896 K0.000 F360.000
G2 X27.113 Y-7.572 Z0.100 I-10.516 J-13.716 K0.000 F360.000
G1 X58.446 Y-7.572 Z0.100 F360.000
G2 X59.008 Y-6.546 Z0.100 I9.617 J-4.605 K0.000 F360.000
G2 X65.684 Y-0.515 Z0.100 I12.141 J-6.727 K0.000 F360.000
G2 X80.705 Y-2.872 Z0.100 I5.679 J-12.851 K0.000 F360.000
G2 X81.506 Y-3.603 Z0.100 I-9.314 J-11.008 K0.000 F360.000
G1 X81.506 Y-3.603 Z0.000 F240.000
G2 X85.041 Y-9.232 Z0.000 I-10.114 J-10.277 K0.000 F360.000
G2 X85.520 Y-11.234 Z0.000 I-8.102 J-2.995 K0.000 F360.000
G2 X85.544 Y-16.109 Z0.000 I-28.892 J-2.577 K0.000 F360.000
G2 X84.696 Y-19.036 Z0.000 I-13.306 J2.265 K0.000 F360.000
G2 X80.122 Y-25.051 Z0.000 I-13.618 J5.610 K0.000 F360.000
G2 X81.646 Y-26.456 Z0.000 I-8.460 J-10.706 K0.000 F360.000
G2 X77.137 Y-49.532 Z0.000 I-10.186 J-9.988 K0.000 F360.000
G2 X72.678 Y-50.711 Z0.000 I-5.253 J10.847 K0.000 F360.000
G2 X58.342 Y-42.501 Z0.000 I-1.316 J14.324 K0.000 F360.000
G1 X27.150 Y-42.501 Z0.000 F360.000
G2 X26.102 Y-44.265 Z0.000 I-16.073 J8.359 K0.000 F360.000
G2 X22.330 Y-48.147 Z0.000 I-11.572 J7.467 K0.000 F360.000
G2 X17.629 Y-50.352 Z0.000 I-9.857 J14.908 K0.000 F360.000
G1 X17.627 Y-50.343 Z0.000 F360.000
G1 X17.500 Y-50.385 Z0.000 F360.000
G2 X15.685 Y-50.707 Z0.000 I-3.347 J13.573 K0.000 F360.000
G2 X1.902 Y-28.780 Z0.000 I-1.549 J14.322 K0.000 F360.000
G2 X5.316 Y-25.091 Z0.000 I14.058 J-9.587 K0.000 F360.000
G2 X-0.062 Y-16.397 Z0.000 I9.339 J11.788 K0.000 F360.000
G2 X0.205 Y-9.987 Z0.000 I16.418 J2.528 K0.000 F360.000
G2 X1.516 Y-6.795 Z0.000 I13.900 J-3.844 K0.000 F360.000
G2 X22.373 Y-1.978 Z0.000 I12.577 J-6.896 K0.000 F360.000
G2 X27.113 Y-7.572 Z0.000 I-10.516 J-13.716 K0.000 F360.000
G1 X58.446 Y-7.572 Z0.000 F360.000
G2 X59.008 Y-6.546 Z0.000 I9.617 J-4.605 K0.000 F360.000
G2 X65.684 Y-0.515 Z0.000 I12.141 J-6.727 K0.000 F360.000
G2 X80.705 Y-2.872 Z0.000 I5.679 J-12.851 K0.000 F360.000
G2 X81.506 Y-3.603 Z0.000 I-9.314 J-11.008 K0.000 F360.000
G0 Z10.000
G0 Z10.000
(Finish operation: Profile)
(Begin operation: Drilling)
(Path: Drilling)
(Drilling)
(Begin Drilling)
G0 Z10.000
G90
G99
G81 X42.695 Y-12.598 Z0.000 F240.000 R6.000
G80
G0 Z8.000
G0 Z10.000
(Finish operation: Drilling)
(Begin postamble)
M5
G17 G90
M2
