(Exported by FreeCAD)
(Post Processor: grbl_post)
(Output Time:2022-04-09 17:50:56.626217)
(Begin preamble)
G17 G90
G21
(Begin operation: Fixture)
(Path: Fixture)
G54
(Finish operation: Fixture)
(Begin operation: 3mm_Endmill_3019)
(Path: 3mm_Endmill_3019)
(3mm_Endmill_3019)
(Begin toolchange)
( M6 T2.0 )
M3 S8000.0
(Finish operation: 3mm_Endmill_3019)
(Begin operation: Drilling)
(Path: Drilling)
(Drilling)
(Begin Drilling)
G0 Z8.000
G90
G99
G81 X43.146 Y-27.424 Z0.500 F600.000 R4.000
G80
G0 Z6.000
G81 X29.402 Y-74.928 Z0.500 F600.000 R4.000
G80
G0 Z6.000
G81 X75.922 Y-67.174 Z0.500 F600.000 R4.000
G80
G0 Z6.000
G81 X119.173 Y-50.063 Z0.500 F600.000 R4.000
G80
G0 Z6.000
G81 X119.153 Y-31.061 Z0.500 F600.000 R4.000
G80
G0 Z6.000
G0 Z8.000
(Finish operation: Drilling)
(Begin operation: Profile)
(Path: Profile)
(Profile)
(Compensated Tool Path. Diameter: 3.175)
G0 Z8.000
G0 X34.377 Y-4.578
G0 Z6.000
G1 X34.377 Y-4.578 Z3.000 F600.000
G3 X33.337 Y-4.338 Z3.000 I-0.713 J-0.713 K0.000 F600.000
G3 X32.711 Y-5.619 Z3.000 I0.328 J-0.953 K0.000 F600.000
G3 X33.992 Y-6.244 Z3.000 I0.953 J0.328 K0.000 F600.000
G3 X34.377 Y-4.578 Z3.000 I-0.328 J0.953 K0.000 F600.000
G1 X34.377 Y-4.578 Z2.000 F600.000
G3 X33.337 Y-4.338 Z2.000 I-0.713 J-0.713 K0.000 F600.000
G3 X32.711 Y-5.619 Z2.000 I0.328 J-0.953 K0.000 F600.000
G3 X33.992 Y-6.244 Z2.000 I0.953 J0.328 K0.000 F600.000
G3 X34.377 Y-4.578 Z2.000 I-0.328 J0.953 K0.000 F600.000
G1 X34.377 Y-4.578 Z1.000 F600.000
G3 X33.337 Y-4.338 Z1.000 I-0.713 J-0.713 K0.000 F600.000
G3 X32.711 Y-5.619 Z1.000 I0.328 J-0.953 K0.000 F600.000
G3 X33.992 Y-6.244 Z1.000 I0.953 J0.328 K0.000 F600.000
G3 X34.377 Y-4.578 Z1.000 I-0.328 J0.953 K0.000 F600.000
G1 X34.377 Y-4.578 Z0.000 F600.000
G3 X33.337 Y-4.338 Z0.000 I-0.713 J-0.713 K0.000 F600.000
G3 X32.711 Y-5.619 Z0.000 I0.328 J-0.953 K0.000 F600.000
G3 X33.992 Y-6.244 Z0.000 I0.953 J0.328 K0.000 F600.000
G3 X34.377 Y-4.578 Z0.000 I-0.328 J0.953 K0.000 F600.000
G0 Z8.000
G0 Z8.000
G0 X34.377 Y-4.578
G0 X7.424 Y-87.380
G0 X7.424 Y-87.380 Z6.000
G1 X7.424 Y-87.380 Z3.000 F600.000
G3 X6.807 Y-87.377 Z3.000 I-0.312 J-0.960 K0.000 F600.000
G3 X7.416 Y-89.302 Z3.000 I0.305 J-0.962 K0.000 F600.000
G3 X7.424 Y-87.380 Z3.000 I-0.304 J0.962 K0.000 F600.000
G1 X7.424 Y-87.380 Z2.000 F600.000
G3 X6.807 Y-87.377 Z2.000 I-0.312 J-0.960 K0.000 F600.000
G3 X7.416 Y-89.302 Z2.000 I0.305 J-0.962 K0.000 F600.000
G3 X7.424 Y-87.380 Z2.000 I-0.304 J0.962 K0.000 F600.000
G1 X7.424 Y-87.380 Z1.000 F600.000
G3 X6.807 Y-87.377 Z1.000 I-0.312 J-0.960 K0.000 F600.000
G3 X7.416 Y-89.302 Z1.000 I0.305 J-0.962 K0.000 F600.000
G3 X7.424 Y-87.380 Z1.000 I-0.304 J0.962 K0.000 F600.000
G1 X7.424 Y-87.380 Z0.000 F600.000
G3 X6.807 Y-87.377 Z0.000 I-0.312 J-0.960 K0.000 F600.000
G3 X7.416 Y-89.302 Z0.000 I0.305 J-0.962 K0.000 F600.000
G3 X7.424 Y-87.380 Z0.000 I-0.304 J0.962 K0.000 F600.000
G0 Z8.000
G0 Z8.000
G0 X7.424 Y-87.380
G0 X86.867 Y-78.882
G0 X86.867 Y-78.882 Z6.000
G1 X86.867 Y-78.882 Z3.000 F600.000
G3 X87.701 Y-79.768 Z3.000 I1.002 J0.107 K0.000 F600.000
G1 X87.885 Y-79.784 Z3.000 F600.000
G3 X87.867 Y-77.767 Z3.000 I-0.015 J1.008 K0.000 F600.000
G3 X86.867 Y-78.882 Z3.000 I0.002 J-1.008 K0.000 F600.000
G1 X86.867 Y-78.882 Z2.000 F600.000
G3 X87.701 Y-79.768 Z2.000 I1.002 J0.107 K0.000 F600.000
G1 X87.885 Y-79.784 Z2.000 F600.000
G3 X87.867 Y-77.767 Z2.000 I-0.015 J1.008 K0.000 F600.000
G3 X86.867 Y-78.882 Z2.000 I0.002 J-1.008 K0.000 F600.000
G1 X86.867 Y-78.882 Z1.000 F600.000
G3 X87.701 Y-79.768 Z1.000 I1.002 J0.107 K0.000 F600.000
G1 X87.885 Y-79.784 Z1.000 F600.000
G3 X87.867 Y-77.767 Z1.000 I-0.015 J1.008 K0.000 F600.000
G3 X86.867 Y-78.882 Z1.000 I0.002 J-1.008 K0.000 F600.000
G1 X86.867 Y-78.882 Z0.000 F600.000
G3 X87.701 Y-79.768 Z0.000 I1.002 J0.107 K0.000 F600.000
G1 X87.885 Y-79.784 Z0.000 F600.000
G3 X87.867 Y-77.767 Z0.000 I-0.015 J1.008 K0.000 F600.000
G3 X86.867 Y-78.882 Z0.000 I0.002 J-1.008 K0.000 F600.000
G0 Z8.000
G0 Z8.000
G0 X86.867 Y-78.882
G0 X81.281 Y-78.794
G0 X81.281 Y-78.794 Z6.000
G1 X81.281 Y-78.794 Z3.000 F600.000
G2 X81.282 Y-78.761 Z3.000 I212.839 J-3.348 K0.000 F600.000
G2 X85.652 Y-72.570 Z3.000 I6.578 J-0.005 K0.000 F600.000
G2 X94.423 Y-78.239 Z3.000 I2.197 J-6.221 K0.000 F600.000
G2 X94.457 Y-80.587 Z3.000 I-22.045 J-1.492 K0.000 F600.000
G3 X94.631 Y-81.325 Z3.000 I1.695 J0.011 K0.000 F600.000
G2 X92.977 Y-84.695 Z3.000 I-1.654 J-1.279 K0.000 F600.000
G1 X82.599 Y-84.691 Z3.000 F600.000
G2 X80.928 Y-81.611 Z3.000 I0.012 J2.000 K0.000 F600.000
G3 X81.258 Y-80.880 Z3.000 I-1.343 J1.048 K0.000 F600.000
G2 X81.281 Y-78.794 Z3.000 I212.861 J-1.262 K0.000 F600.000
G1 X81.281 Y-78.794 Z2.000 F600.000
G2 X81.282 Y-78.761 Z2.000 I212.839 J-3.348 K0.000 F600.000
G2 X85.652 Y-72.570 Z2.000 I6.578 J-0.005 K0.000 F600.000
G2 X94.423 Y-78.239 Z2.000 I2.197 J-6.221 K0.000 F600.000
G2 X94.457 Y-80.587 Z2.000 I-22.045 J-1.492 K0.000 F600.000
G3 X94.631 Y-81.325 Z2.000 I1.695 J0.011 K0.000 F600.000
G2 X92.977 Y-84.695 Z2.000 I-1.654 J-1.279 K0.000 F600.000
G1 X82.599 Y-84.691 Z2.000 F600.000
G2 X80.928 Y-81.611 Z2.000 I0.012 J2.000 K0.000 F600.000
G3 X81.258 Y-80.880 Z2.000 I-1.343 J1.048 K0.000 F600.000
G2 X81.281 Y-78.794 Z2.000 I212.861 J-1.262 K0.000 F600.000
G1 X81.281 Y-78.794 Z1.000 F600.000
G2 X81.282 Y-78.761 Z1.000 I212.839 J-3.348 K0.000 F600.000
G2 X85.652 Y-72.570 Z1.000 I6.578 J-0.005 K0.000 F600.000
G2 X94.423 Y-78.239 Z1.000 I2.197 J-6.221 K0.000 F600.000
G2 X94.457 Y-80.587 Z1.000 I-22.045 J-1.492 K0.000 F600.000
G3 X94.631 Y-81.325 Z1.000 I1.695 J0.011 K0.000 F600.000
G2 X92.977 Y-84.695 Z1.000 I-1.654 J-1.279 K0.000 F600.000
G1 X82.599 Y-84.691 Z1.000 F600.000
G2 X80.928 Y-81.611 Z1.000 I0.012 J2.000 K0.000 F600.000
G3 X81.258 Y-80.880 Z1.000 I-1.343 J1.048 K0.000 F600.000
G2 X81.281 Y-78.794 Z1.000 I212.861 J-1.262 K0.000 F600.000
G1 X81.281 Y-78.794 Z0.000 F600.000
G2 X81.282 Y-78.761 Z0.000 I212.839 J-3.348 K0.000 F600.000
G2 X85.652 Y-72.570 Z0.000 I6.578 J-0.005 K0.000 F600.000
G2 X94.423 Y-78.239 Z0.000 I2.197 J-6.221 K0.000 F600.000
G2 X94.457 Y-80.587 Z0.000 I-22.045 J-1.492 K0.000 F600.000
G3 X94.631 Y-81.325 Z0.000 I1.695 J0.011 K0.000 F600.000
G2 X92.977 Y-84.695 Z0.000 I-1.654 J-1.279 K0.000 F600.000
G1 X82.599 Y-84.691 Z0.000 F600.000
G2 X80.928 Y-81.611 Z0.000 I0.012 J2.000 K0.000 F600.000
G3 X81.258 Y-80.880 Z0.000 I-1.343 J1.048 K0.000 F600.000
G2 X81.281 Y-78.794 Z0.000 I212.861 J-1.262 K0.000 F600.000
G0 Z8.000
G0 Z8.000
G0 X81.281 Y-78.794
G0 X101.861 Y-78.775
G0 X101.861 Y-78.775 Z6.000
G1 X101.861 Y-78.775 Z3.000 F600.000
G3 X102.701 Y-79.768 Z3.000 I1.008 J0.001 K0.000 F600.000
G1 X102.885 Y-79.784 Z3.000 F600.000
G3 X102.867 Y-77.767 Z3.000 I-0.015 J1.008 K0.000 F600.000
G3 X101.861 Y-78.775 Z3.000 I0.002 J-1.008 K0.000 F600.000
G1 X101.861 Y-78.775 Z2.000 F600.000
G3 X102.701 Y-79.768 Z2.000 I1.008 J0.001 K0.000 F600.000
G1 X102.885 Y-79.784 Z2.000 F600.000
G3 X102.867 Y-77.767 Z2.000 I-0.015 J1.008 K0.000 F600.000
G3 X101.861 Y-78.775 Z2.000 I0.002 J-1.008 K0.000 F600.000
G1 X101.861 Y-78.775 Z1.000 F600.000
G3 X102.701 Y-79.768 Z1.000 I1.008 J0.001 K0.000 F600.000
G1 X102.885 Y-79.784 Z1.000 F600.000
G3 X102.867 Y-77.767 Z1.000 I-0.015 J1.008 K0.000 F600.000
G3 X101.861 Y-78.775 Z1.000 I0.002 J-1.008 K0.000 F600.000
G1 X101.861 Y-78.775 Z0.000 F600.000
G3 X102.701 Y-79.768 Z0.000 I1.008 J0.001 K0.000 F600.000
G1 X102.885 Y-79.784 Z0.000 F600.000
G3 X102.867 Y-77.767 Z0.000 I-0.015 J1.008 K0.000 F600.000
G3 X101.861 Y-78.775 Z0.000 I0.002 J-1.008 K0.000 F600.000
G0 Z8.000
G0 Z8.000
G0 X101.861 Y-78.775
G0 X116.861 Y-78.775
G0 X116.861 Y-78.775 Z6.000
G1 X116.861 Y-78.775 Z3.000 F600.000
G3 X117.701 Y-79.768 Z3.000 I1.008 J0.000 K0.000 F600.000
G1 X117.885 Y-79.784 Z3.000 F600.000
G3 X117.867 Y-77.767 Z3.000 I-0.015 J1.008 K0.000 F600.000
G3 X116.861 Y-78.775 Z3.000 I0.002 J-1.008 K0.000 F600.000
G1 X116.861 Y-78.775 Z2.000 F600.000
G3 X117.701 Y-79.768 Z2.000 I1.008 J0.000 K0.000 F600.000
G1 X117.885 Y-79.784 Z2.000 F600.000
G3 X117.867 Y-77.767 Z2.000 I-0.015 J1.008 K0.000 F600.000
G3 X116.861 Y-78.775 Z2.000 I0.002 J-1.008 K0.000 F600.000
G1 X116.861 Y-78.775 Z1.000 F600.000
G3 X117.701 Y-79.768 Z1.000 I1.008 J0.000 K0.000 F600.000
G1 X117.885 Y-79.784 Z1.000 F600.000
G3 X117.867 Y-77.767 Z1.000 I-0.015 J1.008 K0.000 F600.000
G3 X116.861 Y-78.775 Z1.000 I0.002 J-1.008 K0.000 F600.000
G1 X116.861 Y-78.775 Z0.000 F600.000
G3 X117.701 Y-79.768 Z0.000 I1.008 J0.000 K0.000 F600.000
G1 X117.885 Y-79.784 Z0.000 F600.000
G3 X117.867 Y-77.767 Z0.000 I-0.015 J1.008 K0.000 F600.000
G3 X116.861 Y-78.775 Z0.000 I0.002 J-1.008 K0.000 F600.000
G0 Z8.000
G0 Z8.000
G0 X116.861 Y-78.775
G0 X131.861 Y-78.775
G0 X131.861 Y-78.775 Z6.000
G1 X131.861 Y-78.775 Z3.000 F600.000
G3 X132.701 Y-79.768 Z3.000 I1.008 J0.000 K0.000 F600.000
G1 X132.885 Y-79.784 Z3.000 F600.000
G3 X132.867 Y-77.767 Z3.000 I-0.015 J1.008 K0.000 F600.000
G3 X131.861 Y-78.775 Z3.000 I0.002 J-1.008 K0.000 F600.000
G1 X131.861 Y-78.775 Z2.000 F600.000
G3 X132.701 Y-79.768 Z2.000 I1.008 J0.000 K0.000 F600.000
G1 X132.885 Y-79.784 Z2.000 F600.000
G3 X132.867 Y-77.767 Z2.000 I-0.015 J1.008 K0.000 F600.000
G3 X131.861 Y-78.775 Z2.000 I0.002 J-1.008 K0.000 F600.000
G1 X131.861 Y-78.775 Z1.000 F600.000
G3 X132.701 Y-79.768 Z1.000 I1.008 J0.000 K0.000 F600.000
G1 X132.885 Y-79.784 Z1.000 F600.000
G3 X132.867 Y-77.767 Z1.000 I-0.015 J1.008 K0.000 F600.000
G3 X131.861 Y-78.775 Z1.000 I0.002 J-1.008 K0.000 F600.000
G1 X131.861 Y-78.775 Z0.000 F600.000
G3 X132.701 Y-79.768 Z0.000 I1.008 J0.000 K0.000 F600.000
G1 X132.885 Y-79.784 Z0.000 F600.000
G3 X132.867 Y-77.767 Z0.000 I-0.015 J1.008 K0.000 F600.000
G3 X131.861 Y-78.775 Z0.000 I0.002 J-1.008 K0.000 F600.000
G0 Z8.000
G0 Z8.000
G0 X131.861 Y-78.775
G0 X126.282 Y-78.761
G0 X126.282 Y-78.761 Z6.000
G1 X126.282 Y-78.761 Z3.000 F600.000
G2 X130.652 Y-72.570 Z3.000 I6.578 J-0.005 K0.000 F600.000
G2 X139.423 Y-78.239 Z3.000 I2.197 J-6.221 K0.000 F600.000
G2 X139.457 Y-80.587 Z3.000 I-22.045 J-1.492 K0.000 F600.000
G3 X139.631 Y-81.325 Z3.000 I1.695 J0.011 K0.000 F600.000
G2 X137.977 Y-84.695 Z3.000 I-1.654 J-1.279 K0.000 F600.000
G1 X127.599 Y-84.691 Z3.000 F600.000
G2 X125.928 Y-81.611 Z3.000 I0.012 J2.000 K0.000 F600.000
G3 X126.258 Y-80.880 Z3.000 I-1.343 J1.048 K0.000 F600.000
G2 X126.282 Y-78.761 Z3.000 I212.853 J-1.262 K0.000 F600.000
G0 Z8.000
G0 X124.455 Y-78.835 Z8.000
G0 X124.455 Y-78.835 Z6.000
G1 X124.455 Y-78.835 Z3.000 F600.000
G2 X124.457 Y-80.587 Z3.000 I-22.077 J-0.896 K0.000 F600.000
G3 X124.631 Y-81.325 Z3.000 I1.695 J0.011 K0.000 F600.000
G2 X122.977 Y-84.695 Z3.000 I-1.654 J-1.279 K0.000 F600.000
G1 X112.599 Y-84.691 Z3.000 F600.000
G2 X110.928 Y-81.611 Z3.000 I0.012 J2.000 K0.000 F600.000
G3 X111.258 Y-80.880 Z3.000 I-1.343 J1.048 K0.000 F600.000
G2 X111.282 Y-78.761 Z3.000 I212.853 J-1.262 K0.000 F600.000
G2 X115.652 Y-72.570 Z3.000 I6.578 J-0.005 K0.000 F600.000
G2 X124.423 Y-78.239 Z3.000 I2.197 J-6.221 K0.000 F600.000
G2 X124.455 Y-78.835 Z3.000 I-22.045 J-1.492 K0.000 F600.000
G0 Z8.000
G0 X110.016 Y-82.138 Z8.000
G0 X110.016 Y-82.138 Z6.000
G1 X110.016 Y-82.138 Z3.000 F600.000
G2 X107.977 Y-84.695 Z3.000 I-2.038 J-0.466 K0.000 F600.000
G1 X97.599 Y-84.691 Z3.000 F600.000
G2 X95.928 Y-81.611 Z3.000 I0.012 J2.000 K0.000 F600.000
G3 X96.258 Y-80.880 Z3.000 I-1.343 J1.048 K0.000 F600.000
G2 X96.282 Y-78.761 Z3.000 I212.847 J-1.262 K0.000 F600.000
G2 X100.652 Y-72.570 Z3.000 I6.578 J-0.005 K0.000 F600.000
G2 X109.423 Y-78.239 Z3.000 I2.197 J-6.221 K0.000 F600.000
G2 X109.457 Y-80.587 Z3.000 I-22.045 J-1.492 K0.000 F600.000
G3 X109.631 Y-81.325 Z3.000 I1.695 J0.011 K0.000 F600.000
G2 X110.016 Y-82.138 Z3.000 I-1.654 J-1.279 K0.000 F600.000
G1 X110.016 Y-82.138 Z2.000 F600.000
G2 X107.977 Y-84.695 Z2.000 I-2.038 J-0.466 K0.000 F600.000
G1 X97.599 Y-84.691 Z2.000 F600.000
G2 X95.928 Y-81.611 Z2.000 I0.012 J2.000 K0.000 F600.000
G3 X96.258 Y-80.880 Z2.000 I-1.343 J1.048 K0.000 F600.000
G2 X96.282 Y-78.761 Z2.000 I212.847 J-1.262 K0.000 F600.000
G2 X100.652 Y-72.570 Z2.000 I6.578 J-0.005 K0.000 F600.000
G2 X109.423 Y-78.239 Z2.000 I2.197 J-6.221 K0.000 F600.000
G2 X109.457 Y-80.587 Z2.000 I-22.045 J-1.492 K0.000 F600.000
G3 X109.631 Y-81.325 Z2.000 I1.695 J0.011 K0.000 F600.000
G2 X110.016 Y-82.138 Z2.000 I-1.654 J-1.279 K0.000 F600.000
G0 Z8.000
G0 X110.655 Y-82.274 Z8.000
G0 X110.655 Y-82.274 Z6.000
G1 X110.655 Y-82.274 Z2.000 F600.000
G2 X110.928 Y-81.611 Z2.000 I1.956 J-0.417 K0.000 F600.000
G3 X111.258 Y-80.880 Z2.000 I-1.343 J1.048 K0.000 F600.000
G2 X111.282 Y-78.761 Z2.000 I212.853 J-1.262 K0.000 F600.000
G2 X115.652 Y-72.570 Z2.000 I6.578 J-0.005 K0.000 F600.000
G2 X124.423 Y-78.239 Z2.000 I2.197 J-6.221 K0.000 F600.000
G2 X124.457 Y-80.587 Z2.000 I-22.045 J-1.492 K0.000 F600.000
G3 X124.631 Y-81.325 Z2.000 I1.695 J0.011 K0.000 F600.000
G2 X122.977 Y-84.695 Z2.000 I-1.654 J-1.279 K0.000 F600.000
G1 X112.599 Y-84.691 Z2.000 F600.000
G2 X110.655 Y-82.274 Z2.000 I0.012 J2.000 K0.000 F600.000
G0 Z8.000
G0 X125.612 Y-82.642 Z8.000
G0 X125.612 Y-82.642 Z6.000
G1 X125.612 Y-82.642 Z2.000 F600.000
G2 X125.928 Y-81.611 Z2.000 I2.000 J-0.049 K0.000 F600.000
G3 X126.258 Y-80.880 Z2.000 I-1.343 J1.048 K0.000 F600.000
G2 X126.282 Y-78.761 Z2.000 I212.853 J-1.262 K0.000 F600.000
G2 X130.652 Y-72.570 Z2.000 I6.578 J-0.005 K0.000 F600.000
G2 X139.423 Y-78.239 Z2.000 I2.197 J-6.221 K0.000 F600.000
G2 X139.457 Y-80.587 Z2.000 I-22.045 J-1.492 K0.000 F600.000
G3 X139.631 Y-81.325 Z2.000 I1.695 J0.011 K0.000 F600.000
G2 X137.977 Y-84.695 Z2.000 I-1.654 J-1.279 K0.000 F600.000
G1 X127.599 Y-84.691 Z2.000 F600.000
G2 X125.612 Y-82.642 Z2.000 I0.012 J2.000 K0.000 F600.000
G1 X125.612 Y-82.642 Z1.000 F600.000
G2 X125.928 Y-81.611 Z1.000 I2.000 J-0.049 K0.000 F600.000
G3 X126.258 Y-80.880 Z1.000 I-1.343 J1.048 K0.000 F600.000
G2 X126.282 Y-78.761 Z1.000 I212.853 J-1.262 K0.000 F600.000
G2 X130.652 Y-72.570 Z1.000 I6.578 J-0.005 K0.000 F600.000
G2 X139.423 Y-78.239 Z1.000 I2.197 J-6.221 K0.000 F600.000
G2 X139.457 Y-80.587 Z1.000 I-22.045 J-1.492 K0.000 F600.000
G3 X139.631 Y-81.325 Z1.000 I1.695 J0.011 K0.000 F600.000
G2 X137.977 Y-84.695 Z1.000 I-1.654 J-1.279 K0.000 F600.000
G1 X127.599 Y-84.691 Z1.000 F600.000
G2 X125.612 Y-82.642 Z1.000 I0.012 J2.000 K0.000 F600.000
G0 Z8.000
G0 X125.068 Y-82.634 Z8.000
G0 X125.068 Y-82.634 Z6.000
G1 X125.068 Y-82.634 Z1.000 F600.000
G2 X122.977 Y-84.695 Z1.000 I-2.090 J0.030 K0.000 F600.000
G1 X112.599 Y-84.691 Z1.000 F600.000
G2 X110.928 Y-81.611 Z1.000 I0.012 J2.000 K0.000 F600.000
G3 X111.258 Y-80.880 Z1.000 I-1.343 J1.048 K0.000 F600.000
G2 X111.282 Y-78.761 Z1.000 I212.853 J-1.262 K0.000 F600.000
G2 X115.652 Y-72.570 Z1.000 I6.578 J-0.005 K0.000 F600.000
G2 X124.423 Y-78.239 Z1.000 I2.197 J-6.221 K0.000 F600.000
G2 X124.457 Y-80.587 Z1.000 I-22.045 J-1.492 K0.000 F600.000
G3 X124.631 Y-81.325 Z1.000 I1.695 J0.011 K0.000 F600.000
G2 X125.068 Y-82.634 Z1.000 I-1.654 J-1.279 K0.000 F600.000
G0 Z8.000
G0 X110.068 Y-82.608 Z8.000
G0 X110.068 Y-82.608 Z6.000
G1 X110.068 Y-82.608 Z1.000 F600.000
G2 X107.977 Y-84.695 Z1.000 I-2.091 J0.004 K0.000 F600.000
G1 X97.599 Y-84.691 Z1.000 F600.000
G2 X95.928 Y-81.611 Z1.000 I0.012 J2.000 K0.000 F600.000
G3 X96.258 Y-80.880 Z1.000 I-1.343 J1.048 K0.000 F600.000
G2 X96.282 Y-78.761 Z1.000 I212.847 J-1.262 K0.000 F600.000
G2 X100.652 Y-72.570 Z1.000 I6.578 J-0.005 K0.000 F600.000
G2 X109.423 Y-78.239 Z1.000 I2.197 J-6.221 K0.000 F600.000
G2 X109.457 Y-80.587 Z1.000 I-22.045 J-1.492 K0.000 F600.000
G3 X109.631 Y-81.325 Z1.000 I1.695 J0.011 K0.000 F600.000
G2 X110.068 Y-82.608 Z1.000 I-1.654 J-1.279 K0.000 F600.000
G1 X110.068 Y-82.608 Z0.000 F600.000
G2 X107.977 Y-84.695 Z0.000 I-2.091 J0.004 K0.000 F600.000
G1 X97.599 Y-84.691 Z0.000 F600.000
G2 X95.928 Y-81.611 Z0.000 I0.012 J2.000 K0.000 F600.000
G3 X96.258 Y-80.880 Z0.000 I-1.343 J1.048 K0.000 F600.000
G2 X96.282 Y-78.761 Z0.000 I212.847 J-1.262 K0.000 F600.000
G2 X100.652 Y-72.570 Z0.000 I6.578 J-0.005 K0.000 F600.000
G2 X109.423 Y-78.239 Z0.000 I2.197 J-6.221 K0.000 F600.000
G2 X109.457 Y-80.587 Z0.000 I-22.045 J-1.492 K0.000 F600.000
G3 X109.631 Y-81.325 Z0.000 I1.695 J0.011 K0.000 F600.000
G2 X110.068 Y-82.608 Z0.000 I-1.654 J-1.279 K0.000 F600.000
G0 Z8.000
G0 X110.612 Y-82.626 Z8.000
G0 X110.612 Y-82.626 Z6.000
G1 X110.612 Y-82.626 Z0.000 F600.000
G2 X110.928 Y-81.611 Z0.000 I1.999 J-0.065 K0.000 F600.000
G3 X111.258 Y-80.880 Z0.000 I-1.343 J1.048 K0.000 F600.000
G2 X111.282 Y-78.761 Z0.000 I212.853 J-1.262 K0.000 F600.000
G2 X115.652 Y-72.570 Z0.000 I6.578 J-0.005 K0.000 F600.000
G2 X124.423 Y-78.239 Z0.000 I2.197 J-6.221 K0.000 F600.000
G2 X124.457 Y-80.587 Z0.000 I-22.045 J-1.492 K0.000 F600.000
G3 X124.631 Y-81.325 Z0.000 I1.695 J0.011 K0.000 F600.000
G2 X122.977 Y-84.695 Z0.000 I-1.654 J-1.279 K0.000 F600.000
G1 X112.599 Y-84.691 Z0.000 F600.000
G2 X110.612 Y-82.626 Z0.000 I0.012 J2.000 K0.000 F600.000
G0 Z8.000
G0 X125.611 Y-82.683 Z8.000
G0 X125.611 Y-82.683 Z6.000
G1 X125.611 Y-82.683 Z0.000 F600.000
G2 X125.928 Y-81.611 Z0.000 I2.000 J-0.008 K0.000 F600.000
G3 X126.258 Y-80.880 Z0.000 I-1.343 J1.048 K0.000 F600.000
G2 X126.282 Y-78.761 Z0.000 I212.853 J-1.262 K0.000 F600.000
G2 X130.652 Y-72.570 Z0.000 I6.578 J-0.005 K0.000 F600.000
G2 X139.423 Y-78.239 Z0.000 I2.197 J-6.221 K0.000 F600.000
G2 X139.457 Y-80.587 Z0.000 I-22.045 J-1.492 K0.000 F600.000
G3 X139.631 Y-81.325 Z0.000 I1.695 J0.011 K0.000 F600.000
G2 X137.977 Y-84.695 Z0.000 I-1.654 J-1.279 K0.000 F600.000
G1 X127.599 Y-84.691 Z0.000 F600.000
G2 X125.611 Y-82.683 Z0.000 I0.012 J2.000 K0.000 F600.000
G0 Z8.000
G0 Z8.000
G0 X125.611 Y-82.683
G0 X141.968 Y-60.181
G0 X141.968 Y-60.181 Z6.000
G1 X141.968 Y-60.181 Z3.000 F600.000
G3 X142.889 Y-60.319 Z3.000 I0.592 J0.815 K0.000 F600.000
G3 X143.514 Y-59.038 Z3.000 I-0.328 J0.953 K0.000 F600.000
G3 X142.233 Y-58.413 Z3.000 I-0.953 J-0.328 K0.000 F600.000
G3 X141.968 Y-60.181 Z3.000 I0.328 J-0.953 K0.000 F600.000
G1 X141.968 Y-60.181 Z2.000 F600.000
G3 X142.889 Y-60.319 Z2.000 I0.592 J0.815 K0.000 F600.000
G3 X143.514 Y-59.038 Z2.000 I-0.328 J0.953 K0.000 F600.000
G3 X142.233 Y-58.413 Z2.000 I-0.953 J-0.328 K0.000 F600.000
G3 X141.968 Y-60.181 Z2.000 I0.328 J-0.953 K0.000 F600.000
G1 X141.968 Y-60.181 Z1.000 F600.000
G3 X142.889 Y-60.319 Z1.000 I0.592 J0.815 K0.000 F600.000
G3 X143.514 Y-59.038 Z1.000 I-0.328 J0.953 K0.000 F600.000
G3 X142.233 Y-58.413 Z1.000 I-0.953 J-0.328 K0.000 F600.000
G3 X141.968 Y-60.181 Z1.000 I0.328 J-0.953 K0.000 F600.000
G1 X141.968 Y-60.181 Z0.000 F600.000
G3 X142.889 Y-60.319 Z0.000 I0.592 J0.815 K0.000 F600.000
G3 X143.514 Y-59.038 Z0.000 I-0.328 J0.953 K0.000 F600.000
G3 X142.233 Y-58.413 Z0.000 I-0.953 J-0.328 K0.000 F600.000
G3 X141.968 Y-60.181 Z0.000 I0.328 J-0.953 K0.000 F600.000
G0 Z8.000
G0 Z8.000
G0 X141.968 Y-60.181
G0 X142.536 Y-22.349
G0 X142.536 Y-22.349 Z6.000
G1 X142.536 Y-22.349 Z3.000 F600.000
G3 X142.879 Y-22.295 Z3.000 I0.015 J1.008 K0.000 F600.000
G3 X142.224 Y-20.389 Z3.000 I-0.328 J0.953 K0.000 F600.000
G3 X142.536 Y-22.349 Z3.000 I0.328 J-0.953 K0.000 F600.000
G1 X142.536 Y-22.349 Z2.000 F600.000
G3 X142.879 Y-22.295 Z2.000 I0.015 J1.008 K0.000 F600.000
G3 X142.224 Y-20.389 Z2.000 I-0.328 J0.953 K0.000 F600.000
G3 X142.536 Y-22.349 Z2.000 I0.328 J-0.953 K0.000 F600.000
G1 X142.536 Y-22.349 Z1.000 F600.000
G3 X142.879 Y-22.295 Z1.000 I0.015 J1.008 K0.000 F600.000
G3 X142.224 Y-20.389 Z1.000 I-0.328 J0.953 K0.000 F600.000
G3 X142.536 Y-22.349 Z1.000 I0.328 J-0.953 K0.000 F600.000
G1 X142.536 Y-22.349 Z0.000 F600.000
G3 X142.879 Y-22.295 Z0.000 I0.015 J1.008 K0.000 F600.000
G3 X142.224 Y-20.389 Z0.000 I-0.328 J0.953 K0.000 F600.000
G3 X142.536 Y-22.349 Z0.000 I0.328 J-0.953 K0.000 F600.000
G0 Z8.000
G0 Z8.000
G0 X142.536 Y-22.349
G0 X142.855 Y-27.915
G0 X142.855 Y-27.915 Z6.000
G1 X142.855 Y-27.915 Z3.000 F600.000
G2 X140.732 Y-27.929 Z3.000 I-1.196 J20.890 K0.000 F600.000
G3 X139.257 Y-29.404 Z3.000 I-0.050 J-1.426 K0.000 F600.000
G1 X139.264 Y-51.303 Z3.000 F600.000
G3 X140.456 Y-52.756 Z3.000 I1.420 J-0.050 K0.000 F600.000
G3 X142.359 Y-52.776 Z3.000 I3.020 J201.275 K0.000 F600.000
G2 X145.206 Y-53.365 Z3.000 I0.058 J-6.894 K0.000 F600.000
G2 X143.281 Y-65.912 Z3.000 I-2.628 J-6.018 K0.000 F600.000
G2 X140.742 Y-65.953 Z3.000 I-1.612 J20.862 K0.000 F600.000
G3 X139.288 Y-67.146 Z3.000 I-0.051 J-1.421 K0.000 F600.000
G3 X139.254 Y-68.202 Z3.000 I8.174 J-0.793 K0.000 F600.000
G2 X137.166 Y-70.267 Z3.000 I-2.088 J0.023 K0.000 F600.000
G1 X82.723 Y-70.267 Z3.000 F600.000
G1 X72.544 Y-84.217 Z3.000 F600.000
G2 X71.191 Y-84.993 Z3.000 I-1.674 J1.350 K0.000 F600.000
G1 X34.440 Y-90.457 Z3.000 F600.000
G1 X19.880 Y-98.838 Z3.000 F600.000
G2 X19.237 Y-99.116 Z3.000 I-1.348 J2.231 K0.000 F600.000
G2 X16.496 Y-98.043 Z3.000 I-0.652 J2.373 K0.000 F600.000
G1 X13.988 Y-93.673 Z3.000 F600.000
G3 X11.966 Y-93.134 Z3.000 I-1.261 J-0.667 K0.000 F600.000
G1 X10.411 Y-94.041 Z3.000 F600.000
G2 X3.232 Y-83.018 Z3.000 I-3.298 J5.701 K0.000 F600.000
G2 X5.406 Y-81.703 Z3.000 I13.572 J-19.988 K0.000 F600.000
G3 X5.941 Y-79.697 Z3.000 I-0.680 J1.255 K0.000 F600.000
G1 X3.246 Y-74.977 Z3.000 F600.000
G2 X2.322 Y-71.892 Z3.000 I5.588 J3.353 K0.000 F600.000
G1 X2.322 Y-12.932 Z3.000 F600.000
G2 X4.410 Y-10.844 Z3.000 I2.088 J-0.000 K0.000 F600.000
G1 X23.072 Y-10.844 Z3.000 F600.000
G2 X23.922 Y-9.003 Z3.000 I2.084 J0.154 K0.000 F600.000
G2 X25.589 Y-8.602 Z3.000 I1.333 J-1.879 K0.000 F600.000
G3 X27.055 Y-7.394 Z3.000 I0.036 J1.449 K0.000 F600.000
G3 X27.073 Y-5.403 Z3.000 I-341.322 J3.946 K0.000 F600.000
G2 X33.533 Y1.292 Z3.000 I6.578 J0.118 K0.000 F600.000
G2 X40.218 Y-4.765 Z3.000 I0.094 J-6.613 K0.000 F600.000
G2 X40.252 Y-7.112 Z3.000 I-22.032 J-1.490 K0.000 F600.000
G3 X40.836 Y-8.313 Z3.000 I1.432 J-0.046 K0.000 F600.000
G3 X42.072 Y-8.587 Z3.000 I0.957 J1.393 K0.000 F600.000
G1 X42.072 Y-8.175 Z3.000 F600.000
G2 X44.160 Y-6.088 Z3.000 I2.088 J-0.000 K0.000 F600.000
G1 X61.074 Y-6.088 Z3.000 F600.000
G2 X63.161 Y-3.838 Z3.000 I2.111 J0.135 K0.000 F600.000
G1 X80.163 Y-3.838 Z3.000 F600.000
G2 X82.250 Y-6.088 Z3.000 I-0.004 J-2.097 K0.000 F600.000
G1 X99.164 Y-6.088 Z3.000 F600.000
G2 X101.252 Y-8.175 Z3.000 I-0.000 J-2.088 K0.000 F600.000
G1 X101.252 Y-10.839 Z3.000 F600.000
G1 X137.166 Y-10.839 Z3.000 F600.000
G2 X139.253 Y-12.979 Z3.000 I-0.000 J-2.088 K0.000 F600.000
G3 X140.449 Y-14.733 Z3.000 I1.457 J-0.292 K0.000 F600.000
G3 X142.350 Y-14.752 Z3.000 I3.516 J260.196 K0.000 F600.000
G2 X145.196 Y-15.341 Z3.000 I0.058 J-6.894 K0.000 F600.000
G2 X143.271 Y-27.887 Z3.000 I-2.628 J-6.018 K0.000 F600.000
G2 X142.855 Y-27.915 Z3.000 I-1.612 J20.862 K0.000 F600.000
G1 X142.855 Y-27.915 Z2.000 F600.000
G2 X140.732 Y-27.929 Z2.000 I-1.196 J20.890 K0.000 F600.000
G3 X139.257 Y-29.404 Z2.000 I-0.050 J-1.426 K0.000 F600.000
G1 X139.264 Y-51.303 Z2.000 F600.000
G3 X140.456 Y-52.756 Z2.000 I1.420 J-0.050 K0.000 F600.000
G3 X142.359 Y-52.776 Z2.000 I3.020 J201.275 K0.000 F600.000
G2 X145.206 Y-53.365 Z2.000 I0.058 J-6.894 K0.000 F600.000
G2 X143.281 Y-65.912 Z2.000 I-2.628 J-6.018 K0.000 F600.000
G2 X140.742 Y-65.953 Z2.000 I-1.612 J20.862 K0.000 F600.000
G3 X139.288 Y-67.146 Z2.000 I-0.051 J-1.421 K0.000 F600.000
G3 X139.254 Y-68.202 Z2.000 I8.174 J-0.793 K0.000 F600.000
G2 X137.166 Y-70.267 Z2.000 I-2.088 J0.023 K0.000 F600.000
G1 X82.723 Y-70.267 Z2.000 F600.000
G1 X72.544 Y-84.217 Z2.000 F600.000
G2 X71.191 Y-84.993 Z2.000 I-1.674 J1.350 K0.000 F600.000
G1 X34.440 Y-90.457 Z2.000 F600.000
G1 X19.880 Y-98.838 Z2.000 F600.000
G2 X19.237 Y-99.116 Z2.000 I-1.348 J2.231 K0.000 F600.000
G2 X16.496 Y-98.043 Z2.000 I-0.652 J2.373 K0.000 F600.000
G1 X13.988 Y-93.673 Z2.000 F600.000
G3 X11.966 Y-93.134 Z2.000 I-1.261 J-0.667 K0.000 F600.000
G1 X10.411 Y-94.041 Z2.000 F600.000
G2 X3.232 Y-83.018 Z2.000 I-3.298 J5.701 K0.000 F600.000
G2 X5.406 Y-81.703 Z2.000 I13.572 J-19.988 K0.000 F600.000
G3 X5.941 Y-79.697 Z2.000 I-0.680 J1.255 K0.000 F600.000
G1 X3.246 Y-74.977 Z2.000 F600.000
G2 X2.322 Y-71.892 Z2.000 I5.588 J3.353 K0.000 F600.000
G1 X2.322 Y-12.932 Z2.000 F600.000
G2 X4.410 Y-10.844 Z2.000 I2.088 J-0.000 K0.000 F600.000
G1 X23.072 Y-10.844 Z2.000 F600.000
G2 X23.922 Y-9.003 Z2.000 I2.084 J0.154 K0.000 F600.000
G2 X25.589 Y-8.602 Z2.000 I1.333 J-1.879 K0.000 F600.000
G3 X27.055 Y-7.394 Z2.000 I0.036 J1.449 K0.000 F600.000
G3 X27.073 Y-5.403 Z2.000 I-341.322 J3.946 K0.000 F600.000
G2 X33.533 Y1.292 Z2.000 I6.578 J0.118 K0.000 F600.000
G2 X40.218 Y-4.765 Z2.000 I0.094 J-6.613 K0.000 F600.000
G2 X40.252 Y-7.112 Z2.000 I-22.032 J-1.490 K0.000 F600.000
G3 X40.836 Y-8.313 Z2.000 I1.432 J-0.046 K0.000 F600.000
G3 X42.072 Y-8.587 Z2.000 I0.957 J1.393 K0.000 F600.000
G1 X42.072 Y-8.175 Z2.000 F600.000
G2 X44.160 Y-6.088 Z2.000 I2.088 J-0.000 K0.000 F600.000
G1 X61.074 Y-6.088 Z2.000 F600.000
G2 X63.161 Y-3.838 Z2.000 I2.111 J0.135 K0.000 F600.000
G1 X80.163 Y-3.838 Z2.000 F600.000
G2 X82.250 Y-6.088 Z2.000 I-0.004 J-2.097 K0.000 F600.000
G1 X99.164 Y-6.088 Z2.000 F600.000
G2 X101.252 Y-8.175 Z2.000 I-0.000 J-2.088 K0.000 F600.000
G1 X101.252 Y-10.839 Z2.000 F600.000
G1 X137.166 Y-10.839 Z2.000 F600.000
G2 X139.253 Y-12.979 Z2.000 I-0.000 J-2.088 K0.000 F600.000
G3 X140.449 Y-14.733 Z2.000 I1.457 J-0.292 K0.000 F600.000
G3 X142.350 Y-14.752 Z2.000 I3.516 J260.196 K0.000 F600.000
G2 X145.196 Y-15.341 Z2.000 I0.058 J-6.894 K0.000 F600.000
G2 X143.271 Y-27.887 Z2.000 I-2.628 J-6.018 K0.000 F600.000
G2 X142.855 Y-27.915 Z2.000 I-1.612 J20.862 K0.000 F600.000
G1 X142.855 Y-27.915 Z1.000 F600.000
G2 X140.732 Y-27.929 Z1.000 I-1.196 J20.890 K0.000 F600.000
G3 X139.257 Y-29.404 Z1.000 I-0.050 J-1.426 K0.000 F600.000
G1 X139.264 Y-51.303 Z1.000 F600.000
G3 X140.456 Y-52.756 Z1.000 I1.420 J-0.050 K0.000 F600.000
G3 X142.359 Y-52.776 Z1.000 I3.020 J201.275 K0.000 F600.000
G2 X145.206 Y-53.365 Z1.000 I0.058 J-6.894 K0.000 F600.000
G2 X143.281 Y-65.912 Z1.000 I-2.628 J-6.018 K0.000 F600.000
G2 X140.742 Y-65.953 Z1.000 I-1.612 J20.862 K0.000 F600.000
G3 X139.288 Y-67.146 Z1.000 I-0.051 J-1.421 K0.000 F600.000
G3 X139.254 Y-68.202 Z1.000 I8.174 J-0.793 K0.000 F600.000
G2 X137.166 Y-70.267 Z1.000 I-2.088 J0.023 K0.000 F600.000
G1 X82.723 Y-70.267 Z1.000 F600.000
G1 X72.544 Y-84.217 Z1.000 F600.000
G2 X71.191 Y-84.993 Z1.000 I-1.674 J1.350 K0.000 F600.000
G1 X34.440 Y-90.457 Z1.000 F600.000
G1 X19.880 Y-98.838 Z1.000 F600.000
G2 X19.237 Y-99.116 Z1.000 I-1.348 J2.231 K0.000 F600.000
G2 X16.496 Y-98.043 Z1.000 I-0.652 J2.373 K0.000 F600.000
G1 X13.988 Y-93.673 Z1.000 F600.000
G3 X11.966 Y-93.134 Z1.000 I-1.261 J-0.667 K0.000 F600.000
G1 X10.411 Y-94.041 Z1.000 F600.000
G2 X3.232 Y-83.018 Z1.000 I-3.298 J5.701 K0.000 F600.000
G2 X5.406 Y-81.703 Z1.000 I13.572 J-19.988 K0.000 F600.000
G3 X5.941 Y-79.697 Z1.000 I-0.680 J1.255 K0.000 F600.000
G1 X3.246 Y-74.977 Z1.000 F600.000
G2 X2.322 Y-71.892 Z1.000 I5.588 J3.353 K0.000 F600.000
G1 X2.322 Y-12.932 Z1.000 F600.000
G2 X4.410 Y-10.844 Z1.000 I2.088 J-0.000 K0.000 F600.000
G1 X23.072 Y-10.844 Z1.000 F600.000
G2 X23.922 Y-9.003 Z1.000 I2.084 J0.154 K0.000 F600.000
G2 X25.589 Y-8.602 Z1.000 I1.333 J-1.879 K0.000 F600.000
G3 X27.055 Y-7.394 Z1.000 I0.036 J1.449 K0.000 F600.000
G3 X27.073 Y-5.403 Z1.000 I-341.322 J3.946 K0.000 F600.000
G2 X33.533 Y1.292 Z1.000 I6.578 J0.118 K0.000 F600.000
G2 X40.218 Y-4.765 Z1.000 I0.094 J-6.613 K0.000 F600.000
G2 X40.252 Y-7.112 Z1.000 I-22.032 J-1.490 K0.000 F600.000
G3 X40.836 Y-8.313 Z1.000 I1.432 J-0.046 K0.000 F600.000
G3 X42.072 Y-8.587 Z1.000 I0.957 J1.393 K0.000 F600.000
G1 X42.072 Y-8.175 Z1.000 F600.000
G2 X44.160 Y-6.088 Z1.000 I2.088 J-0.000 K0.000 F600.000
G1 X61.074 Y-6.088 Z1.000 F600.000
G2 X63.161 Y-3.838 Z1.000 I2.111 J0.135 K0.000 F600.000
G1 X80.163 Y-3.838 Z1.000 F600.000
G2 X82.250 Y-6.088 Z1.000 I-0.004 J-2.097 K0.000 F600.000
G1 X99.164 Y-6.088 Z1.000 F600.000
G2 X101.252 Y-8.175 Z1.000 I-0.000 J-2.088 K0.000 F600.000
G1 X101.252 Y-10.839 Z1.000 F600.000
G1 X137.166 Y-10.839 Z1.000 F600.000
G2 X139.253 Y-12.979 Z1.000 I-0.000 J-2.088 K0.000 F600.000
G3 X140.449 Y-14.733 Z1.000 I1.457 J-0.292 K0.000 F600.000
G3 X142.350 Y-14.752 Z1.000 I3.516 J260.196 K0.000 F600.000
G2 X145.196 Y-15.341 Z1.000 I0.058 J-6.894 K0.000 F600.000
G2 X143.271 Y-27.887 Z1.000 I-2.628 J-6.018 K0.000 F600.000
G2 X142.855 Y-27.915 Z1.000 I-1.612 J20.862 K0.000 F600.000
G1 X142.855 Y-27.915 Z0.000 F600.000
G2 X140.732 Y-27.929 Z0.000 I-1.196 J20.890 K0.000 F600.000
G3 X139.257 Y-29.404 Z0.000 I-0.050 J-1.426 K0.000 F600.000
G1 X139.264 Y-51.303 Z0.000 F600.000
G3 X140.456 Y-52.756 Z0.000 I1.420 J-0.050 K0.000 F600.000
G3 X142.359 Y-52.776 Z0.000 I3.020 J201.275 K0.000 F600.000
G2 X145.206 Y-53.365 Z0.000 I0.058 J-6.894 K0.000 F600.000
G2 X143.281 Y-65.912 Z0.000 I-2.628 J-6.018 K0.000 F600.000
G2 X140.742 Y-65.953 Z0.000 I-1.612 J20.862 K0.000 F600.000
G3 X139.288 Y-67.146 Z0.000 I-0.051 J-1.421 K0.000 F600.000
G3 X139.254 Y-68.202 Z0.000 I8.174 J-0.793 K0.000 F600.000
G2 X137.166 Y-70.267 Z0.000 I-2.088 J0.023 K0.000 F600.000
G1 X82.723 Y-70.267 Z0.000 F600.000
G1 X72.544 Y-84.217 Z0.000 F600.000
G2 X71.191 Y-84.993 Z0.000 I-1.674 J1.350 K0.000 F600.000
G1 X34.440 Y-90.457 Z0.000 F600.000
G1 X19.880 Y-98.838 Z0.000 F600.000
G2 X19.237 Y-99.116 Z0.000 I-1.348 J2.231 K0.000 F600.000
G2 X16.496 Y-98.043 Z0.000 I-0.652 J2.373 K0.000 F600.000
G1 X13.988 Y-93.673 Z0.000 F600.000
G3 X11.966 Y-93.134 Z0.000 I-1.261 J-0.667 K0.000 F600.000
G1 X10.411 Y-94.041 Z0.000 F600.000
G2 X3.232 Y-83.018 Z0.000 I-3.298 J5.701 K0.000 F600.000
G2 X5.406 Y-81.703 Z0.000 I13.572 J-19.988 K0.000 F600.000
G3 X5.941 Y-79.697 Z0.000 I-0.680 J1.255 K0.000 F600.000
G1 X3.246 Y-74.977 Z0.000 F600.000
G2 X2.322 Y-71.892 Z0.000 I5.588 J3.353 K0.000 F600.000
G1 X2.322 Y-12.932 Z0.000 F600.000
G2 X4.410 Y-10.844 Z0.000 I2.088 J-0.000 K0.000 F600.000
G1 X23.072 Y-10.844 Z0.000 F600.000
G2 X23.922 Y-9.003 Z0.000 I2.084 J0.154 K0.000 F600.000
G2 X25.589 Y-8.602 Z0.000 I1.333 J-1.879 K0.000 F600.000
G3 X27.055 Y-7.394 Z0.000 I0.036 J1.449 K0.000 F600.000
G3 X27.073 Y-5.403 Z0.000 I-341.322 J3.946 K0.000 F600.000
G2 X33.533 Y1.292 Z0.000 I6.578 J0.118 K0.000 F600.000
G2 X40.218 Y-4.765 Z0.000 I0.094 J-6.613 K0.000 F600.000
G2 X40.252 Y-7.112 Z0.000 I-22.032 J-1.490 K0.000 F600.000
G3 X40.836 Y-8.313 Z0.000 I1.432 J-0.046 K0.000 F600.000
G3 X42.072 Y-8.587 Z0.000 I0.957 J1.393 K0.000 F600.000
G1 X42.072 Y-8.175 Z0.000 F600.000
G2 X44.160 Y-6.088 Z0.000 I2.088 J-0.000 K0.000 F600.000
G1 X61.074 Y-6.088 Z0.000 F600.000
G2 X63.161 Y-3.838 Z0.000 I2.111 J0.135 K0.000 F600.000
G1 X80.163 Y-3.838 Z0.000 F600.000
G2 X82.250 Y-6.088 Z0.000 I-0.004 J-2.097 K0.000 F600.000
G1 X99.164 Y-6.088 Z0.000 F600.000
G2 X101.252 Y-8.175 Z0.000 I-0.000 J-2.088 K0.000 F600.000
G1 X101.252 Y-10.839 Z0.000 F600.000
G1 X137.166 Y-10.839 Z0.000 F600.000
G2 X139.253 Y-12.979 Z0.000 I-0.000 J-2.088 K0.000 F600.000
G3 X140.449 Y-14.733 Z0.000 I1.457 J-0.292 K0.000 F600.000
G3 X142.350 Y-14.752 Z0.000 I3.516 J260.196 K0.000 F600.000
G2 X145.196 Y-15.341 Z0.000 I0.058 J-6.894 K0.000 F600.000
G2 X143.271 Y-27.887 Z0.000 I-2.628 J-6.018 K0.000 F600.000
G2 X142.855 Y-27.915 Z0.000 I-1.612 J20.862 K0.000 F600.000
G0 Z8.000
G0 Z8.000
(Finish operation: Profile)
(Begin postamble)
M5
G17 G90
M2
