(Exported by FreeCAD)
(Post Processor: grbl_post)
(Output Time:2022-04-11 14:25:59.528290)
(Begin preamble)
G17 G90
G21
(Begin operation: Fixture)
(Path: Fixture)
G54
(Finish operation: Fixture)
(Begin operation: 3mm_Endmill_3022)
(Path: 3mm_Endmill_3022)
(3mm_Endmill_3022)
(Begin toolchange)
( M6 T2.0 )
M3 S8000.0
(Finish operation: 3mm_Endmill_3022)
(Begin operation: Profile001)
(Path: Profile001)
(Profile001)
(Compensated Tool Path. Diameter: 3.175)
G0 Z8.000
G0 X178.246 Y-111.623
G0 Z6.000
G1 X178.246 Y-111.623 Z3.000 F180.000
G3 X177.206 Y-111.382 Z3.000 I-0.713 J-0.713 K0.000 F240.000
G3 X177.861 Y-113.288 Z3.000 I0.328 J-0.953 K0.000 F240.000
G3 X178.246 Y-111.623 Z3.000 I-0.328 J0.953 K0.000 F240.000
G1 X178.246 Y-111.623 Z2.500 F180.000
G3 X177.206 Y-111.382 Z2.500 I-0.713 J-0.713 K0.000 F240.000
G3 X177.861 Y-113.288 Z2.500 I0.328 J-0.953 K0.000 F240.000
G3 X178.246 Y-111.623 Z2.500 I-0.328 J0.953 K0.000 F240.000
G1 X178.246 Y-111.623 Z2.000 F180.000
G3 X177.206 Y-111.382 Z2.000 I-0.713 J-0.713 K0.000 F240.000
G3 X177.861 Y-113.288 Z2.000 I0.328 J-0.953 K0.000 F240.000
G3 X178.246 Y-111.623 Z2.000 I-0.328 J0.953 K0.000 F240.000
G1 X178.246 Y-111.623 Z1.500 F180.000
G3 X177.206 Y-111.382 Z1.500 I-0.713 J-0.713 K0.000 F240.000
G3 X177.861 Y-113.288 Z1.500 I0.328 J-0.953 K0.000 F240.000
G3 X178.246 Y-111.623 Z1.500 I-0.328 J0.953 K0.000 F240.000
G1 X178.246 Y-111.623 Z1.000 F180.000
G3 X177.206 Y-111.382 Z1.000 I-0.713 J-0.713 K0.000 F240.000
G3 X177.861 Y-113.288 Z1.000 I0.328 J-0.953 K0.000 F240.000
G3 X178.246 Y-111.623 Z1.000 I-0.328 J0.953 K0.000 F240.000
G1 X178.246 Y-111.623 Z0.500 F180.000
G3 X177.206 Y-111.382 Z0.500 I-0.713 J-0.713 K0.000 F240.000
G3 X177.861 Y-113.288 Z0.500 I0.328 J-0.953 K0.000 F240.000
G3 X178.246 Y-111.623 Z0.500 I-0.328 J0.953 K0.000 F240.000
G1 X178.246 Y-111.623 Z0.000 F180.000
G3 X177.206 Y-111.382 Z0.000 I-0.713 J-0.713 K0.000 F240.000
G3 X177.861 Y-113.288 Z0.000 I0.328 J-0.953 K0.000 F240.000
G3 X178.246 Y-111.623 Z0.000 I-0.328 J0.953 K0.000 F240.000
G0 Z8.000
G0 Z8.000
G0 X178.246 Y-111.623
G0 Y-120.873
G0 Y-120.873 Z6.000
G1 X178.246 Y-120.873 Z3.000 F180.000
G1 X172.195 Y-120.873 Z3.000 F240.000
G1 X172.195 Y-131.549 Z3.000 F240.000
G1 X182.871 Y-131.549 Z3.000 F240.000
G1 X182.871 Y-120.873 Z3.000 F240.000
G1 X178.246 Y-120.873 Z3.000 F240.000
G1 X178.246 Y-120.873 Z2.500 F180.000
G1 X172.195 Y-120.873 Z2.500 F240.000
G1 X172.195 Y-131.549 Z2.500 F240.000
G1 X182.871 Y-131.549 Z2.500 F240.000
G1 X182.871 Y-120.873 Z2.500 F240.000
G1 X178.246 Y-120.873 Z2.500 F240.000
G1 X178.246 Y-120.873 Z2.000 F180.000
G1 X172.195 Y-120.873 Z2.000 F240.000
G1 X172.195 Y-131.549 Z2.000 F240.000
G1 X182.871 Y-131.549 Z2.000 F240.000
G1 X182.871 Y-120.873 Z2.000 F240.000
G1 X178.246 Y-120.873 Z2.000 F240.000
G1 X178.246 Y-120.873 Z1.500 F180.000
G1 X172.195 Y-120.873 Z1.500 F240.000
G1 X172.195 Y-131.549 Z1.500 F240.000
G1 X182.871 Y-131.549 Z1.500 F240.000
G1 X182.871 Y-120.873 Z1.500 F240.000
G1 X178.246 Y-120.873 Z1.500 F240.000
G1 X178.246 Y-120.873 Z1.000 F180.000
G1 X172.195 Y-120.873 Z1.000 F240.000
G1 X172.195 Y-131.549 Z1.000 F240.000
G1 X182.871 Y-131.549 Z1.000 F240.000
G1 X182.871 Y-120.873 Z1.000 F240.000
G1 X178.246 Y-120.873 Z1.000 F240.000
G1 X178.246 Y-120.873 Z0.500 F180.000
G1 X172.195 Y-120.873 Z0.500 F240.000
G1 X172.195 Y-131.549 Z0.500 F240.000
G1 X182.871 Y-131.549 Z0.500 F240.000
G1 X182.871 Y-120.873 Z0.500 F240.000
G1 X178.246 Y-120.873 Z0.500 F240.000
G1 X178.246 Y-120.873 Z0.000 F180.000
G1 X172.195 Y-120.873 Z0.000 F240.000
G1 X172.195 Y-131.549 Z0.000 F240.000
G1 X182.871 Y-131.549 Z0.000 F240.000
G1 X182.871 Y-120.873 Z0.000 F240.000
G1 X178.246 Y-120.873 Z0.000 F240.000
G0 Z8.000
G0 Z8.000
G0 Z8.000
G0 X0.000 Y0.000
G0 X172.195 Y-139.874
G0 X172.195 Y-139.874 Z6.000
G1 X172.195 Y-139.874 Z3.000 F180.000
G1 X172.195 Y-150.550 Z3.000 F240.000
G1 X182.871 Y-150.550 Z3.000 F240.000
G1 X182.871 Y-139.874 Z3.000 F240.000
G1 X172.195 Y-139.874 Z3.000 F240.000
G1 X172.195 Y-139.874 Z2.500 F180.000
G1 X172.195 Y-150.550 Z2.500 F240.000
G1 X182.871 Y-150.550 Z2.500 F240.000
G1 X182.871 Y-139.874 Z2.500 F240.000
G1 X172.195 Y-139.874 Z2.500 F240.000
G1 X172.195 Y-139.874 Z2.000 F180.000
G1 X172.195 Y-150.550 Z2.000 F240.000
G1 X182.871 Y-150.550 Z2.000 F240.000
G1 X182.871 Y-139.874 Z2.000 F240.000
G1 X172.195 Y-139.874 Z2.000 F240.000
G1 X172.195 Y-139.874 Z1.500 F180.000
G1 X172.195 Y-150.550 Z1.500 F240.000
G1 X182.871 Y-150.550 Z1.500 F240.000
G1 X182.871 Y-139.874 Z1.500 F240.000
G1 X172.195 Y-139.874 Z1.500 F240.000
G1 X172.195 Y-139.874 Z1.000 F180.000
G1 X172.195 Y-150.550 Z1.000 F240.000
G1 X182.871 Y-150.550 Z1.000 F240.000
G1 X182.871 Y-139.874 Z1.000 F240.000
G1 X172.195 Y-139.874 Z1.000 F240.000
G1 X172.195 Y-139.874 Z0.500 F180.000
G1 X172.195 Y-150.550 Z0.500 F240.000
G1 X182.871 Y-150.550 Z0.500 F240.000
G1 X182.871 Y-139.874 Z0.500 F240.000
G1 X172.195 Y-139.874 Z0.500 F240.000
G1 X172.195 Y-139.874 Z0.000 F180.000
G1 X172.195 Y-150.550 Z0.000 F240.000
G1 X182.871 Y-150.550 Z0.000 F240.000
G1 X182.871 Y-139.874 Z0.000 F240.000
G1 X172.195 Y-139.874 Z0.000 F240.000
G0 Z8.000
G0 Z8.000
G0 X172.195 Y-139.874
G0 Y-158.876
G0 Y-158.876 Z6.000
G1 X172.195 Y-158.876 Z3.000 F180.000
G1 X172.195 Y-169.552 Z3.000 F240.000
G1 X182.871 Y-169.552 Z3.000 F240.000
G1 X182.871 Y-158.876 Z3.000 F240.000
G1 X172.195 Y-158.876 Z3.000 F240.000
G1 X172.195 Y-158.876 Z2.500 F180.000
G1 X172.195 Y-169.552 Z2.500 F240.000
G1 X182.871 Y-169.552 Z2.500 F240.000
G1 X182.871 Y-158.876 Z2.500 F240.000
G1 X172.195 Y-158.876 Z2.500 F240.000
G1 X172.195 Y-158.876 Z2.000 F180.000
G1 X172.195 Y-169.552 Z2.000 F240.000
G1 X182.871 Y-169.552 Z2.000 F240.000
G1 X182.871 Y-158.876 Z2.000 F240.000
G1 X172.195 Y-158.876 Z2.000 F240.000
G1 X172.195 Y-158.876 Z1.500 F180.000
G1 X172.195 Y-169.552 Z1.500 F240.000
G1 X182.871 Y-169.552 Z1.500 F240.000
G1 X182.871 Y-158.876 Z1.500 F240.000
G1 X172.195 Y-158.876 Z1.500 F240.000
G1 X172.195 Y-158.876 Z1.000 F180.000
G1 X172.195 Y-169.552 Z1.000 F240.000
G1 X182.871 Y-169.552 Z1.000 F240.000
G1 X182.871 Y-158.876 Z1.000 F240.000
G1 X172.195 Y-158.876 Z1.000 F240.000
G1 X172.195 Y-158.876 Z0.500 F180.000
G1 X172.195 Y-169.552 Z0.500 F240.000
G1 X182.871 Y-169.552 Z0.500 F240.000
G1 X182.871 Y-158.876 Z0.500 F240.000
G1 X172.195 Y-158.876 Z0.500 F240.000
G1 X172.195 Y-158.876 Z0.000 F180.000
G1 X172.195 Y-169.552 Z0.000 F240.000
G1 X182.871 Y-169.552 Z0.000 F240.000
G1 X182.871 Y-158.876 Z0.000 F240.000
G1 X172.195 Y-158.876 Z0.000 F240.000
G0 Z8.000
G0 Z8.000
G0 X172.195 Y-158.876
G0 X191.196
G0 X191.196 Z6.000
G1 X191.196 Y-158.876 Z3.000 F180.000
G1 X191.196 Y-167.176 Z3.000 F240.000
G1 X201.872 Y-167.176 Z3.000 F240.000
G1 X201.872 Y-156.500 Z3.000 F240.000
G1 X191.196 Y-156.500 Z3.000 F240.000
G1 X191.196 Y-158.876 Z3.000 F240.000
G1 X191.196 Y-158.876 Z2.500 F180.000
G1 X191.196 Y-167.176 Z2.500 F240.000
G1 X201.872 Y-167.176 Z2.500 F240.000
G1 X201.872 Y-156.500 Z2.500 F240.000
G1 X191.196 Y-156.500 Z2.500 F240.000
G1 X191.196 Y-158.876 Z2.500 F240.000
G1 X191.196 Y-158.876 Z2.000 F180.000
G1 X191.196 Y-167.176 Z2.000 F240.000
G1 X201.872 Y-167.176 Z2.000 F240.000
G1 X201.872 Y-156.500 Z2.000 F240.000
G1 X191.196 Y-156.500 Z2.000 F240.000
G1 X191.196 Y-158.876 Z2.000 F240.000
G1 X191.196 Y-158.876 Z1.500 F180.000
G1 X191.196 Y-167.176 Z1.500 F240.000
G1 X201.872 Y-167.176 Z1.500 F240.000
G1 X201.872 Y-156.500 Z1.500 F240.000
G1 X191.196 Y-156.500 Z1.500 F240.000
G1 X191.196 Y-158.876 Z1.500 F240.000
G1 X191.196 Y-158.876 Z1.000 F180.000
G1 X191.196 Y-167.176 Z1.000 F240.000
G1 X201.872 Y-167.176 Z1.000 F240.000
G1 X201.872 Y-156.500 Z1.000 F240.000
G1 X191.196 Y-156.500 Z1.000 F240.000
G1 X191.196 Y-158.876 Z1.000 F240.000
G1 X191.196 Y-158.876 Z0.500 F180.000
G1 X191.196 Y-167.176 Z0.500 F240.000
G1 X201.872 Y-167.176 Z0.500 F240.000
G1 X201.872 Y-156.500 Z0.500 F240.000
G1 X191.196 Y-156.500 Z0.500 F240.000
G1 X191.196 Y-158.876 Z0.500 F240.000
G1 X191.196 Y-158.876 Z0.000 F180.000
G1 X191.196 Y-167.176 Z0.000 F240.000
G1 X201.872 Y-167.176 Z0.000 F240.000
G1 X201.872 Y-156.500 Z0.000 F240.000
G1 X191.196 Y-156.500 Z0.000 F240.000
G1 X191.196 Y-158.876 Z0.000 F240.000
G0 Z8.000
G0 Z8.000
G0 X191.196 Y-158.876
G0 Y-148.175
G0 Y-148.175 Z6.000
G1 X191.196 Y-148.175 Z3.000 F180.000
G1 X201.872 Y-148.175 Z3.000 F240.000
G1 X201.872 Y-137.499 Z3.000 F240.000
G1 X191.196 Y-137.499 Z3.000 F240.000
G1 X191.196 Y-148.175 Z3.000 F240.000
G1 X191.196 Y-148.175 Z2.500 F180.000
G1 X201.872 Y-148.175 Z2.500 F240.000
G1 X201.872 Y-137.499 Z2.500 F240.000
G1 X191.196 Y-137.499 Z2.500 F240.000
G1 X191.196 Y-148.175 Z2.500 F240.000
G1 X191.196 Y-148.175 Z2.000 F180.000
G1 X201.872 Y-148.175 Z2.000 F240.000
G1 X201.872 Y-137.499 Z2.000 F240.000
G1 X191.196 Y-137.499 Z2.000 F240.000
G1 X191.196 Y-148.175 Z2.000 F240.000
G1 X191.196 Y-148.175 Z1.500 F180.000
G1 X201.872 Y-148.175 Z1.500 F240.000
G1 X201.872 Y-137.499 Z1.500 F240.000
G1 X191.196 Y-137.499 Z1.500 F240.000
G1 X191.196 Y-148.175 Z1.500 F240.000
G1 X191.196 Y-148.175 Z1.000 F180.000
G1 X201.872 Y-148.175 Z1.000 F240.000
G1 X201.872 Y-137.499 Z1.000 F240.000
G1 X191.196 Y-137.499 Z1.000 F240.000
G1 X191.196 Y-148.175 Z1.000 F240.000
G1 X191.196 Y-148.175 Z0.500 F180.000
G1 X201.872 Y-148.175 Z0.500 F240.000
G1 X201.872 Y-137.499 Z0.500 F240.000
G1 X191.196 Y-137.499 Z0.500 F240.000
G1 X191.196 Y-148.175 Z0.500 F240.000
G1 X191.196 Y-148.175 Z0.000 F180.000
G1 X201.872 Y-148.175 Z0.000 F240.000
G1 X201.872 Y-137.499 Z0.000 F240.000
G1 X191.196 Y-137.499 Z0.000 F240.000
G1 X191.196 Y-148.175 Z0.000 F240.000
G0 Z8.000
G0 Z8.000
G0 X191.196 Y-148.175
G0 Y-129.174
G0 Y-129.174 Z6.000
G1 X191.196 Y-129.174 Z3.000 F180.000
G1 X201.872 Y-129.174 Z3.000 F240.000
G1 X201.872 Y-118.498 Z3.000 F240.000
G1 X191.196 Y-118.498 Z3.000 F240.000
G1 X191.196 Y-129.174 Z3.000 F240.000
G1 X191.196 Y-129.174 Z2.500 F180.000
G1 X201.872 Y-129.174 Z2.500 F240.000
G1 X201.872 Y-118.498 Z2.500 F240.000
G1 X191.196 Y-118.498 Z2.500 F240.000
G1 X191.196 Y-129.174 Z2.500 F240.000
G1 X191.196 Y-129.174 Z2.000 F180.000
G1 X201.872 Y-129.174 Z2.000 F240.000
G1 X201.872 Y-118.498 Z2.000 F240.000
G1 X191.196 Y-118.498 Z2.000 F240.000
G1 X191.196 Y-129.174 Z2.000 F240.000
G1 X191.196 Y-129.174 Z1.500 F180.000
G1 X201.872 Y-129.174 Z1.500 F240.000
G1 X201.872 Y-118.498 Z1.500 F240.000
G1 X191.196 Y-118.498 Z1.500 F240.000
G1 X191.196 Y-129.174 Z1.500 F240.000
G1 X191.196 Y-129.174 Z1.000 F180.000
G1 X201.872 Y-129.174 Z1.000 F240.000
G1 X201.872 Y-118.498 Z1.000 F240.000
G1 X191.196 Y-118.498 Z1.000 F240.000
G1 X191.196 Y-129.174 Z1.000 F240.000
G1 X191.196 Y-129.174 Z0.500 F180.000
G1 X201.872 Y-129.174 Z0.500 F240.000
G1 X201.872 Y-118.498 Z0.500 F240.000
G1 X191.196 Y-118.498 Z0.500 F240.000
G1 X191.196 Y-129.174 Z0.500 F240.000
G1 X191.196 Y-129.174 Z0.000 F180.000
G1 X201.872 Y-129.174 Z0.000 F240.000
G1 X201.872 Y-118.498 Z0.000 F240.000
G1 X191.196 Y-118.498 Z0.000 F240.000
G1 X191.196 Y-129.174 Z0.000 F240.000
G0 Z8.000
G0 Z8.000
G0 X191.196 Y-129.174
G0 X210.198 Y-126.798
G0 X210.198 Y-126.798 Z6.000
G1 X210.198 Y-126.798 Z3.000 F180.000
G1 X220.874 Y-126.798 Z3.000 F240.000
G1 X220.874 Y-116.122 Z3.000 F240.000
G1 X210.198 Y-116.122 Z3.000 F240.000
G1 X210.198 Y-126.798 Z3.000 F240.000
G1 X210.198 Y-126.798 Z2.500 F180.000
G1 X220.874 Y-126.798 Z2.500 F240.000
G1 X220.874 Y-116.122 Z2.500 F240.000
G1 X210.198 Y-116.122 Z2.500 F240.000
G1 X210.198 Y-126.798 Z2.500 F240.000
G1 X210.198 Y-126.798 Z2.000 F180.000
G1 X220.874 Y-126.798 Z2.000 F240.000
G1 X220.874 Y-116.122 Z2.000 F240.000
G1 X210.198 Y-116.122 Z2.000 F240.000
G1 X210.198 Y-126.798 Z2.000 F240.000
G1 X210.198 Y-126.798 Z1.500 F180.000
G1 X220.874 Y-126.798 Z1.500 F240.000
G1 X220.874 Y-116.122 Z1.500 F240.000
G1 X210.198 Y-116.122 Z1.500 F240.000
G1 X210.198 Y-126.798 Z1.500 F240.000
G1 X210.198 Y-126.798 Z1.000 F180.000
G1 X220.874 Y-126.798 Z1.000 F240.000
G1 X220.874 Y-116.122 Z1.000 F240.000
G1 X210.198 Y-116.122 Z1.000 F240.000
G1 X210.198 Y-126.798 Z1.000 F240.000
G1 X210.198 Y-126.798 Z0.500 F180.000
G1 X220.874 Y-126.798 Z0.500 F240.000
G1 X220.874 Y-116.122 Z0.500 F240.000
G1 X210.198 Y-116.122 Z0.500 F240.000
G1 X210.198 Y-126.798 Z0.500 F240.000
G1 X210.198 Y-126.798 Z0.000 F180.000
G1 X220.874 Y-126.798 Z0.000 F240.000
G1 X220.874 Y-116.122 Z0.000 F240.000
G1 X210.198 Y-116.122 Z0.000 F240.000
G1 X210.198 Y-126.798 Z0.000 F240.000
G0 Z8.000
G0 Z8.000
G0 X210.198 Y-126.798
G0 Y-135.124
G0 Y-135.124 Z6.000
G1 X210.198 Y-135.124 Z3.000 F180.000
G1 X210.198 Y-145.800 Z3.000 F240.000
G1 X220.874 Y-145.800 Z3.000 F240.000
G1 X220.874 Y-135.124 Z3.000 F240.000
G1 X210.198 Y-135.124 Z3.000 F240.000
G1 X210.198 Y-135.124 Z2.500 F180.000
G1 X210.198 Y-145.800 Z2.500 F240.000
G1 X220.874 Y-145.800 Z2.500 F240.000
G1 X220.874 Y-135.124 Z2.500 F240.000
G1 X210.198 Y-135.124 Z2.500 F240.000
G1 X210.198 Y-135.124 Z2.000 F180.000
G1 X210.198 Y-145.800 Z2.000 F240.000
G1 X220.874 Y-145.800 Z2.000 F240.000
G1 X220.874 Y-135.124 Z2.000 F240.000
G1 X210.198 Y-135.124 Z2.000 F240.000
G1 X210.198 Y-135.124 Z1.500 F180.000
G1 X210.198 Y-145.800 Z1.500 F240.000
G1 X220.874 Y-145.800 Z1.500 F240.000
G1 X220.874 Y-135.124 Z1.500 F240.000
G1 X210.198 Y-135.124 Z1.500 F240.000
G1 X210.198 Y-135.124 Z1.000 F180.000
G1 X210.198 Y-145.800 Z1.000 F240.000
G1 X220.874 Y-145.800 Z1.000 F240.000
G1 X220.874 Y-135.124 Z1.000 F240.000
G1 X210.198 Y-135.124 Z1.000 F240.000
G1 X210.198 Y-135.124 Z0.500 F180.000
G1 X210.198 Y-145.800 Z0.500 F240.000
G1 X220.874 Y-145.800 Z0.500 F240.000
G1 X220.874 Y-135.124 Z0.500 F240.000
G1 X210.198 Y-135.124 Z0.500 F240.000
G1 X210.198 Y-135.124 Z0.000 F180.000
G1 X210.198 Y-145.800 Z0.000 F240.000
G1 X220.874 Y-145.800 Z0.000 F240.000
G1 X220.874 Y-135.124 Z0.000 F240.000
G1 X210.198 Y-135.124 Z0.000 F240.000
G0 Z8.000
G0 Z8.000
G0 X210.198 Y-135.124
G0 Y-154.125
G0 Y-154.125 Z6.000
G1 X210.198 Y-154.125 Z3.000 F180.000
G1 X210.198 Y-164.801 Z3.000 F240.000
G1 X220.874 Y-164.801 Z3.000 F240.000
G1 X220.874 Y-154.125 Z3.000 F240.000
G1 X210.198 Y-154.125 Z3.000 F240.000
G1 X210.198 Y-154.125 Z2.500 F180.000
G1 X210.198 Y-164.801 Z2.500 F240.000
G1 X220.874 Y-164.801 Z2.500 F240.000
G1 X220.874 Y-154.125 Z2.500 F240.000
G1 X210.198 Y-154.125 Z2.500 F240.000
G1 X210.198 Y-154.125 Z2.000 F180.000
G1 X210.198 Y-164.801 Z2.000 F240.000
G1 X220.874 Y-164.801 Z2.000 F240.000
G1 X220.874 Y-154.125 Z2.000 F240.000
G1 X210.198 Y-154.125 Z2.000 F240.000
G1 X210.198 Y-154.125 Z1.500 F180.000
G1 X210.198 Y-164.801 Z1.500 F240.000
G1 X220.874 Y-164.801 Z1.500 F240.000
G1 X220.874 Y-154.125 Z1.500 F240.000
G1 X210.198 Y-154.125 Z1.500 F240.000
G1 X210.198 Y-154.125 Z1.000 F180.000
G1 X210.198 Y-164.801 Z1.000 F240.000
G1 X220.874 Y-164.801 Z1.000 F240.000
G1 X220.874 Y-154.125 Z1.000 F240.000
G1 X210.198 Y-154.125 Z1.000 F240.000
G1 X210.198 Y-154.125 Z0.500 F180.000
G1 X210.198 Y-164.801 Z0.500 F240.000
G1 X220.874 Y-164.801 Z0.500 F240.000
G1 X220.874 Y-154.125 Z0.500 F240.000
G1 X210.198 Y-154.125 Z0.500 F240.000
G1 X210.198 Y-154.125 Z0.000 F180.000
G1 X210.198 Y-164.801 Z0.000 F240.000
G1 X220.874 Y-164.801 Z0.000 F240.000
G1 X220.874 Y-154.125 Z0.000 F240.000
G1 X210.198 Y-154.125 Z0.000 F240.000
G0 Z8.000
G0 Z8.000
G0 X210.198 Y-154.125
G0 X229.199 Y-156.500
G0 X229.199 Y-156.500 Z6.000
G1 X229.199 Y-156.500 Z3.000 F180.000
G1 X229.199 Y-167.176 Z3.000 F240.000
G1 X239.875 Y-167.176 Z3.000 F240.000
G1 X239.875 Y-156.500 Z3.000 F240.000
G1 X229.199 Y-156.500 Z3.000 F240.000
G1 X229.199 Y-156.500 Z2.500 F180.000
G1 X229.199 Y-167.176 Z2.500 F240.000
G1 X239.875 Y-167.176 Z2.500 F240.000
G1 X239.875 Y-156.500 Z2.500 F240.000
G1 X229.199 Y-156.500 Z2.500 F240.000
G1 X229.199 Y-156.500 Z2.000 F180.000
G1 X229.199 Y-167.176 Z2.000 F240.000
G1 X239.875 Y-167.176 Z2.000 F240.000
G1 X239.875 Y-156.500 Z2.000 F240.000
G1 X229.199 Y-156.500 Z2.000 F240.000
G1 X229.199 Y-156.500 Z1.500 F180.000
G1 X229.199 Y-167.176 Z1.500 F240.000
G1 X239.875 Y-167.176 Z1.500 F240.000
G1 X239.875 Y-156.500 Z1.500 F240.000
G1 X229.199 Y-156.500 Z1.500 F240.000
G1 X229.199 Y-156.500 Z1.000 F180.000
G1 X229.199 Y-167.176 Z1.000 F240.000
G1 X239.875 Y-167.176 Z1.000 F240.000
G1 X239.875 Y-156.500 Z1.000 F240.000
G1 X229.199 Y-156.500 Z1.000 F240.000
G1 X229.199 Y-156.500 Z0.500 F180.000
G1 X229.199 Y-167.176 Z0.500 F240.000
G1 X239.875 Y-167.176 Z0.500 F240.000
G1 X239.875 Y-156.500 Z0.500 F240.000
G1 X229.199 Y-156.500 Z0.500 F240.000
G1 X229.199 Y-156.500 Z0.000 F180.000
G1 X229.199 Y-167.176 Z0.000 F240.000
G1 X239.875 Y-167.176 Z0.000 F240.000
G1 X239.875 Y-156.500 Z0.000 F240.000
G1 X229.199 Y-156.500 Z0.000 F240.000
G0 Z8.000
G0 Z8.000
G0 X229.199 Y-156.500
G0 Y-148.175
G0 Y-148.175 Z6.000
G1 X229.199 Y-148.175 Z3.000 F180.000
G1 X239.875 Y-148.175 Z3.000 F240.000
G1 X239.875 Y-137.499 Z3.000 F240.000
G1 X229.199 Y-137.499 Z3.000 F240.000
G1 X229.199 Y-148.175 Z3.000 F240.000
G1 X229.199 Y-148.175 Z2.500 F180.000
G1 X239.875 Y-148.175 Z2.500 F240.000
G1 X239.875 Y-137.499 Z2.500 F240.000
G1 X229.199 Y-137.499 Z2.500 F240.000
G1 X229.199 Y-148.175 Z2.500 F240.000
G1 X229.199 Y-148.175 Z2.000 F180.000
G1 X239.875 Y-148.175 Z2.000 F240.000
G1 X239.875 Y-137.499 Z2.000 F240.000
G1 X229.199 Y-137.499 Z2.000 F240.000
G1 X229.199 Y-148.175 Z2.000 F240.000
G1 X229.199 Y-148.175 Z1.500 F180.000
G1 X239.875 Y-148.175 Z1.500 F240.000
G1 X239.875 Y-137.499 Z1.500 F240.000
G1 X229.199 Y-137.499 Z1.500 F240.000
G1 X229.199 Y-148.175 Z1.500 F240.000
G1 X229.199 Y-148.175 Z1.000 F180.000
G1 X239.875 Y-148.175 Z1.000 F240.000
G1 X239.875 Y-137.499 Z1.000 F240.000
G1 X229.199 Y-137.499 Z1.000 F240.000
G1 X229.199 Y-148.175 Z1.000 F240.000
G1 X229.199 Y-148.175 Z0.500 F180.000
G1 X239.875 Y-148.175 Z0.500 F240.000
G1 X239.875 Y-137.499 Z0.500 F240.000
G1 X229.199 Y-137.499 Z0.500 F240.000
G1 X229.199 Y-148.175 Z0.500 F240.000
G1 X229.199 Y-148.175 Z0.000 F180.000
G1 X239.875 Y-148.175 Z0.000 F240.000
G1 X239.875 Y-137.499 Z0.000 F240.000
G1 X229.199 Y-137.499 Z0.000 F240.000
G1 X229.199 Y-148.175 Z0.000 F240.000
G0 Z8.000
G0 Z8.000
G0 X229.199 Y-148.175
G0 Y-129.174
G0 Y-129.174 Z6.000
G1 X229.199 Y-129.174 Z3.000 F180.000
G1 X239.875 Y-129.174 Z3.000 F240.000
G1 X239.875 Y-118.498 Z3.000 F240.000
G1 X229.199 Y-118.498 Z3.000 F240.000
G1 X229.199 Y-129.174 Z3.000 F240.000
G1 X229.199 Y-129.174 Z2.500 F180.000
G1 X239.875 Y-129.174 Z2.500 F240.000
G1 X239.875 Y-118.498 Z2.500 F240.000
G1 X229.199 Y-118.498 Z2.500 F240.000
G1 X229.199 Y-129.174 Z2.500 F240.000
G1 X229.199 Y-129.174 Z2.000 F180.000
G1 X239.875 Y-129.174 Z2.000 F240.000
G1 X239.875 Y-118.498 Z2.000 F240.000
G1 X229.199 Y-118.498 Z2.000 F240.000
G1 X229.199 Y-129.174 Z2.000 F240.000
G1 X229.199 Y-129.174 Z1.500 F180.000
G1 X239.875 Y-129.174 Z1.500 F240.000
G1 X239.875 Y-118.498 Z1.500 F240.000
G1 X229.199 Y-118.498 Z1.500 F240.000
G1 X229.199 Y-129.174 Z1.500 F240.000
G1 X229.199 Y-129.174 Z1.000 F180.000
G1 X239.875 Y-129.174 Z1.000 F240.000
G1 X239.875 Y-118.498 Z1.000 F240.000
G1 X229.199 Y-118.498 Z1.000 F240.000
G1 X229.199 Y-129.174 Z1.000 F240.000
G1 X229.199 Y-129.174 Z0.500 F180.000
G1 X239.875 Y-129.174 Z0.500 F240.000
G1 X239.875 Y-118.498 Z0.500 F240.000
G1 X229.199 Y-118.498 Z0.500 F240.000
G1 X229.199 Y-129.174 Z0.500 F240.000
G1 X229.199 Y-129.174 Z0.000 F180.000
G1 X239.875 Y-129.174 Z0.000 F240.000
G1 X239.875 Y-118.498 Z0.000 F240.000
G1 X229.199 Y-118.498 Z0.000 F240.000
G1 X229.199 Y-129.174 Z0.000 F240.000
G0 Z8.000
G0 Z8.000
G0 X229.199 Y-129.174
G0 X248.201
G0 X248.201 Z6.000
G1 X248.201 Y-129.174 Z3.000 F180.000
G1 X248.201 Y-133.924 Z3.000 F240.000
G1 X258.876 Y-133.924 Z3.000 F240.000
G1 X258.876 Y-123.248 Z3.000 F240.000
G1 X248.201 Y-123.248 Z3.000 F240.000
G1 X248.201 Y-129.174 Z3.000 F240.000
G1 X248.201 Y-129.174 Z2.500 F180.000
G1 X248.201 Y-133.924 Z2.500 F240.000
G1 X258.876 Y-133.924 Z2.500 F240.000
G1 X258.876 Y-123.248 Z2.500 F240.000
G1 X248.201 Y-123.248 Z2.500 F240.000
G1 X248.201 Y-129.174 Z2.500 F240.000
G1 X248.201 Y-129.174 Z2.000 F180.000
G1 X248.201 Y-133.924 Z2.000 F240.000
G1 X258.876 Y-133.924 Z2.000 F240.000
G1 X258.876 Y-123.248 Z2.000 F240.000
G1 X248.201 Y-123.248 Z2.000 F240.000
G1 X248.201 Y-129.174 Z2.000 F240.000
G1 X248.201 Y-129.174 Z1.500 F180.000
G1 X248.201 Y-133.924 Z1.500 F240.000
G1 X258.876 Y-133.924 Z1.500 F240.000
G1 X258.876 Y-123.248 Z1.500 F240.000
G1 X248.201 Y-123.248 Z1.500 F240.000
G1 X248.201 Y-129.174 Z1.500 F240.000
G1 X248.201 Y-129.174 Z1.000 F180.000
G1 X248.201 Y-133.924 Z1.000 F240.000
G1 X258.876 Y-133.924 Z1.000 F240.000
G1 X258.876 Y-123.248 Z1.000 F240.000
G1 X248.201 Y-123.248 Z1.000 F240.000
G1 X248.201 Y-129.174 Z1.000 F240.000
G1 X248.201 Y-129.174 Z0.500 F180.000
G1 X248.201 Y-133.924 Z0.500 F240.000
G1 X258.876 Y-133.924 Z0.500 F240.000
G1 X258.876 Y-123.248 Z0.500 F240.000
G1 X248.201 Y-123.248 Z0.500 F240.000
G1 X248.201 Y-129.174 Z0.500 F240.000
G1 X248.201 Y-129.174 Z0.000 F180.000
G1 X248.201 Y-133.924 Z0.000 F240.000
G1 X258.876 Y-133.924 Z0.000 F240.000
G1 X258.876 Y-123.248 Z0.000 F240.000
G1 X248.201 Y-123.248 Z0.000 F240.000
G1 X248.201 Y-129.174 Z0.000 F240.000
G0 Z8.000
G0 Z8.000
G0 Z8.000
G0 X0.000 Y0.000
G0 X248.201 Y-142.249
G0 X248.201 Y-142.249 Z6.000
G1 X248.201 Y-142.249 Z3.000 F180.000
G1 X248.201 Y-152.925 Z3.000 F240.000
G1 X258.876 Y-152.925 Z3.000 F240.000
G1 X258.876 Y-142.249 Z3.000 F240.000
G1 X248.201 Y-142.249 Z3.000 F240.000
G1 X248.201 Y-142.249 Z2.500 F180.000
G1 X248.201 Y-152.925 Z2.500 F240.000
G1 X258.876 Y-152.925 Z2.500 F240.000
G1 X258.876 Y-142.249 Z2.500 F240.000
G1 X248.201 Y-142.249 Z2.500 F240.000
G1 X248.201 Y-142.249 Z2.000 F180.000
G1 X248.201 Y-152.925 Z2.000 F240.000
G1 X258.876 Y-152.925 Z2.000 F240.000
G1 X258.876 Y-142.249 Z2.000 F240.000
G1 X248.201 Y-142.249 Z2.000 F240.000
G1 X248.201 Y-142.249 Z1.500 F180.000
G1 X248.201 Y-152.925 Z1.500 F240.000
G1 X258.876 Y-152.925 Z1.500 F240.000
G1 X258.876 Y-142.249 Z1.500 F240.000
G1 X248.201 Y-142.249 Z1.500 F240.000
G1 X248.201 Y-142.249 Z1.000 F180.000
G1 X248.201 Y-152.925 Z1.000 F240.000
G1 X258.876 Y-152.925 Z1.000 F240.000
G1 X258.876 Y-142.249 Z1.000 F240.000
G1 X248.201 Y-142.249 Z1.000 F240.000
G1 X248.201 Y-142.249 Z0.500 F180.000
G1 X248.201 Y-152.925 Z0.500 F240.000
G1 X258.876 Y-152.925 Z0.500 F240.000
G1 X258.876 Y-142.249 Z0.500 F240.000
G1 X248.201 Y-142.249 Z0.500 F240.000
G1 X248.201 Y-142.249 Z0.000 F180.000
G1 X248.201 Y-152.925 Z0.000 F240.000
G1 X258.876 Y-152.925 Z0.000 F240.000
G1 X258.876 Y-142.249 Z0.000 F240.000
G1 X248.201 Y-142.249 Z0.000 F240.000
G0 Z8.000
G0 Z8.000
G0 Z8.000
G0 X0.000 Y0.000
G0 X248.201 Y-161.250
G0 X248.201 Y-161.250 Z6.000
G1 X248.201 Y-161.250 Z3.000 F180.000
G1 X248.201 Y-171.927 Z3.000 F240.000
G1 X258.876 Y-171.927 Z3.000 F240.000
G1 X258.876 Y-161.250 Z3.000 F240.000
G1 X248.201 Y-161.250 Z3.000 F240.000
G1 X248.201 Y-161.250 Z2.500 F180.000
G1 X248.201 Y-171.927 Z2.500 F240.000
G1 X258.876 Y-171.927 Z2.500 F240.000
G1 X258.876 Y-161.250 Z2.500 F240.000
G1 X248.201 Y-161.250 Z2.500 F240.000
G1 X248.201 Y-161.250 Z2.000 F180.000
G1 X248.201 Y-171.927 Z2.000 F240.000
G1 X258.876 Y-171.927 Z2.000 F240.000
G1 X258.876 Y-161.250 Z2.000 F240.000
G1 X248.201 Y-161.250 Z2.000 F240.000
G1 X248.201 Y-161.250 Z1.500 F180.000
G1 X248.201 Y-171.927 Z1.500 F240.000
G1 X258.876 Y-171.927 Z1.500 F240.000
G1 X258.876 Y-161.250 Z1.500 F240.000
G1 X248.201 Y-161.250 Z1.500 F240.000
G1 X248.201 Y-161.250 Z1.000 F180.000
G1 X248.201 Y-171.927 Z1.000 F240.000
G1 X258.876 Y-171.927 Z1.000 F240.000
G1 X258.876 Y-161.250 Z1.000 F240.000
G1 X248.201 Y-161.250 Z1.000 F240.000
G1 X248.201 Y-161.250 Z0.500 F180.000
G1 X248.201 Y-171.927 Z0.500 F240.000
G1 X258.876 Y-171.927 Z0.500 F240.000
G1 X258.876 Y-161.250 Z0.500 F240.000
G1 X248.201 Y-161.250 Z0.500 F240.000
G1 X248.201 Y-161.250 Z0.000 F180.000
G1 X248.201 Y-171.927 Z0.000 F240.000
G1 X258.876 Y-171.927 Z0.000 F240.000
G1 X258.876 Y-161.250 Z0.000 F240.000
G1 X248.201 Y-161.250 Z0.000 F240.000
G0 Z8.000
G0 Z8.000
G0 X248.201 Y-161.250
G0 X267.202
G0 X267.202 Z6.000
G1 X267.202 Y-161.250 Z3.000 F180.000
G1 X267.202 Y-171.927 Z3.000 F240.000
G1 X277.878 Y-171.927 Z3.000 F240.000
G1 X277.878 Y-161.250 Z3.000 F240.000
G1 X267.202 Y-161.250 Z3.000 F240.000
G1 X267.202 Y-161.250 Z2.500 F180.000
G1 X267.202 Y-171.927 Z2.500 F240.000
G1 X277.878 Y-171.927 Z2.500 F240.000
G1 X277.878 Y-161.250 Z2.500 F240.000
G1 X267.202 Y-161.250 Z2.500 F240.000
G1 X267.202 Y-161.250 Z2.000 F180.000
G1 X267.202 Y-171.927 Z2.000 F240.000
G1 X277.878 Y-171.927 Z2.000 F240.000
G1 X277.878 Y-161.250 Z2.000 F240.000
G1 X267.202 Y-161.250 Z2.000 F240.000
G1 X267.202 Y-161.250 Z1.500 F180.000
G1 X267.202 Y-171.927 Z1.500 F240.000
G1 X277.878 Y-171.927 Z1.500 F240.000
G1 X277.878 Y-161.250 Z1.500 F240.000
G1 X267.202 Y-161.250 Z1.500 F240.000
G1 X267.202 Y-161.250 Z1.000 F180.000
G1 X267.202 Y-171.927 Z1.000 F240.000
G1 X277.878 Y-171.927 Z1.000 F240.000
G1 X277.878 Y-161.250 Z1.000 F240.000
G1 X267.202 Y-161.250 Z1.000 F240.000
G1 X267.202 Y-161.250 Z0.500 F180.000
G1 X267.202 Y-171.927 Z0.500 F240.000
G1 X277.878 Y-171.927 Z0.500 F240.000
G1 X277.878 Y-161.250 Z0.500 F240.000
G1 X267.202 Y-161.250 Z0.500 F240.000
G1 X267.202 Y-161.250 Z0.000 F180.000
G1 X267.202 Y-171.927 Z0.000 F240.000
G1 X277.878 Y-171.927 Z0.000 F240.000
G1 X277.878 Y-161.250 Z0.000 F240.000
G1 X267.202 Y-161.250 Z0.000 F240.000
G0 Z8.000
G0 Z8.000
G0 X267.202 Y-161.250
G0 X285.457 Y-166.149
G0 X285.457 Y-166.149 Z6.000
G1 X285.457 Y-166.149 Z3.000 F180.000
G3 X286.757 Y-167.363 Z3.000 I0.973 J-0.261 K0.000 F240.000
G3 X286.102 Y-165.457 Z3.000 I-0.328 J0.953 K0.000 F240.000
G3 X285.457 Y-166.149 Z3.000 I0.328 J-0.953 K0.000 F240.000
G1 X285.457 Y-166.149 Z2.500 F180.000
G3 X286.757 Y-167.363 Z2.500 I0.973 J-0.261 K0.000 F240.000
G3 X286.102 Y-165.457 Z2.500 I-0.328 J0.953 K0.000 F240.000
G3 X285.457 Y-166.149 Z2.500 I0.328 J-0.953 K0.000 F240.000
G1 X285.457 Y-166.149 Z2.000 F180.000
G3 X286.757 Y-167.363 Z2.000 I0.973 J-0.261 K0.000 F240.000
G3 X286.102 Y-165.457 Z2.000 I-0.328 J0.953 K0.000 F240.000
G3 X285.457 Y-166.149 Z2.000 I0.328 J-0.953 K0.000 F240.000
G1 X285.457 Y-166.149 Z1.500 F180.000
G3 X286.757 Y-167.363 Z1.500 I0.973 J-0.261 K0.000 F240.000
G3 X286.102 Y-165.457 Z1.500 I-0.328 J0.953 K0.000 F240.000
G3 X285.457 Y-166.149 Z1.500 I0.328 J-0.953 K0.000 F240.000
G1 X285.457 Y-166.149 Z1.000 F180.000
G3 X286.757 Y-167.363 Z1.000 I0.973 J-0.261 K0.000 F240.000
G3 X286.102 Y-165.457 Z1.000 I-0.328 J0.953 K0.000 F240.000
G3 X285.457 Y-166.149 Z1.000 I0.328 J-0.953 K0.000 F240.000
G1 X285.457 Y-166.149 Z0.500 F180.000
G3 X286.757 Y-167.363 Z0.500 I0.973 J-0.261 K0.000 F240.000
G3 X286.102 Y-165.457 Z0.500 I-0.328 J0.953 K0.000 F240.000
G3 X285.457 Y-166.149 Z0.500 I0.328 J-0.953 K0.000 F240.000
G1 X285.457 Y-166.149 Z0.000 F180.000
G3 X286.757 Y-167.363 Z0.000 I0.973 J-0.261 K0.000 F240.000
G3 X286.102 Y-165.457 Z0.000 I-0.328 J0.953 K0.000 F240.000
G3 X285.457 Y-166.149 Z0.000 I0.328 J-0.953 K0.000 F240.000
G0 Z8.000
G0 Z8.000
G0 X285.457 Y-166.149
G0 X277.878 Y-152.925
G0 X277.878 Y-152.925 Z6.000
G1 X277.878 Y-152.925 Z3.000 F180.000
G1 X277.878 Y-142.249 Z3.000 F240.000
G1 X267.202 Y-142.249 Z3.000 F240.000
G1 X267.202 Y-152.925 Z3.000 F240.000
G1 X277.878 Y-152.925 Z3.000 F240.000
G1 X277.878 Y-152.925 Z2.500 F180.000
G1 X277.878 Y-142.249 Z2.500 F240.000
G1 X267.202 Y-142.249 Z2.500 F240.000
G1 X267.202 Y-152.925 Z2.500 F240.000
G1 X277.878 Y-152.925 Z2.500 F240.000
G1 X277.878 Y-152.925 Z2.000 F180.000
G1 X277.878 Y-142.249 Z2.000 F240.000
G1 X267.202 Y-142.249 Z2.000 F240.000
G1 X267.202 Y-152.925 Z2.000 F240.000
G1 X277.878 Y-152.925 Z2.000 F240.000
G1 X277.878 Y-152.925 Z1.500 F180.000
G1 X277.878 Y-142.249 Z1.500 F240.000
G1 X267.202 Y-142.249 Z1.500 F240.000
G1 X267.202 Y-152.925 Z1.500 F240.000
G1 X277.878 Y-152.925 Z1.500 F240.000
G1 X277.878 Y-152.925 Z1.000 F180.000
G1 X277.878 Y-142.249 Z1.000 F240.000
G1 X267.202 Y-142.249 Z1.000 F240.000
G1 X267.202 Y-152.925 Z1.000 F240.000
G1 X277.878 Y-152.925 Z1.000 F240.000
G1 X277.878 Y-152.925 Z0.500 F180.000
G1 X277.878 Y-142.249 Z0.500 F240.000
G1 X267.202 Y-142.249 Z0.500 F240.000
G1 X267.202 Y-152.925 Z0.500 F240.000
G1 X277.878 Y-152.925 Z0.500 F240.000
G1 X277.878 Y-152.925 Z0.000 F180.000
G1 X277.878 Y-142.249 Z0.000 F240.000
G1 X267.202 Y-142.249 Z0.000 F240.000
G1 X267.202 Y-152.925 Z0.000 F240.000
G1 X277.878 Y-152.925 Z0.000 F240.000
G0 Z8.000
G0 Z8.000
G0 X277.878 Y-152.925
G0 X286.089 Y-129.338
G0 X286.089 Y-129.338 Z6.000
G1 X286.089 Y-129.338 Z3.000 F180.000
G3 X286.748 Y-129.339 Z3.000 I0.331 J0.952 K0.000 F240.000
G3 X286.093 Y-127.433 Z3.000 I-0.328 J0.953 K0.000 F240.000
G3 X286.089 Y-129.338 Z3.000 I0.328 J-0.953 K0.000 F240.000
G1 X286.089 Y-129.338 Z2.500 F180.000
G3 X286.748 Y-129.339 Z2.500 I0.331 J0.952 K0.000 F240.000
G3 X286.093 Y-127.433 Z2.500 I-0.328 J0.953 K0.000 F240.000
G3 X286.089 Y-129.338 Z2.500 I0.328 J-0.953 K0.000 F240.000
G1 X286.089 Y-129.338 Z2.000 F180.000
G3 X286.748 Y-129.339 Z2.000 I0.331 J0.952 K0.000 F240.000
G3 X286.093 Y-127.433 Z2.000 I-0.328 J0.953 K0.000 F240.000
G3 X286.089 Y-129.338 Z2.000 I0.328 J-0.953 K0.000 F240.000
G1 X286.089 Y-129.338 Z1.500 F180.000
G3 X286.748 Y-129.339 Z1.500 I0.331 J0.952 K0.000 F240.000
G3 X286.093 Y-127.433 Z1.500 I-0.328 J0.953 K0.000 F240.000
G3 X286.089 Y-129.338 Z1.500 I0.328 J-0.953 K0.000 F240.000
G1 X286.089 Y-129.338 Z1.000 F180.000
G3 X286.748 Y-129.339 Z1.000 I0.331 J0.952 K0.000 F240.000
G3 X286.093 Y-127.433 Z1.000 I-0.328 J0.953 K0.000 F240.000
G3 X286.089 Y-129.338 Z1.000 I0.328 J-0.953 K0.000 F240.000
G1 X286.089 Y-129.338 Z0.500 F180.000
G3 X286.748 Y-129.339 Z0.500 I0.331 J0.952 K0.000 F240.000
G3 X286.093 Y-127.433 Z0.500 I-0.328 J0.953 K0.000 F240.000
G3 X286.089 Y-129.338 Z0.500 I0.328 J-0.953 K0.000 F240.000
G1 X286.089 Y-129.338 Z0.000 F180.000
G3 X286.748 Y-129.339 Z0.000 I0.331 J0.952 K0.000 F240.000
G3 X286.093 Y-127.433 Z0.000 I-0.328 J0.953 K0.000 F240.000
G3 X286.089 Y-129.338 Z0.000 I0.328 J-0.953 K0.000 F240.000
G0 Z8.000
G0 Z8.000
G0 X286.089 Y-129.338
G0 X277.878
G0 X277.878 Z6.000
G1 X277.878 Y-129.338 Z3.000 F180.000
G1 X277.878 Y-123.248 Z3.000 F240.000
G1 X267.202 Y-123.248 Z3.000 F240.000
G1 X267.202 Y-133.924 Z3.000 F240.000
G1 X277.878 Y-133.924 Z3.000 F240.000
G1 X277.878 Y-129.338 Z3.000 F240.000
G1 X277.878 Y-129.338 Z2.500 F180.000
G1 X277.878 Y-123.248 Z2.500 F240.000
G1 X267.202 Y-123.248 Z2.500 F240.000
G1 X267.202 Y-133.924 Z2.500 F240.000
G1 X277.878 Y-133.924 Z2.500 F240.000
G1 X277.878 Y-129.338 Z2.500 F240.000
G1 X277.878 Y-129.338 Z2.000 F180.000
G1 X277.878 Y-123.248 Z2.000 F240.000
G1 X267.202 Y-123.248 Z2.000 F240.000
G1 X267.202 Y-133.924 Z2.000 F240.000
G1 X277.878 Y-133.924 Z2.000 F240.000
G1 X277.878 Y-129.338 Z2.000 F240.000
G1 X277.878 Y-129.338 Z1.500 F180.000
G1 X277.878 Y-123.248 Z1.500 F240.000
G1 X267.202 Y-123.248 Z1.500 F240.000
G1 X267.202 Y-133.924 Z1.500 F240.000
G1 X277.878 Y-133.924 Z1.500 F240.000
G1 X277.878 Y-129.338 Z1.500 F240.000
G1 X277.878 Y-129.338 Z1.000 F180.000
G1 X277.878 Y-123.248 Z1.000 F240.000
G1 X267.202 Y-123.248 Z1.000 F240.000
G1 X267.202 Y-133.924 Z1.000 F240.000
G1 X277.878 Y-133.924 Z1.000 F240.000
G1 X277.878 Y-129.338 Z1.000 F240.000
G1 X277.878 Y-129.338 Z0.500 F180.000
G1 X277.878 Y-123.248 Z0.500 F240.000
G1 X267.202 Y-123.248 Z0.500 F240.000
G1 X267.202 Y-133.924 Z0.500 F240.000
G1 X277.878 Y-133.924 Z0.500 F240.000
G1 X277.878 Y-129.338 Z0.500 F240.000
G1 X277.878 Y-129.338 Z0.000 F180.000
G1 X277.878 Y-123.248 Z0.000 F240.000
G1 X267.202 Y-123.248 Z0.000 F240.000
G1 X267.202 Y-133.924 Z0.000 F240.000
G1 X277.878 Y-133.924 Z0.000 F240.000
G1 X277.878 Y-129.338 Z0.000 F240.000
G0 Z8.000
G0 Z8.000
G0 X277.878 Y-129.338
G0 X283.571 Y-135.362
G0 X283.571 Y-135.362 Z6.000
G1 X283.571 Y-135.362 Z3.000 F180.000
G3 X283.125 Y-136.448 Z3.000 I0.980 J-1.037 K0.000 F240.000
G1 X283.133 Y-158.347 Z3.000 F240.000
G3 X284.585 Y-159.821 Z3.000 I1.423 J-0.050 K0.000 F240.000
G2 X285.724 Y-159.806 Z3.000 I0.831 J-20.223 K0.000 F240.000
G2 X288.492 Y-160.181 Z3.000 I0.272 J-8.399 K0.000 F240.000
G2 X287.150 Y-172.956 Z3.000 I-2.048 J-6.243 K0.000 F240.000
G2 X284.611 Y-172.998 Z3.000 I-1.613 J20.836 K0.000 F240.000
G3 X283.157 Y-174.190 Z3.000 I-0.051 J-1.420 K0.000 F240.000
G3 X283.123 Y-175.247 Z3.000 I8.262 J-0.798 K0.000 F240.000
G2 X281.036 Y-177.312 Z3.000 I-2.088 J0.024 K0.000 F240.000
G1 X226.592 Y-177.312 Z3.000 F240.000
G3 X219.050 Y-187.647 Z3.000 I126826.152 J-92553.088 K0.000 F240.000
G1 X219.050 Y-187.647 Z3.000 F240.000
G1 X216.413 Y-191.261 Z3.000 F240.000
G2 X215.063 Y-192.037 Z3.000 I-1.676 J1.352 K0.000 F240.000
G1 X178.310 Y-197.501 Z3.000 F240.000
G1 X163.749 Y-205.882 Z3.000 F240.000
G2 X163.106 Y-206.161 Z3.000 I-1.348 J2.232 K0.000 F240.000
G2 X160.365 Y-205.088 Z3.000 I-0.652 J2.373 K0.000 F240.000
G1 X157.856 Y-200.717 Z3.000 F240.000
G3 X156.091 Y-200.054 Z3.000 I-1.256 J-0.663 K0.000 F240.000
G2 X154.249 Y-201.103 Z3.000 I-52.696 J90.419 K0.000 F240.000
G2 X147.078 Y-190.079 Z3.000 I-3.268 J5.719 K0.000 F240.000
G2 X149.275 Y-188.747 Z3.000 I13.195 J-19.288 K0.000 F240.000
G3 X149.810 Y-186.742 Z3.000 I-0.679 J1.255 K0.000 F240.000
G1 X147.112 Y-182.025 Z3.000 F240.000
G2 X148.077 Y-178.161 Z3.000 I2.576 J1.408 K0.000 F240.000
G1 X166.940 Y-167.248 Z3.000 F240.000
G2 X166.940 Y-117.720 Z3.000 I3417520.011 J48.887 K0.000 F240.000
G2 X167.791 Y-116.047 Z3.000 I2.061 J0.005 K0.000 F240.000
G2 X169.447 Y-115.646 Z3.000 I1.330 J-1.871 K0.000 F240.000
G3 X170.923 Y-114.442 Z3.000 I0.046 J1.450 K0.000 F240.000
G2 X170.946 Y-112.309 Z3.000 I137.201 J-0.362 K0.000 F240.000
G2 X179.194 Y-105.972 Z3.000 I6.565 J-0.009 K0.000 F240.000
G2 X184.067 Y-111.635 Z3.000 I-1.727 J-6.414 K0.000 F240.000
G2 X184.120 Y-114.155 Z3.000 I-18.778 J-1.662 K0.000 F240.000
G3 X184.705 Y-115.357 Z3.000 I1.433 J-0.046 K0.000 F240.000
G3 X185.941 Y-115.632 Z3.000 I0.957 J1.392 K0.000 F240.000
G1 X185.941 Y-115.220 Z3.000 F240.000
G2 X188.029 Y-113.132 Z3.000 I2.088 J-0.001 K0.000 F240.000
G1 X204.943 Y-113.132 Z3.000 F240.000
G2 X207.030 Y-110.882 Z3.000 I2.111 J0.135 K0.000 F240.000
G1 X224.031 Y-110.882 Z3.000 F240.000
G2 X226.119 Y-113.132 Z3.000 I-0.004 J-2.097 K0.000 F240.000
G1 X243.033 Y-113.132 Z3.000 F240.000
G2 X245.120 Y-115.220 Z3.000 I-0.000 J-2.088 K0.000 F240.000
G1 X245.120 Y-117.883 Z3.000 F240.000
G1 X281.035 Y-117.883 Z3.000 F240.000
G2 X283.122 Y-120.027 Z3.000 I-0.000 J-2.088 K0.000 F240.000
G3 X284.311 Y-121.776 Z3.000 I1.465 J-0.283 K0.000 F240.000
G2 X286.349 Y-121.800 Z3.000 I-1.122 J-179.073 K0.000 F240.000
G2 X288.658 Y-122.219 Z3.000 I-0.054 J-6.875 K0.000 F240.000
G2 X287.140 Y-134.932 Z3.000 I-2.222 J-6.182 K0.000 F240.000
G2 X284.601 Y-134.973 Z3.000 I-1.612 J20.849 K0.000 F240.000
G3 X283.571 Y-135.362 Z3.000 I-0.050 J-1.426 K0.000 F240.000
G1 X283.571 Y-135.362 Z2.500 F180.000
G3 X283.125 Y-136.448 Z2.500 I0.980 J-1.037 K0.000 F240.000
G1 X283.133 Y-158.347 Z2.500 F240.000
G3 X284.585 Y-159.821 Z2.500 I1.423 J-0.050 K0.000 F240.000
G2 X285.724 Y-159.806 Z2.500 I0.831 J-20.223 K0.000 F240.000
G2 X288.492 Y-160.181 Z2.500 I0.272 J-8.399 K0.000 F240.000
G2 X287.150 Y-172.956 Z2.500 I-2.048 J-6.243 K0.000 F240.000
G2 X284.611 Y-172.998 Z2.500 I-1.613 J20.836 K0.000 F240.000
G3 X283.157 Y-174.190 Z2.500 I-0.051 J-1.420 K0.000 F240.000
G3 X283.123 Y-175.247 Z2.500 I8.262 J-0.798 K0.000 F240.000
G2 X281.036 Y-177.312 Z2.500 I-2.088 J0.024 K0.000 F240.000
G1 X226.592 Y-177.312 Z2.500 F240.000
G3 X219.050 Y-187.647 Z2.500 I126826.152 J-92553.088 K0.000 F240.000
G1 X219.050 Y-187.647 Z2.500 F240.000
G1 X216.413 Y-191.261 Z2.500 F240.000
G2 X215.063 Y-192.037 Z2.500 I-1.676 J1.352 K0.000 F240.000
G1 X178.310 Y-197.501 Z2.500 F240.000
G1 X163.749 Y-205.882 Z2.500 F240.000
G2 X163.106 Y-206.161 Z2.500 I-1.348 J2.232 K0.000 F240.000
G2 X160.365 Y-205.088 Z2.500 I-0.652 J2.373 K0.000 F240.000
G1 X157.856 Y-200.717 Z2.500 F240.000
G3 X156.091 Y-200.054 Z2.500 I-1.256 J-0.663 K0.000 F240.000
G2 X154.249 Y-201.103 Z2.500 I-52.696 J90.419 K0.000 F240.000
G2 X147.078 Y-190.079 Z2.500 I-3.268 J5.719 K0.000 F240.000
G2 X149.275 Y-188.747 Z2.500 I13.195 J-19.288 K0.000 F240.000
G3 X149.810 Y-186.742 Z2.500 I-0.679 J1.255 K0.000 F240.000
G1 X147.112 Y-182.025 Z2.500 F240.000
G2 X148.077 Y-178.161 Z2.500 I2.576 J1.408 K0.000 F240.000
G1 X166.940 Y-167.248 Z2.500 F240.000
G2 X166.940 Y-117.720 Z2.500 I3417520.011 J48.887 K0.000 F240.000
G2 X167.791 Y-116.047 Z2.500 I2.061 J0.005 K0.000 F240.000
G2 X169.447 Y-115.646 Z2.500 I1.330 J-1.871 K0.000 F240.000
G3 X170.923 Y-114.442 Z2.500 I0.046 J1.450 K0.000 F240.000
G2 X170.946 Y-112.309 Z2.500 I137.201 J-0.362 K0.000 F240.000
G2 X179.194 Y-105.972 Z2.500 I6.565 J-0.009 K0.000 F240.000
G2 X184.067 Y-111.635 Z2.500 I-1.727 J-6.414 K0.000 F240.000
G2 X184.120 Y-114.155 Z2.500 I-18.778 J-1.662 K0.000 F240.000
G3 X184.705 Y-115.357 Z2.500 I1.433 J-0.046 K0.000 F240.000
G3 X185.941 Y-115.632 Z2.500 I0.957 J1.392 K0.000 F240.000
G1 X185.941 Y-115.220 Z2.500 F240.000
G2 X188.029 Y-113.132 Z2.500 I2.088 J-0.001 K0.000 F240.000
G1 X204.943 Y-113.132 Z2.500 F240.000
G2 X207.030 Y-110.882 Z2.500 I2.111 J0.135 K0.000 F240.000
G1 X224.031 Y-110.882 Z2.500 F240.000
G2 X226.119 Y-113.132 Z2.500 I-0.004 J-2.097 K0.000 F240.000
G1 X243.033 Y-113.132 Z2.500 F240.000
G2 X245.120 Y-115.220 Z2.500 I-0.000 J-2.088 K0.000 F240.000
G1 X245.120 Y-117.883 Z2.500 F240.000
G1 X281.035 Y-117.883 Z2.500 F240.000
G2 X283.122 Y-120.027 Z2.500 I-0.000 J-2.088 K0.000 F240.000
G3 X284.311 Y-121.776 Z2.500 I1.465 J-0.283 K0.000 F240.000
G2 X286.349 Y-121.800 Z2.500 I-1.122 J-179.073 K0.000 F240.000
G2 X288.658 Y-122.219 Z2.500 I-0.054 J-6.875 K0.000 F240.000
G2 X287.140 Y-134.932 Z2.500 I-2.222 J-6.182 K0.000 F240.000
G2 X284.601 Y-134.973 Z2.500 I-1.612 J20.849 K0.000 F240.000
G3 X283.571 Y-135.362 Z2.500 I-0.050 J-1.426 K0.000 F240.000
G1 X283.571 Y-135.362 Z2.000 F180.000
G3 X283.125 Y-136.448 Z2.000 I0.980 J-1.037 K0.000 F240.000
G1 X283.133 Y-158.347 Z2.000 F240.000
G3 X284.585 Y-159.821 Z2.000 I1.423 J-0.050 K0.000 F240.000
G2 X285.724 Y-159.806 Z2.000 I0.831 J-20.223 K0.000 F240.000
G2 X288.492 Y-160.181 Z2.000 I0.272 J-8.399 K0.000 F240.000
G2 X287.150 Y-172.956 Z2.000 I-2.048 J-6.243 K0.000 F240.000
G2 X284.611 Y-172.998 Z2.000 I-1.613 J20.836 K0.000 F240.000
G3 X283.157 Y-174.190 Z2.000 I-0.051 J-1.420 K0.000 F240.000
G3 X283.123 Y-175.247 Z2.000 I8.262 J-0.798 K0.000 F240.000
G2 X281.036 Y-177.312 Z2.000 I-2.088 J0.024 K0.000 F240.000
G1 X226.592 Y-177.312 Z2.000 F240.000
G3 X219.050 Y-187.647 Z2.000 I126826.152 J-92553.088 K0.000 F240.000
G1 X219.050 Y-187.647 Z2.000 F240.000
G1 X216.413 Y-191.261 Z2.000 F240.000
G2 X215.063 Y-192.037 Z2.000 I-1.676 J1.352 K0.000 F240.000
G1 X178.310 Y-197.501 Z2.000 F240.000
G1 X163.749 Y-205.882 Z2.000 F240.000
G2 X163.106 Y-206.161 Z2.000 I-1.348 J2.232 K0.000 F240.000
G2 X160.365 Y-205.088 Z2.000 I-0.652 J2.373 K0.000 F240.000
G1 X157.856 Y-200.717 Z2.000 F240.000
G3 X156.091 Y-200.054 Z2.000 I-1.256 J-0.663 K0.000 F240.000
G2 X154.249 Y-201.103 Z2.000 I-52.696 J90.419 K0.000 F240.000
G2 X147.078 Y-190.079 Z2.000 I-3.268 J5.719 K0.000 F240.000
G2 X149.275 Y-188.747 Z2.000 I13.195 J-19.288 K0.000 F240.000
G3 X149.810 Y-186.742 Z2.000 I-0.679 J1.255 K0.000 F240.000
G1 X147.112 Y-182.025 Z2.000 F240.000
G2 X148.077 Y-178.161 Z2.000 I2.576 J1.408 K0.000 F240.000
G1 X166.940 Y-167.248 Z2.000 F240.000
G2 X166.940 Y-117.720 Z2.000 I3417520.011 J48.887 K0.000 F240.000
G2 X167.791 Y-116.047 Z2.000 I2.061 J0.005 K0.000 F240.000
G2 X169.447 Y-115.646 Z2.000 I1.330 J-1.871 K0.000 F240.000
G3 X170.923 Y-114.442 Z2.000 I0.046 J1.450 K0.000 F240.000
G2 X170.946 Y-112.309 Z2.000 I137.201 J-0.362 K0.000 F240.000
G2 X179.194 Y-105.972 Z2.000 I6.565 J-0.009 K0.000 F240.000
G2 X184.067 Y-111.635 Z2.000 I-1.727 J-6.414 K0.000 F240.000
G2 X184.120 Y-114.155 Z2.000 I-18.778 J-1.662 K0.000 F240.000
G3 X184.705 Y-115.357 Z2.000 I1.433 J-0.046 K0.000 F240.000
G3 X185.941 Y-115.632 Z2.000 I0.957 J1.392 K0.000 F240.000
G1 X185.941 Y-115.220 Z2.000 F240.000
G2 X188.029 Y-113.132 Z2.000 I2.088 J-0.001 K0.000 F240.000
G1 X204.943 Y-113.132 Z2.000 F240.000
G2 X207.030 Y-110.882 Z2.000 I2.111 J0.135 K0.000 F240.000
G1 X224.031 Y-110.882 Z2.000 F240.000
G2 X226.119 Y-113.132 Z2.000 I-0.004 J-2.097 K0.000 F240.000
G1 X243.033 Y-113.132 Z2.000 F240.000
G2 X245.120 Y-115.220 Z2.000 I-0.000 J-2.088 K0.000 F240.000
G1 X245.120 Y-117.883 Z2.000 F240.000
G1 X281.035 Y-117.883 Z2.000 F240.000
G2 X283.122 Y-120.027 Z2.000 I-0.000 J-2.088 K0.000 F240.000
G3 X284.311 Y-121.776 Z2.000 I1.465 J-0.283 K0.000 F240.000
G2 X286.349 Y-121.800 Z2.000 I-1.122 J-179.073 K0.000 F240.000
G2 X288.658 Y-122.219 Z2.000 I-0.054 J-6.875 K0.000 F240.000
G2 X287.140 Y-134.932 Z2.000 I-2.222 J-6.182 K0.000 F240.000
G2 X284.601 Y-134.973 Z2.000 I-1.612 J20.849 K0.000 F240.000
G3 X283.571 Y-135.362 Z2.000 I-0.050 J-1.426 K0.000 F240.000
G1 X283.571 Y-135.362 Z1.500 F180.000
G3 X283.125 Y-136.448 Z1.500 I0.980 J-1.037 K0.000 F240.000
G1 X283.133 Y-158.347 Z1.500 F240.000
G3 X284.585 Y-159.821 Z1.500 I1.423 J-0.050 K0.000 F240.000
G2 X285.724 Y-159.806 Z1.500 I0.831 J-20.223 K0.000 F240.000
G2 X288.492 Y-160.181 Z1.500 I0.272 J-8.399 K0.000 F240.000
G2 X287.150 Y-172.956 Z1.500 I-2.048 J-6.243 K0.000 F240.000
G2 X284.611 Y-172.998 Z1.500 I-1.613 J20.836 K0.000 F240.000
G3 X283.157 Y-174.190 Z1.500 I-0.051 J-1.420 K0.000 F240.000
G3 X283.123 Y-175.247 Z1.500 I8.262 J-0.798 K0.000 F240.000
G2 X281.036 Y-177.312 Z1.500 I-2.088 J0.024 K0.000 F240.000
G1 X226.592 Y-177.312 Z1.500 F240.000
G3 X219.050 Y-187.647 Z1.500 I126826.152 J-92553.088 K0.000 F240.000
G1 X219.050 Y-187.647 Z1.500 F240.000
G1 X216.413 Y-191.261 Z1.500 F240.000
G2 X215.063 Y-192.037 Z1.500 I-1.676 J1.352 K0.000 F240.000
G1 X178.310 Y-197.501 Z1.500 F240.000
G1 X163.749 Y-205.882 Z1.500 F240.000
G2 X163.106 Y-206.161 Z1.500 I-1.348 J2.232 K0.000 F240.000
G2 X160.365 Y-205.088 Z1.500 I-0.652 J2.373 K0.000 F240.000
G1 X157.856 Y-200.717 Z1.500 F240.000
G3 X156.091 Y-200.054 Z1.500 I-1.256 J-0.663 K0.000 F240.000
G2 X154.249 Y-201.103 Z1.500 I-52.696 J90.419 K0.000 F240.000
G2 X147.078 Y-190.079 Z1.500 I-3.268 J5.719 K0.000 F240.000
G2 X149.275 Y-188.747 Z1.500 I13.195 J-19.288 K0.000 F240.000
G3 X149.810 Y-186.742 Z1.500 I-0.679 J1.255 K0.000 F240.000
G1 X147.112 Y-182.025 Z1.500 F240.000
G2 X148.077 Y-178.161 Z1.500 I2.576 J1.408 K0.000 F240.000
G1 X166.940 Y-167.248 Z1.500 F240.000
G2 X166.940 Y-117.720 Z1.500 I3417520.011 J48.887 K0.000 F240.000
G2 X167.791 Y-116.047 Z1.500 I2.061 J0.005 K0.000 F240.000
G2 X169.447 Y-115.646 Z1.500 I1.330 J-1.871 K0.000 F240.000
G3 X170.923 Y-114.442 Z1.500 I0.046 J1.450 K0.000 F240.000
G2 X170.946 Y-112.309 Z1.500 I137.201 J-0.362 K0.000 F240.000
G2 X179.194 Y-105.972 Z1.500 I6.565 J-0.009 K0.000 F240.000
G2 X184.067 Y-111.635 Z1.500 I-1.727 J-6.414 K0.000 F240.000
G2 X184.120 Y-114.155 Z1.500 I-18.778 J-1.662 K0.000 F240.000
G3 X184.705 Y-115.357 Z1.500 I1.433 J-0.046 K0.000 F240.000
G3 X185.941 Y-115.632 Z1.500 I0.957 J1.392 K0.000 F240.000
G1 X185.941 Y-115.220 Z1.500 F240.000
G2 X188.029 Y-113.132 Z1.500 I2.088 J-0.001 K0.000 F240.000
G1 X204.943 Y-113.132 Z1.500 F240.000
G2 X207.030 Y-110.882 Z1.500 I2.111 J0.135 K0.000 F240.000
G1 X224.031 Y-110.882 Z1.500 F240.000
G2 X226.119 Y-113.132 Z1.500 I-0.004 J-2.097 K0.000 F240.000
G1 X243.033 Y-113.132 Z1.500 F240.000
G2 X245.120 Y-115.220 Z1.500 I-0.000 J-2.088 K0.000 F240.000
G1 X245.120 Y-117.883 Z1.500 F240.000
G1 X281.035 Y-117.883 Z1.500 F240.000
G2 X283.122 Y-120.027 Z1.500 I-0.000 J-2.088 K0.000 F240.000
G3 X284.311 Y-121.776 Z1.500 I1.465 J-0.283 K0.000 F240.000
G2 X286.349 Y-121.800 Z1.500 I-1.122 J-179.073 K0.000 F240.000
G2 X288.658 Y-122.219 Z1.500 I-0.054 J-6.875 K0.000 F240.000
G2 X287.140 Y-134.932 Z1.500 I-2.222 J-6.182 K0.000 F240.000
G2 X284.601 Y-134.973 Z1.500 I-1.612 J20.849 K0.000 F240.000
G3 X283.571 Y-135.362 Z1.500 I-0.050 J-1.426 K0.000 F240.000
G1 X283.571 Y-135.362 Z1.000 F180.000
G3 X283.125 Y-136.448 Z1.000 I0.980 J-1.037 K0.000 F240.000
G1 X283.133 Y-158.347 Z1.000 F240.000
G3 X284.585 Y-159.821 Z1.000 I1.423 J-0.050 K0.000 F240.000
G2 X285.724 Y-159.806 Z1.000 I0.831 J-20.223 K0.000 F240.000
G2 X288.492 Y-160.181 Z1.000 I0.272 J-8.399 K0.000 F240.000
G2 X287.150 Y-172.956 Z1.000 I-2.048 J-6.243 K0.000 F240.000
G2 X284.611 Y-172.998 Z1.000 I-1.613 J20.836 K0.000 F240.000
G3 X283.157 Y-174.190 Z1.000 I-0.051 J-1.420 K0.000 F240.000
G3 X283.123 Y-175.247 Z1.000 I8.262 J-0.798 K0.000 F240.000
G2 X281.036 Y-177.312 Z1.000 I-2.088 J0.024 K0.000 F240.000
G1 X226.592 Y-177.312 Z1.000 F240.000
G3 X219.050 Y-187.647 Z1.000 I126826.152 J-92553.088 K0.000 F240.000
G1 X219.050 Y-187.647 Z1.000 F240.000
G1 X216.413 Y-191.261 Z1.000 F240.000
G2 X215.063 Y-192.037 Z1.000 I-1.676 J1.352 K0.000 F240.000
G1 X178.310 Y-197.501 Z1.000 F240.000
G1 X163.749 Y-205.882 Z1.000 F240.000
G2 X163.106 Y-206.161 Z1.000 I-1.348 J2.232 K0.000 F240.000
G2 X160.365 Y-205.088 Z1.000 I-0.652 J2.373 K0.000 F240.000
G1 X157.856 Y-200.717 Z1.000 F240.000
G3 X156.091 Y-200.054 Z1.000 I-1.256 J-0.663 K0.000 F240.000
G2 X154.249 Y-201.103 Z1.000 I-52.696 J90.419 K0.000 F240.000
G2 X147.078 Y-190.079 Z1.000 I-3.268 J5.719 K0.000 F240.000
G2 X149.275 Y-188.747 Z1.000 I13.195 J-19.288 K0.000 F240.000
G3 X149.810 Y-186.742 Z1.000 I-0.679 J1.255 K0.000 F240.000
G1 X147.112 Y-182.025 Z1.000 F240.000
G2 X148.077 Y-178.161 Z1.000 I2.576 J1.408 K0.000 F240.000
G1 X166.940 Y-167.248 Z1.000 F240.000
G2 X166.940 Y-117.720 Z1.000 I3417520.011 J48.887 K0.000 F240.000
G2 X167.791 Y-116.047 Z1.000 I2.061 J0.005 K0.000 F240.000
G2 X169.447 Y-115.646 Z1.000 I1.330 J-1.871 K0.000 F240.000
G3 X170.923 Y-114.442 Z1.000 I0.046 J1.450 K0.000 F240.000
G2 X170.946 Y-112.309 Z1.000 I137.201 J-0.362 K0.000 F240.000
G2 X179.194 Y-105.972 Z1.000 I6.565 J-0.009 K0.000 F240.000
G2 X184.067 Y-111.635 Z1.000 I-1.727 J-6.414 K0.000 F240.000
G2 X184.120 Y-114.155 Z1.000 I-18.778 J-1.662 K0.000 F240.000
G3 X184.705 Y-115.357 Z1.000 I1.433 J-0.046 K0.000 F240.000
G3 X185.941 Y-115.632 Z1.000 I0.957 J1.392 K0.000 F240.000
G1 X185.941 Y-115.220 Z1.000 F240.000
G2 X188.029 Y-113.132 Z1.000 I2.088 J-0.001 K0.000 F240.000
G1 X204.943 Y-113.132 Z1.000 F240.000
G2 X207.030 Y-110.882 Z1.000 I2.111 J0.135 K0.000 F240.000
G1 X224.031 Y-110.882 Z1.000 F240.000
G2 X226.119 Y-113.132 Z1.000 I-0.004 J-2.097 K0.000 F240.000
G1 X243.033 Y-113.132 Z1.000 F240.000
G2 X245.120 Y-115.220 Z1.000 I-0.000 J-2.088 K0.000 F240.000
G1 X245.120 Y-117.883 Z1.000 F240.000
G1 X281.035 Y-117.883 Z1.000 F240.000
G2 X283.122 Y-120.027 Z1.000 I-0.000 J-2.088 K0.000 F240.000
G3 X284.311 Y-121.776 Z1.000 I1.465 J-0.283 K0.000 F240.000
G2 X286.349 Y-121.800 Z1.000 I-1.122 J-179.073 K0.000 F240.000
G2 X288.658 Y-122.219 Z1.000 I-0.054 J-6.875 K0.000 F240.000
G2 X287.140 Y-134.932 Z1.000 I-2.222 J-6.182 K0.000 F240.000
G2 X284.601 Y-134.973 Z1.000 I-1.612 J20.849 K0.000 F240.000
G3 X283.571 Y-135.362 Z1.000 I-0.050 J-1.426 K0.000 F240.000
G1 X283.571 Y-135.362 Z0.500 F180.000
G3 X283.125 Y-136.448 Z0.500 I0.980 J-1.037 K0.000 F240.000
G1 X283.133 Y-158.347 Z0.500 F240.000
G3 X284.585 Y-159.821 Z0.500 I1.423 J-0.050 K0.000 F240.000
G2 X285.724 Y-159.806 Z0.500 I0.831 J-20.223 K0.000 F240.000
G2 X288.492 Y-160.181 Z0.500 I0.272 J-8.399 K0.000 F240.000
G2 X287.150 Y-172.956 Z0.500 I-2.048 J-6.243 K0.000 F240.000
G2 X284.611 Y-172.998 Z0.500 I-1.613 J20.836 K0.000 F240.000
G3 X283.157 Y-174.190 Z0.500 I-0.051 J-1.420 K0.000 F240.000
G3 X283.123 Y-175.247 Z0.500 I8.262 J-0.798 K0.000 F240.000
G2 X281.036 Y-177.312 Z0.500 I-2.088 J0.024 K0.000 F240.000
G1 X226.592 Y-177.312 Z0.500 F240.000
G3 X219.050 Y-187.647 Z0.500 I126826.152 J-92553.088 K0.000 F240.000
G1 X219.050 Y-187.647 Z0.500 F240.000
G1 X216.413 Y-191.261 Z0.500 F240.000
G2 X215.063 Y-192.037 Z0.500 I-1.676 J1.352 K0.000 F240.000
G1 X178.310 Y-197.501 Z0.500 F240.000
G1 X163.749 Y-205.882 Z0.500 F240.000
G2 X163.106 Y-206.161 Z0.500 I-1.348 J2.232 K0.000 F240.000
G2 X160.365 Y-205.088 Z0.500 I-0.652 J2.373 K0.000 F240.000
G1 X157.856 Y-200.717 Z0.500 F240.000
G3 X156.091 Y-200.054 Z0.500 I-1.256 J-0.663 K0.000 F240.000
G2 X154.249 Y-201.103 Z0.500 I-52.696 J90.419 K0.000 F240.000
G2 X147.078 Y-190.079 Z0.500 I-3.268 J5.719 K0.000 F240.000
G2 X149.275 Y-188.747 Z0.500 I13.195 J-19.288 K0.000 F240.000
G3 X149.810 Y-186.742 Z0.500 I-0.679 J1.255 K0.000 F240.000
G1 X147.112 Y-182.025 Z0.500 F240.000
G2 X148.077 Y-178.161 Z0.500 I2.576 J1.408 K0.000 F240.000
G1 X166.940 Y-167.248 Z0.500 F240.000
G2 X166.940 Y-117.720 Z0.500 I3417520.011 J48.887 K0.000 F240.000
G2 X167.791 Y-116.047 Z0.500 I2.061 J0.005 K0.000 F240.000
G2 X169.447 Y-115.646 Z0.500 I1.330 J-1.871 K0.000 F240.000
G3 X170.923 Y-114.442 Z0.500 I0.046 J1.450 K0.000 F240.000
G2 X170.946 Y-112.309 Z0.500 I137.201 J-0.362 K0.000 F240.000
G2 X179.194 Y-105.972 Z0.500 I6.565 J-0.009 K0.000 F240.000
G2 X184.067 Y-111.635 Z0.500 I-1.727 J-6.414 K0.000 F240.000
G2 X184.120 Y-114.155 Z0.500 I-18.778 J-1.662 K0.000 F240.000
G3 X184.705 Y-115.357 Z0.500 I1.433 J-0.046 K0.000 F240.000
G3 X185.941 Y-115.632 Z0.500 I0.957 J1.392 K0.000 F240.000
G1 X185.941 Y-115.220 Z0.500 F240.000
G2 X188.029 Y-113.132 Z0.500 I2.088 J-0.001 K0.000 F240.000
G1 X204.943 Y-113.132 Z0.500 F240.000
G2 X207.030 Y-110.882 Z0.500 I2.111 J0.135 K0.000 F240.000
G1 X224.031 Y-110.882 Z0.500 F240.000
G2 X226.119 Y-113.132 Z0.500 I-0.004 J-2.097 K0.000 F240.000
G1 X243.033 Y-113.132 Z0.500 F240.000
G2 X245.120 Y-115.220 Z0.500 I-0.000 J-2.088 K0.000 F240.000
G1 X245.120 Y-117.883 Z0.500 F240.000
G1 X281.035 Y-117.883 Z0.500 F240.000
G2 X283.122 Y-120.027 Z0.500 I-0.000 J-2.088 K0.000 F240.000
G3 X284.311 Y-121.776 Z0.500 I1.465 J-0.283 K0.000 F240.000
G2 X286.349 Y-121.800 Z0.500 I-1.122 J-179.073 K0.000 F240.000
G2 X288.658 Y-122.219 Z0.500 I-0.054 J-6.875 K0.000 F240.000
G2 X287.140 Y-134.932 Z0.500 I-2.222 J-6.182 K0.000 F240.000
G2 X284.601 Y-134.973 Z0.500 I-1.612 J20.849 K0.000 F240.000
G3 X283.571 Y-135.362 Z0.500 I-0.050 J-1.426 K0.000 F240.000
G1 X283.571 Y-135.362 Z0.000 F180.000
G3 X283.125 Y-136.448 Z0.000 I0.980 J-1.037 K0.000 F240.000
G1 X283.133 Y-158.347 Z0.000 F240.000
G3 X284.585 Y-159.821 Z0.000 I1.423 J-0.050 K0.000 F240.000
G2 X285.724 Y-159.806 Z0.000 I0.831 J-20.223 K0.000 F240.000
G2 X288.492 Y-160.181 Z0.000 I0.272 J-8.399 K0.000 F240.000
G2 X287.150 Y-172.956 Z0.000 I-2.048 J-6.243 K0.000 F240.000
G2 X284.611 Y-172.998 Z0.000 I-1.613 J20.836 K0.000 F240.000
G3 X283.157 Y-174.190 Z0.000 I-0.051 J-1.420 K0.000 F240.000
G3 X283.123 Y-175.247 Z0.000 I8.262 J-0.798 K0.000 F240.000
G2 X281.036 Y-177.312 Z0.000 I-2.088 J0.024 K0.000 F240.000
G1 X226.592 Y-177.312 Z0.000 F240.000
G3 X219.050 Y-187.647 Z0.000 I126826.152 J-92553.088 K0.000 F240.000
G1 X219.050 Y-187.647 Z0.000 F240.000
G1 X216.413 Y-191.261 Z0.000 F240.000
G2 X215.063 Y-192.037 Z0.000 I-1.676 J1.352 K0.000 F240.000
G1 X178.310 Y-197.501 Z0.000 F240.000
G1 X163.749 Y-205.882 Z0.000 F240.000
G2 X163.106 Y-206.161 Z0.000 I-1.348 J2.232 K0.000 F240.000
G2 X160.365 Y-205.088 Z0.000 I-0.652 J2.373 K0.000 F240.000
G1 X157.856 Y-200.717 Z0.000 F240.000
G3 X156.091 Y-200.054 Z0.000 I-1.256 J-0.663 K0.000 F240.000
G2 X154.249 Y-201.103 Z0.000 I-52.696 J90.419 K0.000 F240.000
G2 X147.078 Y-190.079 Z0.000 I-3.268 J5.719 K0.000 F240.000
G2 X149.275 Y-188.747 Z0.000 I13.195 J-19.288 K0.000 F240.000
G3 X149.810 Y-186.742 Z0.000 I-0.679 J1.255 K0.000 F240.000
G1 X147.112 Y-182.025 Z0.000 F240.000
G2 X148.077 Y-178.161 Z0.000 I2.576 J1.408 K0.000 F240.000
G1 X166.940 Y-167.248 Z0.000 F240.000
G2 X166.940 Y-117.720 Z0.000 I3417520.011 J48.887 K0.000 F240.000
G2 X167.791 Y-116.047 Z0.000 I2.061 J0.005 K0.000 F240.000
G2 X169.447 Y-115.646 Z0.000 I1.330 J-1.871 K0.000 F240.000
G3 X170.923 Y-114.442 Z0.000 I0.046 J1.450 K0.000 F240.000
G2 X170.946 Y-112.309 Z0.000 I137.201 J-0.362 K0.000 F240.000
G2 X179.194 Y-105.972 Z0.000 I6.565 J-0.009 K0.000 F240.000
G2 X184.067 Y-111.635 Z0.000 I-1.727 J-6.414 K0.000 F240.000
G2 X184.120 Y-114.155 Z0.000 I-18.778 J-1.662 K0.000 F240.000
G3 X184.705 Y-115.357 Z0.000 I1.433 J-0.046 K0.000 F240.000
G3 X185.941 Y-115.632 Z0.000 I0.957 J1.392 K0.000 F240.000
G1 X185.941 Y-115.220 Z0.000 F240.000
G2 X188.029 Y-113.132 Z0.000 I2.088 J-0.001 K0.000 F240.000
G1 X204.943 Y-113.132 Z0.000 F240.000
G2 X207.030 Y-110.882 Z0.000 I2.111 J0.135 K0.000 F240.000
G1 X224.031 Y-110.882 Z0.000 F240.000
G2 X226.119 Y-113.132 Z0.000 I-0.004 J-2.097 K0.000 F240.000
G1 X243.033 Y-113.132 Z0.000 F240.000
G2 X245.120 Y-115.220 Z0.000 I-0.000 J-2.088 K0.000 F240.000
G1 X245.120 Y-117.883 Z0.000 F240.000
G1 X281.035 Y-117.883 Z0.000 F240.000
G2 X283.122 Y-120.027 Z0.000 I-0.000 J-2.088 K0.000 F240.000
G3 X284.311 Y-121.776 Z0.000 I1.465 J-0.283 K0.000 F240.000
G2 X286.349 Y-121.800 Z0.000 I-1.122 J-179.073 K0.000 F240.000
G2 X288.658 Y-122.219 Z0.000 I-0.054 J-6.875 K0.000 F240.000
G2 X287.140 Y-134.932 Z0.000 I-2.222 J-6.182 K0.000 F240.000
G2 X284.601 Y-134.973 Z0.000 I-1.612 J20.849 K0.000 F240.000
G3 X283.571 Y-135.362 Z0.000 I-0.050 J-1.426 K0.000 F240.000
G0 Z8.000
G0 Z8.000
G0 Z8.000
G0 X0.000 Y0.000
G0 X200.697 Y-176.127
G0 X200.697 Y-176.127 Z6.000
G1 X200.697 Y-176.127 Z3.000 F180.000
G1 X200.697 Y-186.803 Z3.000 F240.000
G1 X211.373 Y-186.803 Z3.000 F240.000
G1 X211.373 Y-176.127 Z3.000 F240.000
G1 X200.697 Y-176.127 Z3.000 F240.000
G1 X200.697 Y-176.127 Z2.500 F180.000
G1 X200.697 Y-186.803 Z2.500 F240.000
G1 X211.373 Y-186.803 Z2.500 F240.000
G1 X211.373 Y-176.127 Z2.500 F240.000
G1 X200.697 Y-176.127 Z2.500 F240.000
G1 X200.697 Y-176.127 Z2.000 F180.000
G1 X200.697 Y-186.803 Z2.000 F240.000
G1 X211.373 Y-186.803 Z2.000 F240.000
G1 X211.373 Y-176.127 Z2.000 F240.000
G1 X200.697 Y-176.127 Z2.000 F240.000
G1 X200.697 Y-176.127 Z1.500 F180.000
G1 X200.697 Y-186.803 Z1.500 F240.000
G1 X211.373 Y-186.803 Z1.500 F240.000
G1 X211.373 Y-176.127 Z1.500 F240.000
G1 X200.697 Y-176.127 Z1.500 F240.000
G1 X200.697 Y-176.127 Z1.000 F180.000
G1 X200.697 Y-186.803 Z1.000 F240.000
G1 X211.373 Y-186.803 Z1.000 F240.000
G1 X211.373 Y-176.127 Z1.000 F240.000
G1 X200.697 Y-176.127 Z1.000 F240.000
G1 X200.697 Y-176.127 Z0.500 F180.000
G1 X200.697 Y-186.803 Z0.500 F240.000
G1 X211.373 Y-186.803 Z0.500 F240.000
G1 X211.373 Y-176.127 Z0.500 F240.000
G1 X200.697 Y-176.127 Z0.500 F240.000
G1 X200.697 Y-176.127 Z0.000 F180.000
G1 X200.697 Y-186.803 Z0.000 F240.000
G1 X211.373 Y-186.803 Z0.000 F240.000
G1 X211.373 Y-176.127 Z0.000 F240.000
G1 X200.697 Y-176.127 Z0.000 F240.000
G0 Z8.000
G0 Z8.000
G0 X200.697 Y-176.127
G0 X189.210 Y-179.192
G0 X189.210 Y-179.192 Z6.000
G1 X189.210 Y-179.192 Z3.000 F180.000
G1 X188.807 Y-177.682 Z3.000 F240.000
G1 X178.492 Y-180.435 Z3.000 F240.000
G1 X181.245 Y-190.750 Z3.000 F240.000
G1 X191.560 Y-187.997 Z3.000 F240.000
G1 X189.210 Y-179.192 Z3.000 F240.000
G1 X189.210 Y-179.192 Z2.500 F180.000
G1 X188.807 Y-177.682 Z2.500 F240.000
G1 X178.492 Y-180.435 Z2.500 F240.000
G1 X181.245 Y-190.750 Z2.500 F240.000
G1 X191.560 Y-187.997 Z2.500 F240.000
G1 X189.210 Y-179.192 Z2.500 F240.000
G1 X189.210 Y-179.192 Z2.000 F180.000
G1 X188.807 Y-177.682 Z2.000 F240.000
G1 X178.492 Y-180.435 Z2.000 F240.000
G1 X181.245 Y-190.750 Z2.000 F240.000
G1 X191.560 Y-187.997 Z2.000 F240.000
G1 X189.210 Y-179.192 Z2.000 F240.000
G1 X189.210 Y-179.192 Z1.500 F180.000
G1 X188.807 Y-177.682 Z1.500 F240.000
G1 X178.492 Y-180.435 Z1.500 F240.000
G1 X181.245 Y-190.750 Z1.500 F240.000
G1 X191.560 Y-187.997 Z1.500 F240.000
G1 X189.210 Y-179.192 Z1.500 F240.000
G1 X189.210 Y-179.192 Z1.000 F180.000
G1 X188.807 Y-177.682 Z1.000 F240.000
G1 X178.492 Y-180.435 Z1.000 F240.000
G1 X181.245 Y-190.750 Z1.000 F240.000
G1 X191.560 Y-187.997 Z1.000 F240.000
G1 X189.210 Y-179.192 Z1.000 F240.000
G1 X189.210 Y-179.192 Z0.500 F180.000
G1 X188.807 Y-177.682 Z0.500 F240.000
G1 X178.492 Y-180.435 Z0.500 F240.000
G1 X181.245 Y-190.750 Z0.500 F240.000
G1 X191.560 Y-187.997 Z0.500 F240.000
G1 X189.210 Y-179.192 Z0.500 F240.000
G1 X189.210 Y-179.192 Z0.000 F180.000
G1 X188.807 Y-177.682 Z0.000 F240.000
G1 X178.492 Y-180.435 Z0.000 F240.000
G1 X181.245 Y-190.750 Z0.000 F240.000
G1 X191.560 Y-187.997 Z0.000 F240.000
G1 X189.210 Y-179.192 Z0.000 F240.000
G0 Z8.000
G0 Z8.000
G0 Z8.000
G0 X0.000 Y0.000
G0 X155.487 Y-186.000
G0 X155.487 Y-186.000 Z6.000
G1 X155.487 Y-186.000 Z3.000 F180.000
G1 X160.819 Y-195.249 Z3.000 F240.000
G1 X170.068 Y-189.918 Z3.000 F240.000
G1 X164.736 Y-180.669 Z3.000 F240.000
G1 X155.487 Y-186.000 Z3.000 F240.000
G1 X155.487 Y-186.000 Z2.500 F180.000
G1 X160.819 Y-195.249 Z2.500 F240.000
G1 X170.068 Y-189.918 Z2.500 F240.000
G1 X164.736 Y-180.669 Z2.500 F240.000
G1 X155.487 Y-186.000 Z2.500 F240.000
G1 X155.487 Y-186.000 Z2.000 F180.000
G1 X160.819 Y-195.249 Z2.000 F240.000
G1 X170.068 Y-189.918 Z2.000 F240.000
G1 X164.736 Y-180.669 Z2.000 F240.000
G1 X155.487 Y-186.000 Z2.000 F240.000
G1 X155.487 Y-186.000 Z1.500 F180.000
G1 X160.819 Y-195.249 Z1.500 F240.000
G1 X170.068 Y-189.918 Z1.500 F240.000
G1 X164.736 Y-180.669 Z1.500 F240.000
G1 X155.487 Y-186.000 Z1.500 F240.000
G1 X155.487 Y-186.000 Z1.000 F180.000
G1 X160.819 Y-195.249 Z1.000 F240.000
G1 X170.068 Y-189.918 Z1.000 F240.000
G1 X164.736 Y-180.669 Z1.000 F240.000
G1 X155.487 Y-186.000 Z1.000 F240.000
G1 X155.487 Y-186.000 Z0.500 F180.000
G1 X160.819 Y-195.249 Z0.500 F240.000
G1 X170.068 Y-189.918 Z0.500 F240.000
G1 X164.736 Y-180.669 Z0.500 F240.000
G1 X155.487 Y-186.000 Z0.500 F240.000
G1 X155.487 Y-186.000 Z0.000 F180.000
G1 X160.819 Y-195.249 Z0.000 F240.000
G1 X170.068 Y-189.918 Z0.000 F240.000
G1 X164.736 Y-180.669 Z0.000 F240.000
G1 X155.487 Y-186.000 Z0.000 F240.000
G0 Z8.000
G0 Z8.000
G0 X155.487 Y-186.000
G0 X151.417 Y-194.474
G0 X151.417 Y-194.474 Z6.000
G1 X151.417 Y-194.474 Z3.000 F180.000
G3 X150.676 Y-194.421 Z3.000 I-0.437 J-0.910 K0.000 F240.000
G3 X151.285 Y-196.346 Z3.000 I0.305 J-0.962 K0.000 F240.000
G3 X151.417 Y-194.474 Z3.000 I-0.305 J0.962 K0.000 F240.000
G1 X151.417 Y-194.474 Z2.500 F180.000
G3 X150.676 Y-194.421 Z2.500 I-0.437 J-0.910 K0.000 F240.000
G3 X151.285 Y-196.346 Z2.500 I0.305 J-0.962 K0.000 F240.000
G3 X151.417 Y-194.474 Z2.500 I-0.305 J0.962 K0.000 F240.000
G1 X151.417 Y-194.474 Z2.000 F180.000
G3 X150.676 Y-194.421 Z2.000 I-0.437 J-0.910 K0.000 F240.000
G3 X151.285 Y-196.346 Z2.000 I0.305 J-0.962 K0.000 F240.000
G3 X151.417 Y-194.474 Z2.000 I-0.305 J0.962 K0.000 F240.000
G1 X151.417 Y-194.474 Z1.500 F180.000
G3 X150.676 Y-194.421 Z1.500 I-0.437 J-0.910 K0.000 F240.000
G3 X151.285 Y-196.346 Z1.500 I0.305 J-0.962 K0.000 F240.000
G3 X151.417 Y-194.474 Z1.500 I-0.305 J0.962 K0.000 F240.000
G1 X151.417 Y-194.474 Z1.000 F180.000
G3 X150.676 Y-194.421 Z1.000 I-0.437 J-0.910 K0.000 F240.000
G3 X151.285 Y-196.346 Z1.000 I0.305 J-0.962 K0.000 F240.000
G3 X151.417 Y-194.474 Z1.000 I-0.305 J0.962 K0.000 F240.000
G1 X151.417 Y-194.474 Z0.500 F180.000
G3 X150.676 Y-194.421 Z0.500 I-0.437 J-0.910 K0.000 F240.000
G3 X151.285 Y-196.346 Z0.500 I0.305 J-0.962 K0.000 F240.000
G3 X151.417 Y-194.474 Z0.500 I-0.305 J0.962 K0.000 F240.000
G1 X151.417 Y-194.474 Z0.000 F180.000
G3 X150.676 Y-194.421 Z0.000 I-0.437 J-0.910 K0.000 F240.000
G3 X151.285 Y-196.346 Z0.000 I0.305 J-0.962 K0.000 F240.000
G3 X151.417 Y-194.474 Z0.000 I-0.305 J0.962 K0.000 F240.000
G0 Z8.000
G0 Z8.000
(Finish operation: Profile001)
(Begin postamble)
M5
G17 G90
M2
