(Exported by FreeCAD)
(Post Processor: grbl_post)
(Output Time:2022-04-12 20:06:37.145950)
(Begin preamble)
G17 G90
G21
(Begin operation: Fixture)
(Path: Fixture)
G54
(Finish operation: Fixture)
(Begin operation: 3mm_Endmill_3022)
(Path: 3mm_Endmill_3022)
(3mm_Endmill_3022)
(Begin toolchange)
( M6 T2.0 )
M3 S8000.0
(Finish operation: 3mm_Endmill_3022)
(Begin operation: Profile003)
(Path: Profile003)
(Profile003)
(Compensated Tool Path. Diameter: 3.175)
G0 Z8.000
G0 X-11.620 Y-18.374
G0 Z6.000
G1 X-11.620 Y-18.374 Z1.500 F480.000
G2 X-10.878 Y-20.027 Z1.500 I-1.345 J-1.597 K0.000 F720.000
G3 X-9.689 Y-21.776 Z1.500 I1.465 J-0.283 K0.000 F720.000
G2 X-7.651 Y-21.800 Z1.500 I-1.122 J-179.073 K0.000 F720.000
G2 X-5.342 Y-22.219 Z1.500 I-0.054 J-6.875 K0.000 F720.000
G2 X-6.860 Y-34.932 Z1.500 I-2.222 J-6.182 K0.000 F720.000
G2 X-9.399 Y-34.973 Z1.500 I-1.612 J20.849 K0.000 F720.000
G3 X-10.875 Y-36.448 Z1.500 I-0.050 J-1.426 K0.000 F720.000
G1 X-10.867 Y-58.347 Z1.500 F720.000
G3 X-9.415 Y-59.821 Z1.500 I1.423 J-0.050 K0.000 F720.000
G2 X-8.276 Y-59.806 Z1.500 I0.831 J-20.223 K0.000 F720.000
G2 X-5.508 Y-60.181 Z1.500 I0.272 J-8.399 K0.000 F720.000
G2 X-6.850 Y-72.956 Z1.500 I-2.048 J-6.243 K0.000 F720.000
G2 X-9.389 Y-72.998 Z1.500 I-1.613 J20.836 K0.000 F720.000
G3 X-10.843 Y-74.190 Z1.500 I-0.051 J-1.420 K0.000 F720.000
G3 X-10.877 Y-75.247 Z1.500 I8.262 J-0.798 K0.000 F720.000
G2 X-12.964 Y-77.312 Z1.500 I-2.088 J0.024 K0.000 F720.000
G1 X-67.408 Y-77.312 Z1.500 F720.000
G3 X-74.950 Y-87.647 Z1.500 I126826.152 J-92553.088 K0.000 F720.000
G1 X-74.950 Y-87.647 Z1.500 F720.000
G1 X-77.587 Y-91.261 Z1.500 F720.000
G2 X-78.937 Y-92.037 Z1.500 I-1.676 J1.352 K0.000 F720.000
G1 X-115.690 Y-97.501 Z1.500 F720.000
G1 X-130.251 Y-105.882 Z1.500 F720.000
G2 X-130.894 Y-106.161 Z1.500 I-1.348 J2.232 K0.000 F720.000
G2 X-133.635 Y-105.088 Z1.500 I-0.652 J2.373 K0.000 F720.000
G1 X-136.144 Y-100.717 Z1.500 F720.000
G3 X-137.909 Y-100.054 Z1.500 I-1.256 J-0.663 K0.000 F720.000
G2 X-139.751 Y-101.103 Z1.500 I-52.696 J90.419 K0.000 F720.000
G2 X-146.922 Y-90.079 Z1.500 I-3.268 J5.719 K0.000 F720.000
G2 X-144.725 Y-88.747 Z1.500 I13.195 J-19.288 K0.000 F720.000
G3 X-144.190 Y-86.742 Z1.500 I-0.679 J1.255 K0.000 F720.000
G1 X-146.888 Y-82.025 Z1.500 F720.000
G2 X-145.923 Y-78.161 Z1.500 I2.576 J1.408 K0.000 F720.000
G1 X-127.060 Y-67.248 Z1.500 F720.000
G2 X-127.060 Y-17.720 Z1.500 I3417520.011 J48.887 K0.000 F720.000
G2 X-126.209 Y-16.047 Z1.500 I2.061 J0.005 K0.000 F720.000
G2 X-124.553 Y-15.646 Z1.500 I1.330 J-1.871 K0.000 F720.000
G3 X-123.077 Y-14.442 Z1.500 I0.046 J1.450 K0.000 F720.000
G2 X-123.054 Y-12.309 Z1.500 I137.201 J-0.362 K0.000 F720.000
G2 X-114.806 Y-5.972 Z1.500 I6.565 J-0.009 K0.000 F720.000
G2 X-109.933 Y-11.635 Z1.500 I-1.727 J-6.414 K0.000 F720.000
G2 X-109.880 Y-14.155 Z1.500 I-18.778 J-1.662 K0.000 F720.000
G3 X-109.295 Y-15.357 Z1.500 I1.433 J-0.046 K0.000 F720.000
G3 X-108.059 Y-15.632 Z1.500 I0.957 J1.392 K0.000 F720.000
G1 X-108.059 Y-15.220 Z1.500 F720.000
G2 X-105.971 Y-13.132 Z1.500 I2.088 J-0.001 K0.000 F720.000
G1 X-89.057 Y-13.132 Z1.500 F720.000
G2 X-86.970 Y-10.882 Z1.500 I2.111 J0.135 K0.000 F720.000
G1 X-69.969 Y-10.882 Z1.500 F720.000
G2 X-67.881 Y-13.132 Z1.500 I-0.004 J-2.097 K0.000 F720.000
G1 X-50.967 Y-13.132 Z1.500 F720.000
G2 X-48.880 Y-15.220 Z1.500 I-0.000 J-2.088 K0.000 F720.000
G1 X-48.880 Y-17.883 Z1.500 F720.000
G1 X-12.965 Y-17.883 Z1.500 F720.000
G2 X-11.620 Y-18.374 Z1.500 I-0.000 J-2.088 K0.000 F720.000
G1 X-11.620 Y-18.374 Z1.000 F480.000
G2 X-10.878 Y-20.027 Z1.000 I-1.345 J-1.597 K0.000 F720.000
G3 X-9.689 Y-21.776 Z1.000 I1.465 J-0.283 K0.000 F720.000
G2 X-7.651 Y-21.800 Z1.000 I-1.122 J-179.073 K0.000 F720.000
G2 X-5.342 Y-22.219 Z1.000 I-0.054 J-6.875 K0.000 F720.000
G2 X-6.860 Y-34.932 Z1.000 I-2.222 J-6.182 K0.000 F720.000
G2 X-9.399 Y-34.973 Z1.000 I-1.612 J20.849 K0.000 F720.000
G3 X-10.875 Y-36.448 Z1.000 I-0.050 J-1.426 K0.000 F720.000
G1 X-10.867 Y-58.347 Z1.000 F720.000
G3 X-9.415 Y-59.821 Z1.000 I1.423 J-0.050 K0.000 F720.000
G2 X-8.276 Y-59.806 Z1.000 I0.831 J-20.223 K0.000 F720.000
G2 X-5.508 Y-60.181 Z1.000 I0.272 J-8.399 K0.000 F720.000
G2 X-6.850 Y-72.956 Z1.000 I-2.048 J-6.243 K0.000 F720.000
G2 X-9.389 Y-72.998 Z1.000 I-1.613 J20.836 K0.000 F720.000
G3 X-10.843 Y-74.190 Z1.000 I-0.051 J-1.420 K0.000 F720.000
G3 X-10.877 Y-75.247 Z1.000 I8.262 J-0.798 K0.000 F720.000
G2 X-12.964 Y-77.312 Z1.000 I-2.088 J0.024 K0.000 F720.000
G1 X-67.408 Y-77.312 Z1.000 F720.000
G3 X-74.950 Y-87.647 Z1.000 I126826.152 J-92553.088 K0.000 F720.000
G1 X-74.950 Y-87.647 Z1.000 F720.000
G1 X-77.587 Y-91.261 Z1.000 F720.000
G2 X-78.937 Y-92.037 Z1.000 I-1.676 J1.352 K0.000 F720.000
G1 X-115.690 Y-97.501 Z1.000 F720.000
G1 X-130.251 Y-105.882 Z1.000 F720.000
G2 X-130.894 Y-106.161 Z1.000 I-1.348 J2.232 K0.000 F720.000
G2 X-133.635 Y-105.088 Z1.000 I-0.652 J2.373 K0.000 F720.000
G1 X-136.144 Y-100.717 Z1.000 F720.000
G3 X-137.909 Y-100.054 Z1.000 I-1.256 J-0.663 K0.000 F720.000
G2 X-139.751 Y-101.103 Z1.000 I-52.696 J90.419 K0.000 F720.000
G2 X-146.922 Y-90.079 Z1.000 I-3.268 J5.719 K0.000 F720.000
G2 X-144.725 Y-88.747 Z1.000 I13.195 J-19.288 K0.000 F720.000
G3 X-144.190 Y-86.742 Z1.000 I-0.679 J1.255 K0.000 F720.000
G1 X-146.888 Y-82.025 Z1.000 F720.000
G2 X-145.923 Y-78.161 Z1.000 I2.576 J1.408 K0.000 F720.000
G1 X-127.060 Y-67.248 Z1.000 F720.000
G2 X-127.060 Y-17.720 Z1.000 I3417520.011 J48.887 K0.000 F720.000
G2 X-126.209 Y-16.047 Z1.000 I2.061 J0.005 K0.000 F720.000
G2 X-124.553 Y-15.646 Z1.000 I1.330 J-1.871 K0.000 F720.000
G3 X-123.077 Y-14.442 Z1.000 I0.046 J1.450 K0.000 F720.000
G2 X-123.054 Y-12.309 Z1.000 I137.201 J-0.362 K0.000 F720.000
G2 X-114.806 Y-5.972 Z1.000 I6.565 J-0.009 K0.000 F720.000
G2 X-109.933 Y-11.635 Z1.000 I-1.727 J-6.414 K0.000 F720.000
G2 X-109.880 Y-14.155 Z1.000 I-18.778 J-1.662 K0.000 F720.000
G3 X-109.295 Y-15.357 Z1.000 I1.433 J-0.046 K0.000 F720.000
G3 X-108.059 Y-15.632 Z1.000 I0.957 J1.392 K0.000 F720.000
G1 X-108.059 Y-15.220 Z1.000 F720.000
G2 X-105.971 Y-13.132 Z1.000 I2.088 J-0.001 K0.000 F720.000
G1 X-89.057 Y-13.132 Z1.000 F720.000
G2 X-86.970 Y-10.882 Z1.000 I2.111 J0.135 K0.000 F720.000
G1 X-69.969 Y-10.882 Z1.000 F720.000
G2 X-67.881 Y-13.132 Z1.000 I-0.004 J-2.097 K0.000 F720.000
G1 X-50.967 Y-13.132 Z1.000 F720.000
G2 X-48.880 Y-15.220 Z1.000 I-0.000 J-2.088 K0.000 F720.000
G1 X-48.880 Y-17.883 Z1.000 F720.000
G1 X-12.965 Y-17.883 Z1.000 F720.000
G2 X-11.620 Y-18.374 Z1.000 I-0.000 J-2.088 K0.000 F720.000
G1 X-11.620 Y-18.374 Z0.500 F480.000
G2 X-10.878 Y-20.027 Z0.500 I-1.345 J-1.597 K0.000 F720.000
G3 X-9.689 Y-21.776 Z0.500 I1.465 J-0.283 K0.000 F720.000
G2 X-7.651 Y-21.800 Z0.500 I-1.122 J-179.073 K0.000 F720.000
G2 X-5.342 Y-22.219 Z0.500 I-0.054 J-6.875 K0.000 F720.000
G2 X-6.860 Y-34.932 Z0.500 I-2.222 J-6.182 K0.000 F720.000
G2 X-9.399 Y-34.973 Z0.500 I-1.612 J20.849 K0.000 F720.000
G3 X-10.875 Y-36.448 Z0.500 I-0.050 J-1.426 K0.000 F720.000
G1 X-10.867 Y-58.347 Z0.500 F720.000
G3 X-9.415 Y-59.821 Z0.500 I1.423 J-0.050 K0.000 F720.000
G2 X-8.276 Y-59.806 Z0.500 I0.831 J-20.223 K0.000 F720.000
G2 X-5.508 Y-60.181 Z0.500 I0.272 J-8.399 K0.000 F720.000
G2 X-6.850 Y-72.956 Z0.500 I-2.048 J-6.243 K0.000 F720.000
G2 X-9.389 Y-72.998 Z0.500 I-1.613 J20.836 K0.000 F720.000
G3 X-10.843 Y-74.190 Z0.500 I-0.051 J-1.420 K0.000 F720.000
G3 X-10.877 Y-75.247 Z0.500 I8.262 J-0.798 K0.000 F720.000
G2 X-12.964 Y-77.312 Z0.500 I-2.088 J0.024 K0.000 F720.000
G1 X-67.408 Y-77.312 Z0.500 F720.000
G3 X-74.950 Y-87.647 Z0.500 I126826.152 J-92553.088 K0.000 F720.000
G1 X-74.950 Y-87.647 Z0.500 F720.000
G1 X-77.587 Y-91.261 Z0.500 F720.000
G2 X-78.937 Y-92.037 Z0.500 I-1.676 J1.352 K0.000 F720.000
G1 X-115.690 Y-97.501 Z0.500 F720.000
G1 X-130.251 Y-105.882 Z0.500 F720.000
G2 X-130.894 Y-106.161 Z0.500 I-1.348 J2.232 K0.000 F720.000
G2 X-133.635 Y-105.088 Z0.500 I-0.652 J2.373 K0.000 F720.000
G1 X-136.144 Y-100.717 Z0.500 F720.000
G3 X-137.909 Y-100.054 Z0.500 I-1.256 J-0.663 K0.000 F720.000
G2 X-139.751 Y-101.103 Z0.500 I-52.696 J90.419 K0.000 F720.000
G2 X-146.922 Y-90.079 Z0.500 I-3.268 J5.719 K0.000 F720.000
G2 X-144.725 Y-88.747 Z0.500 I13.195 J-19.288 K0.000 F720.000
G3 X-144.190 Y-86.742 Z0.500 I-0.679 J1.255 K0.000 F720.000
G1 X-146.888 Y-82.025 Z0.500 F720.000
G2 X-145.923 Y-78.161 Z0.500 I2.576 J1.408 K0.000 F720.000
G1 X-127.060 Y-67.248 Z0.500 F720.000
G2 X-127.060 Y-17.720 Z0.500 I3417520.011 J48.887 K0.000 F720.000
G2 X-126.209 Y-16.047 Z0.500 I2.061 J0.005 K0.000 F720.000
G2 X-124.553 Y-15.646 Z0.500 I1.330 J-1.871 K0.000 F720.000
G3 X-123.077 Y-14.442 Z0.500 I0.046 J1.450 K0.000 F720.000
G2 X-123.054 Y-12.309 Z0.500 I137.201 J-0.362 K0.000 F720.000
G2 X-114.806 Y-5.972 Z0.500 I6.565 J-0.009 K0.000 F720.000
G2 X-109.933 Y-11.635 Z0.500 I-1.727 J-6.414 K0.000 F720.000
G2 X-109.880 Y-14.155 Z0.500 I-18.778 J-1.662 K0.000 F720.000
G3 X-109.295 Y-15.357 Z0.500 I1.433 J-0.046 K0.000 F720.000
G3 X-108.059 Y-15.632 Z0.500 I0.957 J1.392 K0.000 F720.000
G1 X-108.059 Y-15.220 Z0.500 F720.000
G2 X-105.971 Y-13.132 Z0.500 I2.088 J-0.001 K0.000 F720.000
G1 X-89.057 Y-13.132 Z0.500 F720.000
G2 X-86.970 Y-10.882 Z0.500 I2.111 J0.135 K0.000 F720.000
G1 X-69.969 Y-10.882 Z0.500 F720.000
G2 X-67.881 Y-13.132 Z0.500 I-0.004 J-2.097 K0.000 F720.000
G1 X-50.967 Y-13.132 Z0.500 F720.000
G2 X-48.880 Y-15.220 Z0.500 I-0.000 J-2.088 K0.000 F720.000
G1 X-48.880 Y-17.883 Z0.500 F720.000
G1 X-12.965 Y-17.883 Z0.500 F720.000
G2 X-11.620 Y-18.374 Z0.500 I-0.000 J-2.088 K0.000 F720.000
G1 X-11.620 Y-18.374 Z0.000 F480.000
G2 X-10.878 Y-20.027 Z0.000 I-1.345 J-1.597 K0.000 F720.000
G3 X-9.689 Y-21.776 Z0.000 I1.465 J-0.283 K0.000 F720.000
G2 X-7.651 Y-21.800 Z0.000 I-1.122 J-179.073 K0.000 F720.000
G2 X-5.342 Y-22.219 Z0.000 I-0.054 J-6.875 K0.000 F720.000
G2 X-6.860 Y-34.932 Z0.000 I-2.222 J-6.182 K0.000 F720.000
G2 X-9.399 Y-34.973 Z0.000 I-1.612 J20.849 K0.000 F720.000
G3 X-10.875 Y-36.448 Z0.000 I-0.050 J-1.426 K0.000 F720.000
G1 X-10.867 Y-58.347 Z0.000 F720.000
G3 X-9.415 Y-59.821 Z0.000 I1.423 J-0.050 K0.000 F720.000
G2 X-8.276 Y-59.806 Z0.000 I0.831 J-20.223 K0.000 F720.000
G2 X-5.508 Y-60.181 Z0.000 I0.272 J-8.399 K0.000 F720.000
G2 X-6.850 Y-72.956 Z0.000 I-2.048 J-6.243 K0.000 F720.000
G2 X-9.389 Y-72.998 Z0.000 I-1.613 J20.836 K0.000 F720.000
G3 X-10.843 Y-74.190 Z0.000 I-0.051 J-1.420 K0.000 F720.000
G3 X-10.877 Y-75.247 Z0.000 I8.262 J-0.798 K0.000 F720.000
G2 X-12.964 Y-77.312 Z0.000 I-2.088 J0.024 K0.000 F720.000
G1 X-67.408 Y-77.312 Z0.000 F720.000
G3 X-74.950 Y-87.647 Z0.000 I126826.152 J-92553.088 K0.000 F720.000
G1 X-74.950 Y-87.647 Z0.000 F720.000
G1 X-77.587 Y-91.261 Z0.000 F720.000
G2 X-78.937 Y-92.037 Z0.000 I-1.676 J1.352 K0.000 F720.000
G1 X-115.690 Y-97.501 Z0.000 F720.000
G1 X-130.251 Y-105.882 Z0.000 F720.000
G2 X-130.894 Y-106.161 Z0.000 I-1.348 J2.232 K0.000 F720.000
G2 X-133.635 Y-105.088 Z0.000 I-0.652 J2.373 K0.000 F720.000
G1 X-136.144 Y-100.717 Z0.000 F720.000
G3 X-137.909 Y-100.054 Z0.000 I-1.256 J-0.663 K0.000 F720.000
G2 X-139.751 Y-101.103 Z0.000 I-52.696 J90.419 K0.000 F720.000
G2 X-146.922 Y-90.079 Z0.000 I-3.268 J5.719 K0.000 F720.000
G2 X-144.725 Y-88.747 Z0.000 I13.195 J-19.288 K0.000 F720.000
G3 X-144.190 Y-86.742 Z0.000 I-0.679 J1.255 K0.000 F720.000
G1 X-146.888 Y-82.025 Z0.000 F720.000
G2 X-145.923 Y-78.161 Z0.000 I2.576 J1.408 K0.000 F720.000
G1 X-127.060 Y-67.248 Z0.000 F720.000
G2 X-127.060 Y-17.720 Z0.000 I3417520.011 J48.887 K0.000 F720.000
G2 X-126.209 Y-16.047 Z0.000 I2.061 J0.005 K0.000 F720.000
G2 X-124.553 Y-15.646 Z0.000 I1.330 J-1.871 K0.000 F720.000
G3 X-123.077 Y-14.442 Z0.000 I0.046 J1.450 K0.000 F720.000
G2 X-123.054 Y-12.309 Z0.000 I137.201 J-0.362 K0.000 F720.000
G2 X-114.806 Y-5.972 Z0.000 I6.565 J-0.009 K0.000 F720.000
G2 X-109.933 Y-11.635 Z0.000 I-1.727 J-6.414 K0.000 F720.000
G2 X-109.880 Y-14.155 Z0.000 I-18.778 J-1.662 K0.000 F720.000
G3 X-109.295 Y-15.357 Z0.000 I1.433 J-0.046 K0.000 F720.000
G3 X-108.059 Y-15.632 Z0.000 I0.957 J1.392 K0.000 F720.000
G1 X-108.059 Y-15.220 Z0.000 F720.000
G2 X-105.971 Y-13.132 Z0.000 I2.088 J-0.001 K0.000 F720.000
G1 X-89.057 Y-13.132 Z0.000 F720.000
G2 X-86.970 Y-10.882 Z0.000 I2.111 J0.135 K0.000 F720.000
G1 X-69.969 Y-10.882 Z0.000 F720.000
G2 X-67.881 Y-13.132 Z0.000 I-0.004 J-2.097 K0.000 F720.000
G1 X-50.967 Y-13.132 Z0.000 F720.000
G2 X-48.880 Y-15.220 Z0.000 I-0.000 J-2.088 K0.000 F720.000
G1 X-48.880 Y-17.883 Z0.000 F720.000
G1 X-12.965 Y-17.883 Z0.000 F720.000
G2 X-11.620 Y-18.374 Z0.000 I-0.000 J-2.088 K0.000 F720.000
G0 Z8.000
G0 Z8.000
G0 X-11.620 Y-18.374
G0 X-7.957 Y-27.451
G0 X-7.957 Y-27.451 Z6.000
G1 X-7.957 Y-27.451 Z1.500 F480.000
G3 X-7.252 Y-29.339 Z1.500 I0.377 J-0.934 K0.000 F720.000
G3 X-7.907 Y-27.433 Z1.500 I-0.328 J0.953 K0.000 F720.000
G3 X-7.957 Y-27.451 Z1.500 I0.328 J-0.953 K0.000 F720.000
G1 X-7.957 Y-27.451 Z1.000 F480.000
G3 X-7.252 Y-29.339 Z1.000 I0.377 J-0.934 K0.000 F720.000
G3 X-7.907 Y-27.433 Z1.000 I-0.328 J0.953 K0.000 F720.000
G3 X-7.957 Y-27.451 Z1.000 I0.328 J-0.953 K0.000 F720.000
G1 X-7.957 Y-27.451 Z0.500 F480.000
G3 X-7.252 Y-29.339 Z0.500 I0.377 J-0.934 K0.000 F720.000
G3 X-7.907 Y-27.433 Z0.500 I-0.328 J0.953 K0.000 F720.000
G3 X-7.957 Y-27.451 Z0.500 I0.328 J-0.953 K0.000 F720.000
G1 X-7.957 Y-27.451 Z0.000 F480.000
G3 X-7.252 Y-29.339 Z0.000 I0.377 J-0.934 K0.000 F720.000
G3 X-7.907 Y-27.433 Z0.000 I-0.328 J0.953 K0.000 F720.000
G3 X-7.957 Y-27.451 Z0.000 I0.328 J-0.953 K0.000 F720.000
G0 Z8.000
G0 Z8.000
G0 X-7.957 Y-27.451
G0 X-16.122
G0 X-16.122 Z6.000
G1 X-16.122 Y-27.451 Z1.500 F480.000
G1 X-16.122 Y-23.248 Z1.500 F720.000
G1 X-26.798 Y-23.248 Z1.500 F720.000
G1 X-26.798 Y-33.924 Z1.500 F720.000
G1 X-16.122 Y-33.924 Z1.500 F720.000
G1 X-16.122 Y-27.451 Z1.500 F720.000
G1 X-16.122 Y-27.451 Z1.000 F480.000
G1 X-16.122 Y-23.248 Z1.000 F720.000
G1 X-26.798 Y-23.248 Z1.000 F720.000
G1 X-26.798 Y-33.924 Z1.000 F720.000
G1 X-16.122 Y-33.924 Z1.000 F720.000
G1 X-16.122 Y-27.451 Z1.000 F720.000
G1 X-16.122 Y-27.451 Z0.500 F480.000
G1 X-16.122 Y-23.248 Z0.500 F720.000
G1 X-26.798 Y-23.248 Z0.500 F720.000
G1 X-26.798 Y-33.924 Z0.500 F720.000
G1 X-16.122 Y-33.924 Z0.500 F720.000
G1 X-16.122 Y-27.451 Z0.500 F720.000
G1 X-16.122 Y-27.451 Z0.000 F480.000
G1 X-16.122 Y-23.248 Z0.000 F720.000
G1 X-26.798 Y-23.248 Z0.000 F720.000
G1 X-26.798 Y-33.924 Z0.000 F720.000
G1 X-16.122 Y-33.924 Z0.000 F720.000
G1 X-16.122 Y-27.451 Z0.000 F720.000
G0 Z8.000
G0 Z8.000
G0 X-16.122 Y-27.451
G0 Y-42.249
G0 Y-42.249 Z6.000
G1 X-16.122 Y-42.249 Z1.500 F480.000
G1 X-26.798 Y-42.249 Z1.500 F720.000
G1 X-26.798 Y-52.925 Z1.500 F720.000
G1 X-16.122 Y-52.925 Z1.500 F720.000
G1 X-16.122 Y-42.249 Z1.500 F720.000
G1 X-16.122 Y-42.249 Z1.000 F480.000
G1 X-26.798 Y-42.249 Z1.000 F720.000
G1 X-26.798 Y-52.925 Z1.000 F720.000
G1 X-16.122 Y-52.925 Z1.000 F720.000
G1 X-16.122 Y-42.249 Z1.000 F720.000
G1 X-16.122 Y-42.249 Z0.500 F480.000
G1 X-26.798 Y-42.249 Z0.500 F720.000
G1 X-26.798 Y-52.925 Z0.500 F720.000
G1 X-16.122 Y-52.925 Z0.500 F720.000
G1 X-16.122 Y-42.249 Z0.500 F720.000
G1 X-16.122 Y-42.249 Z0.000 F480.000
G1 X-26.798 Y-42.249 Z0.000 F720.000
G1 X-26.798 Y-52.925 Z0.000 F720.000
G1 X-16.122 Y-52.925 Z0.000 F720.000
G1 X-16.122 Y-42.249 Z0.000 F720.000
G0 Z8.000
G0 Z8.000
G0 Z8.000
G0 X0.000 Y0.000
G0 X-35.124 Y-42.249
G0 X-35.124 Y-42.249 Z6.000
G1 X-35.124 Y-42.249 Z1.500 F480.000
G1 X-45.799 Y-42.249 Z1.500 F720.000
G1 X-45.799 Y-52.925 Z1.500 F720.000
G1 X-35.124 Y-52.925 Z1.500 F720.000
G1 X-35.124 Y-42.249 Z1.500 F720.000
G1 X-35.124 Y-42.249 Z1.000 F480.000
G1 X-45.799 Y-42.249 Z1.000 F720.000
G1 X-45.799 Y-52.925 Z1.000 F720.000
G1 X-35.124 Y-52.925 Z1.000 F720.000
G1 X-35.124 Y-42.249 Z1.000 F720.000
G1 X-35.124 Y-42.249 Z0.500 F480.000
G1 X-45.799 Y-42.249 Z0.500 F720.000
G1 X-45.799 Y-52.925 Z0.500 F720.000
G1 X-35.124 Y-52.925 Z0.500 F720.000
G1 X-35.124 Y-42.249 Z0.500 F720.000
G1 X-35.124 Y-42.249 Z0.000 F480.000
G1 X-45.799 Y-42.249 Z0.000 F720.000
G1 X-45.799 Y-52.925 Z0.000 F720.000
G1 X-35.124 Y-52.925 Z0.000 F720.000
G1 X-35.124 Y-42.249 Z0.000 F720.000
G0 Z8.000
G0 Z8.000
G0 Z8.000
G0 X0.000 Y0.000
G0 X-35.124 Y-61.250
G0 X-35.124 Y-61.250 Z6.000
G1 X-35.124 Y-61.250 Z1.500 F480.000
G1 X-45.799 Y-61.250 Z1.500 F720.000
G1 X-45.799 Y-71.927 Z1.500 F720.000
G1 X-35.124 Y-71.927 Z1.500 F720.000
G1 X-35.124 Y-61.250 Z1.500 F720.000
G1 X-35.124 Y-61.250 Z1.000 F480.000
G1 X-45.799 Y-61.250 Z1.000 F720.000
G1 X-45.799 Y-71.927 Z1.000 F720.000
G1 X-35.124 Y-71.927 Z1.000 F720.000
G1 X-35.124 Y-61.250 Z1.000 F720.000
G1 X-35.124 Y-61.250 Z0.500 F480.000
G1 X-45.799 Y-61.250 Z0.500 F720.000
G1 X-45.799 Y-71.927 Z0.500 F720.000
G1 X-35.124 Y-71.927 Z0.500 F720.000
G1 X-35.124 Y-61.250 Z0.500 F720.000
G1 X-35.124 Y-61.250 Z0.000 F480.000
G1 X-45.799 Y-61.250 Z0.000 F720.000
G1 X-45.799 Y-71.927 Z0.000 F720.000
G1 X-35.124 Y-71.927 Z0.000 F720.000
G1 X-35.124 Y-61.250 Z0.000 F720.000
G0 Z8.000
G0 Z8.000
G0 X-35.124 Y-61.250
G0 X-26.798
G0 X-26.798 Z6.000
G1 X-26.798 Y-61.250 Z1.500 F480.000
G1 X-26.798 Y-71.927 Z1.500 F720.000
G1 X-16.122 Y-71.927 Z1.500 F720.000
G1 X-16.122 Y-61.250 Z1.500 F720.000
G1 X-26.798 Y-61.250 Z1.500 F720.000
G1 X-26.798 Y-61.250 Z1.000 F480.000
G1 X-26.798 Y-71.927 Z1.000 F720.000
G1 X-16.122 Y-71.927 Z1.000 F720.000
G1 X-16.122 Y-61.250 Z1.000 F720.000
G1 X-26.798 Y-61.250 Z1.000 F720.000
G1 X-26.798 Y-61.250 Z0.500 F480.000
G1 X-26.798 Y-71.927 Z0.500 F720.000
G1 X-16.122 Y-71.927 Z0.500 F720.000
G1 X-16.122 Y-61.250 Z0.500 F720.000
G1 X-26.798 Y-61.250 Z0.500 F720.000
G1 X-26.798 Y-61.250 Z0.000 F480.000
G1 X-26.798 Y-71.927 Z0.000 F720.000
G1 X-16.122 Y-71.927 Z0.000 F720.000
G1 X-16.122 Y-61.250 Z0.000 F720.000
G1 X-26.798 Y-61.250 Z0.000 F720.000
G0 Z8.000
G0 Z8.000
G0 X-26.798 Y-61.250
G0 X-8.543 Y-66.149
G0 X-8.543 Y-66.149 Z6.000
G1 X-8.543 Y-66.149 Z1.500 F480.000
G3 X-7.243 Y-67.363 Z1.500 I0.973 J-0.261 K0.000 F720.000
G3 X-7.898 Y-65.457 Z1.500 I-0.328 J0.953 K0.000 F720.000
G3 X-8.543 Y-66.149 Z1.500 I0.328 J-0.953 K0.000 F720.000
G1 X-8.543 Y-66.149 Z1.000 F480.000
G3 X-7.243 Y-67.363 Z1.000 I0.973 J-0.261 K0.000 F720.000
G3 X-7.898 Y-65.457 Z1.000 I-0.328 J0.953 K0.000 F720.000
G3 X-8.543 Y-66.149 Z1.000 I0.328 J-0.953 K0.000 F720.000
G1 X-8.543 Y-66.149 Z0.500 F480.000
G3 X-7.243 Y-67.363 Z0.500 I0.973 J-0.261 K0.000 F720.000
G3 X-7.898 Y-65.457 Z0.500 I-0.328 J0.953 K0.000 F720.000
G3 X-8.543 Y-66.149 Z0.500 I0.328 J-0.953 K0.000 F720.000
G1 X-8.543 Y-66.149 Z0.000 F480.000
G3 X-7.243 Y-67.363 Z0.000 I0.973 J-0.261 K0.000 F720.000
G3 X-7.898 Y-65.457 Z0.000 I-0.328 J0.953 K0.000 F720.000
G3 X-8.543 Y-66.149 Z0.000 I0.328 J-0.953 K0.000 F720.000
G0 Z8.000
G0 Z8.000
G0 X-8.543 Y-66.149
G0 X-54.125
G0 X-54.125 Z6.000
G1 X-54.125 Y-66.149 Z1.500 F480.000
G1 X-54.125 Y-56.500 Z1.500 F720.000
G1 X-64.801 Y-56.500 Z1.500 F720.000
G1 X-64.801 Y-67.176 Z1.500 F720.000
G1 X-54.125 Y-67.176 Z1.500 F720.000
G1 X-54.125 Y-66.149 Z1.500 F720.000
G1 X-54.125 Y-66.149 Z1.000 F480.000
G1 X-54.125 Y-56.500 Z1.000 F720.000
G1 X-64.801 Y-56.500 Z1.000 F720.000
G1 X-64.801 Y-67.176 Z1.000 F720.000
G1 X-54.125 Y-67.176 Z1.000 F720.000
G1 X-54.125 Y-66.149 Z1.000 F720.000
G1 X-54.125 Y-66.149 Z0.500 F480.000
G1 X-54.125 Y-56.500 Z0.500 F720.000
G1 X-64.801 Y-56.500 Z0.500 F720.000
G1 X-64.801 Y-67.176 Z0.500 F720.000
G1 X-54.125 Y-67.176 Z0.500 F720.000
G1 X-54.125 Y-66.149 Z0.500 F720.000
G1 X-54.125 Y-66.149 Z0.000 F480.000
G1 X-54.125 Y-56.500 Z0.000 F720.000
G1 X-64.801 Y-56.500 Z0.000 F720.000
G1 X-64.801 Y-67.176 Z0.000 F720.000
G1 X-54.125 Y-67.176 Z0.000 F720.000
G1 X-54.125 Y-66.149 Z0.000 F720.000
G0 Z8.000
G0 Z8.000
G0 X-54.125 Y-66.149
G0 Y-48.175
G0 Y-48.175 Z6.000
G1 X-54.125 Y-48.175 Z1.500 F480.000
G1 X-54.125 Y-37.499 Z1.500 F720.000
G1 X-64.801 Y-37.499 Z1.500 F720.000
G1 X-64.801 Y-48.175 Z1.500 F720.000
G1 X-54.125 Y-48.175 Z1.500 F720.000
G1 X-54.125 Y-48.175 Z1.000 F480.000
G1 X-54.125 Y-37.499 Z1.000 F720.000
G1 X-64.801 Y-37.499 Z1.000 F720.000
G1 X-64.801 Y-48.175 Z1.000 F720.000
G1 X-54.125 Y-48.175 Z1.000 F720.000
G1 X-54.125 Y-48.175 Z0.500 F480.000
G1 X-54.125 Y-37.499 Z0.500 F720.000
G1 X-64.801 Y-37.499 Z0.500 F720.000
G1 X-64.801 Y-48.175 Z0.500 F720.000
G1 X-54.125 Y-48.175 Z0.500 F720.000
G1 X-54.125 Y-48.175 Z0.000 F480.000
G1 X-54.125 Y-37.499 Z0.000 F720.000
G1 X-64.801 Y-37.499 Z0.000 F720.000
G1 X-64.801 Y-48.175 Z0.000 F720.000
G1 X-54.125 Y-48.175 Z0.000 F720.000
G0 Z8.000
G0 Z8.000
G0 X-54.125 Y-48.175
G0 Y-29.174
G0 Y-29.174 Z6.000
G1 X-54.125 Y-29.174 Z1.500 F480.000
G1 X-54.125 Y-18.498 Z1.500 F720.000
G1 X-64.801 Y-18.498 Z1.500 F720.000
G1 X-64.801 Y-29.174 Z1.500 F720.000
G1 X-54.125 Y-29.174 Z1.500 F720.000
G1 X-54.125 Y-29.174 Z1.000 F480.000
G1 X-54.125 Y-18.498 Z1.000 F720.000
G1 X-64.801 Y-18.498 Z1.000 F720.000
G1 X-64.801 Y-29.174 Z1.000 F720.000
G1 X-54.125 Y-29.174 Z1.000 F720.000
G1 X-54.125 Y-29.174 Z0.500 F480.000
G1 X-54.125 Y-18.498 Z0.500 F720.000
G1 X-64.801 Y-18.498 Z0.500 F720.000
G1 X-64.801 Y-29.174 Z0.500 F720.000
G1 X-54.125 Y-29.174 Z0.500 F720.000
G1 X-54.125 Y-29.174 Z0.000 F480.000
G1 X-54.125 Y-18.498 Z0.000 F720.000
G1 X-64.801 Y-18.498 Z0.000 F720.000
G1 X-64.801 Y-29.174 Z0.000 F720.000
G1 X-54.125 Y-29.174 Z0.000 F720.000
G0 Z8.000
G0 Z8.000
G0 X-54.125 Y-29.174
G0 X-45.799
G0 X-45.799 Z6.000
G1 X-45.799 Y-29.174 Z1.500 F480.000
G1 X-45.799 Y-33.924 Z1.500 F720.000
G1 X-35.124 Y-33.924 Z1.500 F720.000
G1 X-35.124 Y-23.248 Z1.500 F720.000
G1 X-45.799 Y-23.248 Z1.500 F720.000
G1 X-45.799 Y-29.174 Z1.500 F720.000
G1 X-45.799 Y-29.174 Z1.000 F480.000
G1 X-45.799 Y-33.924 Z1.000 F720.000
G1 X-35.124 Y-33.924 Z1.000 F720.000
G1 X-35.124 Y-23.248 Z1.000 F720.000
G1 X-45.799 Y-23.248 Z1.000 F720.000
G1 X-45.799 Y-29.174 Z1.000 F720.000
G1 X-45.799 Y-29.174 Z0.500 F480.000
G1 X-45.799 Y-33.924 Z0.500 F720.000
G1 X-35.124 Y-33.924 Z0.500 F720.000
G1 X-35.124 Y-23.248 Z0.500 F720.000
G1 X-45.799 Y-23.248 Z0.500 F720.000
G1 X-45.799 Y-29.174 Z0.500 F720.000
G1 X-45.799 Y-29.174 Z0.000 F480.000
G1 X-45.799 Y-33.924 Z0.000 F720.000
G1 X-35.124 Y-33.924 Z0.000 F720.000
G1 X-35.124 Y-23.248 Z0.000 F720.000
G1 X-45.799 Y-23.248 Z0.000 F720.000
G1 X-45.799 Y-29.174 Z0.000 F720.000
G0 Z8.000
G0 Z8.000
G0 X-45.799 Y-29.174
G0 X-73.126 Y-26.798
G0 X-73.126 Y-26.798 Z6.000
G1 X-73.126 Y-26.798 Z1.500 F480.000
G1 X-73.126 Y-16.122 Z1.500 F720.000
G1 X-83.802 Y-16.122 Z1.500 F720.000
G1 X-83.802 Y-26.798 Z1.500 F720.000
G1 X-73.126 Y-26.798 Z1.500 F720.000
G1 X-73.126 Y-26.798 Z1.000 F480.000
G1 X-73.126 Y-16.122 Z1.000 F720.000
G1 X-83.802 Y-16.122 Z1.000 F720.000
G1 X-83.802 Y-26.798 Z1.000 F720.000
G1 X-73.126 Y-26.798 Z1.000 F720.000
G1 X-73.126 Y-26.798 Z0.500 F480.000
G1 X-73.126 Y-16.122 Z0.500 F720.000
G1 X-83.802 Y-16.122 Z0.500 F720.000
G1 X-83.802 Y-26.798 Z0.500 F720.000
G1 X-73.126 Y-26.798 Z0.500 F720.000
G1 X-73.126 Y-26.798 Z0.000 F480.000
G1 X-73.126 Y-16.122 Z0.000 F720.000
G1 X-83.802 Y-16.122 Z0.000 F720.000
G1 X-83.802 Y-26.798 Z0.000 F720.000
G1 X-73.126 Y-26.798 Z0.000 F720.000
G0 Z8.000
G0 Z8.000
G0 X-73.126 Y-26.798
G0 Y-35.124
G0 Y-35.124 Z6.000
G1 X-73.126 Y-35.124 Z1.500 F480.000
G1 X-83.802 Y-35.124 Z1.500 F720.000
G1 X-83.802 Y-45.800 Z1.500 F720.000
G1 X-73.126 Y-45.800 Z1.500 F720.000
G1 X-73.126 Y-35.124 Z1.500 F720.000
G1 X-73.126 Y-35.124 Z1.000 F480.000
G1 X-83.802 Y-35.124 Z1.000 F720.000
G1 X-83.802 Y-45.800 Z1.000 F720.000
G1 X-73.126 Y-45.800 Z1.000 F720.000
G1 X-73.126 Y-35.124 Z1.000 F720.000
G1 X-73.126 Y-35.124 Z0.500 F480.000
G1 X-83.802 Y-35.124 Z0.500 F720.000
G1 X-83.802 Y-45.800 Z0.500 F720.000
G1 X-73.126 Y-45.800 Z0.500 F720.000
G1 X-73.126 Y-35.124 Z0.500 F720.000
G1 X-73.126 Y-35.124 Z0.000 F480.000
G1 X-83.802 Y-35.124 Z0.000 F720.000
G1 X-83.802 Y-45.800 Z0.000 F720.000
G1 X-73.126 Y-45.800 Z0.000 F720.000
G1 X-73.126 Y-35.124 Z0.000 F720.000
G0 Z8.000
G0 Z8.000
G0 X-73.126 Y-35.124
G0 Y-54.125
G0 Y-54.125 Z6.000
G1 X-73.126 Y-54.125 Z1.500 F480.000
G1 X-83.802 Y-54.125 Z1.500 F720.000
G1 X-83.802 Y-64.801 Z1.500 F720.000
G1 X-73.126 Y-64.801 Z1.500 F720.000
G1 X-73.126 Y-54.125 Z1.500 F720.000
G1 X-73.126 Y-54.125 Z1.000 F480.000
G1 X-83.802 Y-54.125 Z1.000 F720.000
G1 X-83.802 Y-64.801 Z1.000 F720.000
G1 X-73.126 Y-64.801 Z1.000 F720.000
G1 X-73.126 Y-54.125 Z1.000 F720.000
G1 X-73.126 Y-54.125 Z0.500 F480.000
G1 X-83.802 Y-54.125 Z0.500 F720.000
G1 X-83.802 Y-64.801 Z0.500 F720.000
G1 X-73.126 Y-64.801 Z0.500 F720.000
G1 X-73.126 Y-54.125 Z0.500 F720.000
G1 X-73.126 Y-54.125 Z0.000 F480.000
G1 X-83.802 Y-54.125 Z0.000 F720.000
G1 X-83.802 Y-64.801 Z0.000 F720.000
G1 X-73.126 Y-64.801 Z0.000 F720.000
G1 X-73.126 Y-54.125 Z0.000 F720.000
G0 Z8.000
G0 Z8.000
G0 X-73.126 Y-54.125
G0 X-92.128 Y-56.500
G0 X-92.128 Y-56.500 Z6.000
G1 X-92.128 Y-56.500 Z1.500 F480.000
G1 X-102.804 Y-56.500 Z1.500 F720.000
G1 X-102.804 Y-67.176 Z1.500 F720.000
G1 X-92.128 Y-67.176 Z1.500 F720.000
G1 X-92.128 Y-56.500 Z1.500 F720.000
G1 X-92.128 Y-56.500 Z1.000 F480.000
G1 X-102.804 Y-56.500 Z1.000 F720.000
G1 X-102.804 Y-67.176 Z1.000 F720.000
G1 X-92.128 Y-67.176 Z1.000 F720.000
G1 X-92.128 Y-56.500 Z1.000 F720.000
G1 X-92.128 Y-56.500 Z0.500 F480.000
G1 X-102.804 Y-56.500 Z0.500 F720.000
G1 X-102.804 Y-67.176 Z0.500 F720.000
G1 X-92.128 Y-67.176 Z0.500 F720.000
G1 X-92.128 Y-56.500 Z0.500 F720.000
G1 X-92.128 Y-56.500 Z0.000 F480.000
G1 X-102.804 Y-56.500 Z0.000 F720.000
G1 X-102.804 Y-67.176 Z0.000 F720.000
G1 X-92.128 Y-67.176 Z0.000 F720.000
G1 X-92.128 Y-56.500 Z0.000 F720.000
G0 Z8.000
G0 Z8.000
G0 X-92.128 Y-56.500
G0 Y-48.175
G0 Y-48.175 Z6.000
G1 X-92.128 Y-48.175 Z1.500 F480.000
G1 X-92.128 Y-37.499 Z1.500 F720.000
G1 X-102.804 Y-37.499 Z1.500 F720.000
G1 X-102.804 Y-48.175 Z1.500 F720.000
G1 X-92.128 Y-48.175 Z1.500 F720.000
G1 X-92.128 Y-48.175 Z1.000 F480.000
G1 X-92.128 Y-37.499 Z1.000 F720.000
G1 X-102.804 Y-37.499 Z1.000 F720.000
G1 X-102.804 Y-48.175 Z1.000 F720.000
G1 X-92.128 Y-48.175 Z1.000 F720.000
G1 X-92.128 Y-48.175 Z0.500 F480.000
G1 X-92.128 Y-37.499 Z0.500 F720.000
G1 X-102.804 Y-37.499 Z0.500 F720.000
G1 X-102.804 Y-48.175 Z0.500 F720.000
G1 X-92.128 Y-48.175 Z0.500 F720.000
G1 X-92.128 Y-48.175 Z0.000 F480.000
G1 X-92.128 Y-37.499 Z0.000 F720.000
G1 X-102.804 Y-37.499 Z0.000 F720.000
G1 X-102.804 Y-48.175 Z0.000 F720.000
G1 X-92.128 Y-48.175 Z0.000 F720.000
G0 Z8.000
G0 Z8.000
G0 Z8.000
G0 X0.000 Y0.000
G0 X-111.129 Y-39.874
G0 X-111.129 Y-39.874 Z6.000
G1 X-111.129 Y-39.874 Z1.500 F480.000
G1 X-121.805 Y-39.874 Z1.500 F720.000
G1 X-121.805 Y-50.550 Z1.500 F720.000
G1 X-111.129 Y-50.550 Z1.500 F720.000
G1 X-111.129 Y-39.874 Z1.500 F720.000
G1 X-111.129 Y-39.874 Z1.000 F480.000
G1 X-121.805 Y-39.874 Z1.000 F720.000
G1 X-121.805 Y-50.550 Z1.000 F720.000
G1 X-111.129 Y-50.550 Z1.000 F720.000
G1 X-111.129 Y-39.874 Z1.000 F720.000
G1 X-111.129 Y-39.874 Z0.500 F480.000
G1 X-121.805 Y-39.874 Z0.500 F720.000
G1 X-121.805 Y-50.550 Z0.500 F720.000
G1 X-111.129 Y-50.550 Z0.500 F720.000
G1 X-111.129 Y-39.874 Z0.500 F720.000
G1 X-111.129 Y-39.874 Z0.000 F480.000
G1 X-121.805 Y-39.874 Z0.000 F720.000
G1 X-121.805 Y-50.550 Z0.000 F720.000
G1 X-111.129 Y-50.550 Z0.000 F720.000
G1 X-111.129 Y-39.874 Z0.000 F720.000
G0 Z8.000
G0 Z8.000
G0 X-111.129 Y-39.874
G0 Y-31.549
G0 Y-31.549 Z6.000
G1 X-111.129 Y-31.549 Z1.500 F480.000
G1 X-111.129 Y-20.873 Z1.500 F720.000
G1 X-121.805 Y-20.873 Z1.500 F720.000
G1 X-121.805 Y-31.549 Z1.500 F720.000
G1 X-111.129 Y-31.549 Z1.500 F720.000
G1 X-111.129 Y-31.549 Z1.000 F480.000
G1 X-111.129 Y-20.873 Z1.000 F720.000
G1 X-121.805 Y-20.873 Z1.000 F720.000
G1 X-121.805 Y-31.549 Z1.000 F720.000
G1 X-111.129 Y-31.549 Z1.000 F720.000
G1 X-111.129 Y-31.549 Z0.500 F480.000
G1 X-111.129 Y-20.873 Z0.500 F720.000
G1 X-121.805 Y-20.873 Z0.500 F720.000
G1 X-121.805 Y-31.549 Z0.500 F720.000
G1 X-111.129 Y-31.549 Z0.500 F720.000
G1 X-111.129 Y-31.549 Z0.000 F480.000
G1 X-111.129 Y-20.873 Z0.000 F720.000
G1 X-121.805 Y-20.873 Z0.000 F720.000
G1 X-121.805 Y-31.549 Z0.000 F720.000
G1 X-111.129 Y-31.549 Z0.000 F720.000
G0 Z8.000
G0 Z8.000
G0 X-111.129 Y-31.549
G0 X-116.197 Y-13.306
G0 X-116.197 Y-13.306 Z6.000
G1 X-116.197 Y-13.306 Z1.500 F480.000
G3 X-116.139 Y-13.288 Z1.500 I-0.270 J0.971 K0.000 F720.000
G3 X-115.514 Y-12.008 Z1.500 I-0.328 J0.953 K0.000 F720.000
G3 X-116.794 Y-11.382 Z1.500 I-0.953 J-0.328 K0.000 F720.000
G3 X-116.197 Y-13.306 Z1.500 I0.328 J-0.953 K0.000 F720.000
G1 X-116.197 Y-13.306 Z1.000 F480.000
G3 X-116.139 Y-13.288 Z1.000 I-0.270 J0.971 K0.000 F720.000
G3 X-115.514 Y-12.008 Z1.000 I-0.328 J0.953 K0.000 F720.000
G3 X-116.794 Y-11.382 Z1.000 I-0.953 J-0.328 K0.000 F720.000
G3 X-116.197 Y-13.306 Z1.000 I0.328 J-0.953 K0.000 F720.000
G1 X-116.197 Y-13.306 Z0.500 F480.000
G3 X-116.139 Y-13.288 Z0.500 I-0.270 J0.971 K0.000 F720.000
G3 X-115.514 Y-12.008 Z0.500 I-0.328 J0.953 K0.000 F720.000
G3 X-116.794 Y-11.382 Z0.500 I-0.953 J-0.328 K0.000 F720.000
G3 X-116.197 Y-13.306 Z0.500 I0.328 J-0.953 K0.000 F720.000
G1 X-116.197 Y-13.306 Z0.000 F480.000
G3 X-116.139 Y-13.288 Z0.000 I-0.270 J0.971 K0.000 F720.000
G3 X-115.514 Y-12.008 Z0.000 I-0.328 J0.953 K0.000 F720.000
G3 X-116.794 Y-11.382 Z0.000 I-0.953 J-0.328 K0.000 F720.000
G3 X-116.197 Y-13.306 Z0.000 I0.328 J-0.953 K0.000 F720.000
G0 Z8.000
G0 Z8.000
G0 X-116.197 Y-13.306
G0 X-102.804 Y-18.498
G0 X-102.804 Y-18.498 Z6.000
G1 X-102.804 Y-18.498 Z1.500 F480.000
G1 X-102.804 Y-29.174 Z1.500 F720.000
G1 X-92.128 Y-29.174 Z1.500 F720.000
G1 X-92.128 Y-18.498 Z1.500 F720.000
G1 X-102.804 Y-18.498 Z1.500 F720.000
G1 X-102.804 Y-18.498 Z1.000 F480.000
G1 X-102.804 Y-29.174 Z1.000 F720.000
G1 X-92.128 Y-29.174 Z1.000 F720.000
G1 X-92.128 Y-18.498 Z1.000 F720.000
G1 X-102.804 Y-18.498 Z1.000 F720.000
G1 X-102.804 Y-18.498 Z0.500 F480.000
G1 X-102.804 Y-29.174 Z0.500 F720.000
G1 X-92.128 Y-29.174 Z0.500 F720.000
G1 X-92.128 Y-18.498 Z0.500 F720.000
G1 X-102.804 Y-18.498 Z0.500 F720.000
G1 X-102.804 Y-18.498 Z0.000 F480.000
G1 X-102.804 Y-29.174 Z0.000 F720.000
G1 X-92.128 Y-29.174 Z0.000 F720.000
G1 X-92.128 Y-18.498 Z0.000 F720.000
G1 X-102.804 Y-18.498 Z0.000 F720.000
G0 Z8.000
G0 Z8.000
G0 X-102.804 Y-18.498
G0 X-111.129 Y-58.876
G0 X-111.129 Y-58.876 Z6.000
G1 X-111.129 Y-58.876 Z1.500 F480.000
G1 X-121.805 Y-58.876 Z1.500 F720.000
G1 X-121.805 Y-69.552 Z1.500 F720.000
G1 X-111.129 Y-69.552 Z1.500 F720.000
G1 X-111.129 Y-58.876 Z1.500 F720.000
G1 X-111.129 Y-58.876 Z1.000 F480.000
G1 X-121.805 Y-58.876 Z1.000 F720.000
G1 X-121.805 Y-69.552 Z1.000 F720.000
G1 X-111.129 Y-69.552 Z1.000 F720.000
G1 X-111.129 Y-58.876 Z1.000 F720.000
G1 X-111.129 Y-58.876 Z0.500 F480.000
G1 X-121.805 Y-58.876 Z0.500 F720.000
G1 X-121.805 Y-69.552 Z0.500 F720.000
G1 X-111.129 Y-69.552 Z0.500 F720.000
G1 X-111.129 Y-58.876 Z0.500 F720.000
G1 X-111.129 Y-58.876 Z0.000 F480.000
G1 X-121.805 Y-58.876 Z0.000 F720.000
G1 X-121.805 Y-69.552 Z0.000 F720.000
G1 X-111.129 Y-69.552 Z0.000 F720.000
G1 X-111.129 Y-58.876 Z0.000 F720.000
G0 Z8.000
G0 Z8.000
G0 X-111.129 Y-58.876
G0 X-106.049 Y-77.910
G0 X-106.049 Y-77.910 Z6.000
G1 X-106.049 Y-77.910 Z1.500 F480.000
G1 X-115.508 Y-80.435 Z1.500 F720.000
G1 X-112.755 Y-90.750 Z1.500 F720.000
G1 X-102.440 Y-87.997 Z1.500 F720.000
G1 X-105.193 Y-77.682 Z1.500 F720.000
G1 X-106.049 Y-77.910 Z1.500 F720.000
G1 X-106.049 Y-77.910 Z1.000 F480.000
G1 X-115.508 Y-80.435 Z1.000 F720.000
G1 X-112.755 Y-90.750 Z1.000 F720.000
G1 X-102.440 Y-87.997 Z1.000 F720.000
G1 X-105.193 Y-77.682 Z1.000 F720.000
G1 X-106.049 Y-77.910 Z1.000 F720.000
G1 X-106.049 Y-77.910 Z0.500 F480.000
G1 X-115.508 Y-80.435 Z0.500 F720.000
G1 X-112.755 Y-90.750 Z0.500 F720.000
G1 X-102.440 Y-87.997 Z0.500 F720.000
G1 X-105.193 Y-77.682 Z0.500 F720.000
G1 X-106.049 Y-77.910 Z0.500 F720.000
G1 X-106.049 Y-77.910 Z0.000 F480.000
G1 X-115.508 Y-80.435 Z0.000 F720.000
G1 X-112.755 Y-90.750 Z0.000 F720.000
G1 X-102.440 Y-87.997 Z0.000 F720.000
G1 X-105.193 Y-77.682 Z0.000 F720.000
G1 X-106.049 Y-77.910 Z0.000 F720.000
G0 Z8.000
G0 Z8.000
G0 X-106.049 Y-77.910
G0 X-93.303
G0 X-93.303 Z6.000
G1 X-93.303 Y-77.910 Z1.500 F480.000
G1 X-93.303 Y-86.803 Z1.500 F720.000
G1 X-82.627 Y-86.803 Z1.500 F720.000
G1 X-82.627 Y-76.127 Z1.500 F720.000
G1 X-93.303 Y-76.127 Z1.500 F720.000
G1 X-93.303 Y-77.910 Z1.500 F720.000
G1 X-93.303 Y-77.910 Z1.000 F480.000
G1 X-93.303 Y-86.803 Z1.000 F720.000
G1 X-82.627 Y-86.803 Z1.000 F720.000
G1 X-82.627 Y-76.127 Z1.000 F720.000
G1 X-93.303 Y-76.127 Z1.000 F720.000
G1 X-93.303 Y-77.910 Z1.000 F720.000
G1 X-93.303 Y-77.910 Z0.500 F480.000
G1 X-93.303 Y-86.803 Z0.500 F720.000
G1 X-82.627 Y-86.803 Z0.500 F720.000
G1 X-82.627 Y-76.127 Z0.500 F720.000
G1 X-93.303 Y-76.127 Z0.500 F720.000
G1 X-93.303 Y-77.910 Z0.500 F720.000
G1 X-93.303 Y-77.910 Z0.000 F480.000
G1 X-93.303 Y-86.803 Z0.000 F720.000
G1 X-82.627 Y-86.803 Z0.000 F720.000
G1 X-82.627 Y-76.127 Z0.000 F720.000
G1 X-93.303 Y-76.127 Z0.000 F720.000
G1 X-93.303 Y-77.910 Z0.000 F720.000
G0 Z8.000
G0 Z8.000
G0 Z8.000
G0 Z8.000
G0 X0.000 Y0.000
G0 X-129.264 Y-80.669
G0 X-129.264 Y-80.669 Z6.000
G1 X-129.264 Y-80.669 Z1.500 F480.000
G1 X-138.513 Y-86.000 Z1.500 F720.000
G1 X-133.181 Y-95.249 Z1.500 F720.000
G1 X-123.932 Y-89.918 Z1.500 F720.000
G1 X-129.264 Y-80.669 Z1.500 F720.000
G1 X-129.264 Y-80.669 Z1.000 F480.000
G1 X-138.513 Y-86.000 Z1.000 F720.000
G1 X-133.181 Y-95.249 Z1.000 F720.000
G1 X-123.932 Y-89.918 Z1.000 F720.000
G1 X-129.264 Y-80.669 Z1.000 F720.000
G1 X-129.264 Y-80.669 Z0.500 F480.000
G1 X-138.513 Y-86.000 Z0.500 F720.000
G1 X-133.181 Y-95.249 Z0.500 F720.000
G1 X-123.932 Y-89.918 Z0.500 F720.000
G1 X-129.264 Y-80.669 Z0.500 F720.000
G1 X-129.264 Y-80.669 Z0.000 F480.000
G1 X-138.513 Y-86.000 Z0.000 F720.000
G1 X-133.181 Y-95.249 Z0.000 F720.000
G1 X-123.932 Y-89.918 Z0.000 F720.000
G1 X-129.264 Y-80.669 Z0.000 F720.000
G0 Z8.000
G0 Z8.000
G0 X-129.264 Y-80.669
G0 X-142.331 Y-94.646
G0 X-142.331 Y-94.646 Z6.000
G1 X-142.331 Y-94.646 Z1.500 F480.000
G3 X-143.324 Y-94.421 Z1.500 I-0.689 J-0.737 K0.000 F720.000
G3 X-142.715 Y-96.346 Z1.500 I0.305 J-0.962 K0.000 F720.000
G3 X-142.331 Y-94.646 Z1.500 I-0.305 J0.962 K0.000 F720.000
G1 X-142.331 Y-94.646 Z1.000 F480.000
G3 X-143.324 Y-94.421 Z1.000 I-0.689 J-0.737 K0.000 F720.000
G3 X-142.715 Y-96.346 Z1.000 I0.305 J-0.962 K0.000 F720.000
G3 X-142.331 Y-94.646 Z1.000 I-0.305 J0.962 K0.000 F720.000
G1 X-142.331 Y-94.646 Z0.500 F480.000
G3 X-143.324 Y-94.421 Z0.500 I-0.689 J-0.737 K0.000 F720.000
G3 X-142.715 Y-96.346 Z0.500 I0.305 J-0.962 K0.000 F720.000
G3 X-142.331 Y-94.646 Z0.500 I-0.305 J0.962 K0.000 F720.000
G1 X-142.331 Y-94.646 Z0.000 F480.000
G3 X-143.324 Y-94.421 Z0.000 I-0.689 J-0.737 K0.000 F720.000
G3 X-142.715 Y-96.346 Z0.000 I0.305 J-0.962 K0.000 F720.000
G3 X-142.331 Y-94.646 Z0.000 I-0.305 J0.962 K0.000 F720.000
G0 Z8.000
G0 Z8.000
(Finish operation: Profile003)
(Begin postamble)
M5
G17 G90
M2
